;FLAVOR:Marlin
;TIME:7982
;Filament used: 6.98915m
;Layer height: 0.2
;MINX:92.806
;MINY:58.805
;MINZ:0.2
;MAXX:117.194
;MAXY:151.198
;MAXZ:40
;Generated with Cura_SteamEngine 4.11.0
M140 S60
M105
M190 S60
M104 S200
M105
M109 S200
M82 ;absolute extrusion mode
G21 ;metric values
G90 ;absolute positioning
M82 ;set extruder to absolute mode
M107 ;start with the fan off
G28 X0 Y0 ;move X/Y to min endstops
G28 Z0 ;move Z to min endstops
G1 Z15.0 F100 ;move the platform down 15mm
G92 E0 ;zero the extruded length
G1 F200 E3 ;extrude 3mm of feed stock
G92 E0 ;zero the extruded length again
G1 F100
G0 Y20 F100
M117 Printing...
G5
G92 E0
G92 E0
G1 F2400 E-6
;LAYER_COUNT:200
;LAYER:0
M107
M204 S3000
M205 X10 Y10
G1 F600 Z0.275
G0 F3000 X93.776 Y62.071 Z0.275
M204 S1800
M205 X8 Y8
;TYPE:SKIRT
G1 F600 Z0.2
G1 F2400 E0
G1 X94.183 Y61.483 E0.0333
G1 X94.794 Y60.804 E0.07583
G1 X94.985 Y60.62 E0.08818
G1 X95.527 Y60.153 E0.1215
G1 X96.118 Y59.75 E0.1548
G1 X96.75 Y59.415 E0.18811
G1 X97.168 Y59.24 E0.20921
G1 X97.849 Y59.023 E0.24249
G1 X98.551 Y58.884 E0.27582
G1 X99.334 Y58.822 E0.31239
G1 X100.363 Y58.805 E0.36031
G1 X109.97 Y58.807 E0.80765
G1 X110.367 Y58.809 E0.82614
G1 X110.967 Y58.84 E0.85411
G1 X111.219 Y58.865 E0.86591
G1 X111.926 Y58.976 E0.89923
G1 X112.616 Y59.164 E0.93253
G1 X113.28 Y59.428 E0.9658
G1 X113.911 Y59.765 E0.99911
G1 X114.501 Y60.17 E1.03244
G1 X115.074 Y60.67 E1.06785
G1 X115.252 Y60.845 E1.07947
G1 X115.733 Y61.374 E1.11276
G1 X116.152 Y61.954 E1.14608
G1 X116.504 Y62.577 E1.1794
G1 X116.758 Y63.162 E1.2091
G1 X116.77 Y63.194 E1.21069
G1 X116.983 Y63.877 E1.244
G1 X117.119 Y64.579 E1.2773
G1 X117.176 Y65.322 E1.312
G1 X117.194 Y66.357 E1.3602
G1 X117.192 Y143.891 E4.97051
G1 X117.181 Y144.61 E5.00399
G1 X117.13 Y145.323 E5.03728
G1 X117 Y146.027 E5.07061
G1 X116.792 Y146.711 E5.1039
G1 X116.598 Y147.184 E5.12771
G1 X116.513 Y147.369 E5.13719
G1 X116.178 Y148.001 E5.17049
G1 X115.775 Y148.592 E5.2038
G1 X115.309 Y149.135 E5.23712
G1 X114.785 Y149.621 E5.2704
G1 X114.21 Y150.047 E5.30372
G1 X113.45 Y150.475 E5.34434
G1 X113.28 Y150.556 E5.3531
G1 X112.618 Y150.827 E5.38641
G1 X111.93 Y151.022 E5.41971
G1 X111.224 Y151.14 E5.45304
G1 X110.639 Y151.177 E5.48034
G1 X109.674 Y151.193 E5.52528
G1 X108.472 Y151.194 E5.58125
G1 X107.818 Y151.191 E5.6117
G1 X107.074 Y151.196 E5.64634
G1 X104.065 Y151.193 E5.78646
G1 X103.088 Y151.196 E5.83195
G1 X102.863 Y151.193 E5.84243
G1 X101.523 Y151.198 E5.90482
G1 X101.426 Y151.193 E5.90935
G1 X100.032 Y151.193 E5.97426
G1 X99.627 Y151.191 E5.99312
G1 X99.012 Y151.158 E6.02179
G1 X98.766 Y151.133 E6.03331
G1 X98.059 Y151.021 E6.06664
G1 X97.37 Y150.831 E6.09992
G1 X96.706 Y150.565 E6.13323
G1 X96.076 Y150.227 E6.16652
G1 X95.362 Y149.721 E6.20727
G1 X95.203 Y149.591 E6.21683
G1 X94.675 Y149.108 E6.25015
G1 X94.205 Y148.569 E6.28345
G1 X93.798 Y147.981 E6.31675
G1 X93.317 Y147.026 E6.36654
G1 X93.286 Y146.949 E6.37041
G1 X93.056 Y146.272 E6.4037
G1 X92.904 Y145.573 E6.43701
G1 X92.824 Y144.672 E6.47913
G1 X92.806 Y143.595 E6.52928
G1 X92.809 Y65.657 E10.1584
G1 X92.842 Y65.005 E10.1888
G1 X92.867 Y64.761 E10.20022
G1 X92.98 Y64.054 E10.23356
G1 X93.171 Y63.365 E10.26686
G1 X93.437 Y62.701 E10.30016
G1 X93.776 Y62.071 E10.33348
M204 S3000
M205 X10 Y10
G0 F3000 X94.318 Y62.26
M204 S1800
M205 X8 Y8
G1 F2400 X94.72 Y61.707 E10.36531
G1 X95.182 Y61.207 E10.39701
G1 X95.373 Y61.023 E10.40936
G1 X95.892 Y60.579 E10.44116
G1 X96.46 Y60.198 E10.47301
G1 X97.346 Y59.772 E10.51879
G1 X98.019 Y59.558 E10.55167
G1 X98.69 Y59.43 E10.58348
G1 X99.344 Y59.382 E10.61401
G1 X100.363 Y59.365 E10.66147
G1 X109.967 Y59.367 E11.10867
G1 X110.364 Y59.369 E11.12716
G1 X110.912 Y59.398 E11.15271
G1 X111.164 Y59.423 E11.1645
G1 X111.838 Y59.53 E11.19628
G1 X112.496 Y59.715 E11.22811
G1 X113.127 Y59.976 E11.2599
G1 X113.724 Y60.308 E11.29171
G1 X114.278 Y60.708 E11.32353
G1 X114.681 Y61.07 E11.34875
G1 X114.859 Y61.245 E11.36038
G1 X115.318 Y61.751 E11.39219
G1 X115.714 Y62.308 E11.42401
G1 X116.042 Y62.907 E11.45581
G1 X116.245 Y63.39 E11.48021
G1 X116.447 Y64.043 E11.51203
G1 X116.572 Y64.715 E11.54386
G1 X116.616 Y65.333 E11.57271
G1 X116.634 Y66.357 E11.6204
G1 X116.632 Y143.882 E15.23029
G1 X116.621 Y144.601 E15.26377
G1 X116.571 Y145.283 E15.29562
G1 X116.441 Y145.954 E15.32744
G1 X116.234 Y146.605 E15.35925
G1 X116.004 Y147.135 E15.38615
G1 X115.683 Y147.738 E15.41796
G1 X115.293 Y148.3 E15.44981
G1 X114.841 Y148.812 E15.48162
G1 X114.332 Y149.268 E15.51344
G1 X113.773 Y149.661 E15.54526
G1 X113.209 Y149.969 E15.57518
G1 X113.039 Y150.05 E15.58395
G1 X112.406 Y150.307 E15.61576
G1 X111.747 Y150.489 E15.64759
G1 X111.072 Y150.593 E15.6794
G1 X110.629 Y150.617 E15.70005
G1 X109.674 Y150.633 E15.74453
G1 X108.475 Y150.634 E15.80036
G1 X107.817 Y150.631 E15.831
G1 X107.074 Y150.636 E15.8656
G1 X104.063 Y150.633 E16.0058
G1 X103.094 Y150.636 E16.05092
G1 X102.867 Y150.633 E16.06149
G1 X101.521 Y150.638 E16.12417
G1 X101.431 Y150.633 E16.12837
G1 X100.035 Y150.633 E16.19337
G1 X99.63 Y150.631 E16.21223
G1 X99.069 Y150.601 E16.23839
G1 X98.823 Y150.576 E16.2499
G1 X98.148 Y150.467 E16.28174
G1 X97.491 Y150.281 E16.31354
G1 X96.86 Y150.018 E16.34537
G1 X96.264 Y149.684 E16.37718
G1 X95.716 Y149.287 E16.40869
G1 X95.557 Y149.157 E16.41825
G1 X95.055 Y148.695 E16.45002
G1 X94.609 Y148.176 E16.48189
G1 X94.228 Y147.61 E16.51366
G1 X93.837 Y146.817 E16.55483
G1 X93.806 Y146.74 E16.55869
G1 X93.588 Y146.092 E16.59053
G1 X93.447 Y145.424 E16.62232
G1 X93.384 Y144.662 E16.65792
G1 X93.366 Y143.595 E16.70761
G1 X93.369 Y65.657 E20.33673
G1 X93.399 Y65.062 E20.36447
G1 X93.424 Y64.818 E20.37589
G1 X93.534 Y64.143 E20.40774
G1 X93.721 Y63.486 E20.43955
G1 X93.984 Y62.856 E20.47133
G1 X94.318 Y62.26 E20.50315
M204 S3000
M205 X10 Y10
G0 F3000 X94.86 Y62.455
M204 S1800
M205 X8 Y8
G1 F2400 X95.256 Y61.941 E20.53336
G1 X95.762 Y61.426 E20.56698
G1 X96.256 Y61.005 E20.5972
G1 X96.799 Y60.648 E20.62746
G1 X97.545 Y60.295 E20.66589
G1 X98.186 Y60.093 E20.69719
G1 X98.826 Y59.978 E20.72746
G1 X99.354 Y59.942 E20.75211
G1 X100.363 Y59.925 E20.7991
G1 X109.965 Y59.927 E21.24621
G1 X110.856 Y59.955 E21.28772
G1 X111.108 Y59.98 E21.29951
G1 X111.75 Y60.084 E21.32979
G1 X112.373 Y60.265 E21.36
G1 X112.97 Y60.522 E21.39027
G1 X113.53 Y60.851 E21.42051
G1 X114.046 Y61.245 E21.45074
G1 X114.467 Y61.644 E21.47775
G1 X114.901 Y62.127 E21.50798
G1 X115.273 Y62.66 E21.53825
G1 X115.576 Y63.234 E21.56847
G1 X115.721 Y63.587 E21.58624
G1 X115.911 Y64.208 E21.61648
G1 X116.024 Y64.848 E21.64675
G1 X116.056 Y65.343 E21.66984
G1 X116.074 Y66.357 E21.71707
G1 X116.072 Y143.874 E25.32658
G1 X116.061 Y144.593 E25.36007
G1 X116.012 Y145.24 E25.39028
G1 X115.882 Y145.877 E25.42055
G1 X115.58 Y146.716 E25.46207
G1 X115.495 Y146.901 E25.47155
G1 X115.188 Y147.474 E25.50182
G1 X114.813 Y148.004 E25.53205
G1 X114.376 Y148.485 E25.56232
G1 X113.883 Y148.908 E25.59256
G1 X113.341 Y149.267 E25.62284
G1 X112.798 Y149.545 E25.65124
G1 X112.196 Y149.787 E25.68145
G1 X111.568 Y149.954 E25.71171
G1 X110.619 Y150.057 E25.75616
G1 X109.674 Y150.073 E25.80017
G1 X108.477 Y150.074 E25.85591
G1 X107.816 Y150.071 E25.88669
G1 X107.075 Y150.076 E25.92119
G1 X104.062 Y150.073 E26.06149
G1 X103.101 Y150.076 E26.10624
G1 X102.872 Y150.073 E26.1169
G1 X101.519 Y150.078 E26.1799
G1 X101.434 Y150.073 E26.18387
G1 X100.038 Y150.073 E26.24887
G1 X99.633 Y150.071 E26.26773
G1 X99.125 Y150.044 E26.29142
G1 X98.879 Y150.019 E26.30293
G1 X98.238 Y149.914 E26.33318
G1 X97.615 Y149.73 E26.36343
G1 X97.019 Y149.472 E26.39367
G1 X96.459 Y149.142 E26.42393
G1 X95.912 Y148.724 E26.45599
G1 X95.435 Y148.282 E26.48627
G1 X95.016 Y147.786 E26.5165
G1 X94.662 Y147.242 E26.54673
G1 X94.356 Y146.608 E26.57951
G1 X94.325 Y146.531 E26.58337
G1 X94.12 Y145.915 E26.6136
G1 X93.992 Y145.278 E26.64386
G1 X93.944 Y144.652 E26.67309
G1 X93.926 Y143.595 E26.72232
G1 X93.929 Y65.657 E30.35144
G1 X93.956 Y65.119 E30.37652
G1 X93.981 Y64.875 E30.38794
G1 X94.087 Y64.234 E30.41819
G1 X94.271 Y63.611 E30.44844
G1 X94.53 Y63.015 E30.4787
G1 X94.86 Y62.455 E30.50897
M204 S3000
M205 X10 Y10
G1 F2400 E24.50897
G0 F3000 X98.541 Y144.658
G0 X99.308 Y145.457
G0 X101.632 Y145.457
G0 X102.435 Y144.751
G0 X102.776 Y75.776
M204 S1800
M205 X8 Y8
;TYPE:SUPPORT
G1 F2400 E30.50897
G1 F1500 X103.836 Y75.773 E30.55833
G1 X107.223 Y75.776 E30.71604
G1 X107.227 Y77.301 E30.78705
G1 X107.227 Y141.701 E33.78578
G1 X107.225 Y144.516 E33.91686
G1 X103.985 Y144.513 E34.06773
G1 X102.772 Y144.517 E34.12421
G1 X102.773 Y80.101 E37.12369
G1 X102.776 Y75.776 E37.32508
M204 S3000
M205 X10 Y10
G0 F3000 X104 Y75.994
M204 S1800
M205 X8 Y8
G1 F1500 X104 Y144.293 E40.50537
M204 S3000
M205 X10 Y10
G0 F3000 X102.991 Y143.764
M204 S1800
M205 X8 Y8
G1 F1500 X107.005 Y141.447 E40.72118
M204 S3000
M205 X10 Y10
G0 F3000 X105.924 Y144.293
M204 S1800
M205 X8 Y8
G1 F1500 X102.991 Y142.6 E40.87887
M204 S3000
M205 X10 Y10
G0 F3000 X107.006 Y135.681
M204 S1800
M205 X8 Y8
G1 F1500 X102.99 Y133.362 E41.09481
M204 S3000
M205 X10 Y10
G0 F3000 X102.991 Y134.527
M204 S1800
M205 X8 Y8
G1 F1500 X107.005 Y132.209 E41.31065
M204 S3000
M205 X10 Y10
G0 F3000 X107.007 Y126.443
M204 S1800
M205 X8 Y8
G1 F1500 X102.991 Y124.125 E41.52656
M204 S3000
M205 X10 Y10
G0 F3000 X102.992 Y125.289
M204 S1800
M205 X8 Y8
G1 F1500 X107.006 Y122.972 E41.74238
M204 S3000
M205 X10 Y10
G0 F3000 X107.007 Y117.206
M204 S1800
M205 X8 Y8
G1 F1500 X102.991 Y114.887 E41.95832
M204 S3000
M205 X10 Y10
G0 F3000 X102.992 Y116.051
M204 S1800
M205 X8 Y8
G1 F1500 X107.005 Y113.734 E42.17409
M204 S3000
M205 X10 Y10
G0 F3000 X107.006 Y107.968
M204 S1800
M205 X8 Y8
G1 F1500 X102.992 Y105.65 E42.38992
M204 S3000
M205 X10 Y10
G0 F3000 X102.992 Y106.814
M204 S1800
M205 X8 Y8
G1 F1500 X107.005 Y104.497 E42.6057
M204 S3000
M205 X10 Y10
G0 F3000 X107.006 Y98.73
M204 S1800
M205 X8 Y8
G1 F1500 X102.991 Y96.412 E42.82157
M204 S3000
M205 X10 Y10
G0 F3000 X102.992 Y97.576
M204 S1800
M205 X8 Y8
G1 F1500 X107.005 Y95.259 E43.03734
M204 S3000
M205 X10 Y10
G0 F3000 X107.007 Y89.493
M204 S1800
M205 X8 Y8
G1 F1500 X102.992 Y87.175 E43.25322
M204 S3000
M205 X10 Y10
G0 F3000 X102.992 Y88.338
M204 S1800
M205 X8 Y8
G1 F1500 X107.005 Y86.022 E43.46897
M204 S3000
M205 X10 Y10
G0 F3000 X107.007 Y80.255
M204 S1800
M205 X8 Y8
G1 F1500 X102.994 Y77.938 E43.68474
M204 S3000
M205 X10 Y10
G0 F3000 X102.993 Y79.1
M204 S1800
M205 X8 Y8
G1 F1500 X107.004 Y76.785 E43.90038
M204 S3000
M205 X10 Y10
G1 F2400 E37.90038
;MESH:??????????????????.stl
G0 F3000 X107.008 Y73.936
G0 X103.831 Y73.393
M204 S1800
M205 X8 Y8
;TYPE:WALL-INNER
G1 F2400 E43.90038
G1 F1500 X102.307 Y73.398 E43.97135
G1 X100.607 Y73.394 E44.05051
G1 X100.607 Y66.885 E44.35359
G1 X100.607 Y66.605 E44.36663
G1 X100.887 Y66.605 E44.37507
G1 X109.115 Y66.607 E44.7582
G1 X109.395 Y66.607 E44.77124
G1 X109.395 Y66.887 E44.77968
G1 X109.393 Y68.321 E44.84645
G1 X109.393 Y73.117 E45.06977
G1 X109.393 Y73.397 E45.08281
G1 X109.113 Y73.397 E45.09125
G1 X103.831 Y73.393 E45.3372
M204 S3000
M205 X10 Y10
G0 F3000 X100.887 Y73.885
G0 X100.957 Y73.955
M204 S1800
M205 X8 Y8
G1 F1500 X100.957 Y74.235 E45.35024
G1 X100.953 Y80.1 E45.62334
G1 X100.952 Y143.953 E48.5966
G1 X100.325 Y143.953 E48.6258
G1 X100.045 Y143.953 E48.63884
G1 X100.045 Y143.673 E48.64728
G1 X100.047 Y141.679 E48.74013
G1 X100.047 Y66.325 E52.24893
G1 X100.047 Y66.045 E52.26196
G1 X100.327 Y66.045 E52.2704
G1 X109.675 Y66.047 E52.70568
G1 X109.955 Y66.047 E52.71872
G1 X109.955 Y66.327 E52.72716
G1 X109.953 Y68.321 E52.82001
G1 X109.952 Y143.953 E56.34175
G1 X109.325 Y143.953 E56.37095
G1 X109.045 Y143.953 E56.38399
G1 X109.045 Y143.673 E56.39243
G1 X109.047 Y141.7 E56.4843
G1 X109.047 Y77.299 E59.48308
G1 X109.042 Y75.431 E59.57006
G1 X109.044 Y74.237 E59.62566
G1 X109.044 Y73.957 E59.6387
G1 X108.764 Y73.957 E59.64714
G1 X103.832 Y73.953 E59.87679
G1 X102.308 Y73.958 E59.94776
G1 X101.237 Y73.955 E59.99763
G1 X100.957 Y73.955 E60.00607
M204 S3000
M205 X10 Y10
G0 F3000 X101.517 Y74.516
M204 S1800
M205 X8 Y8
;TYPE:WALL-OUTER
G1 F1500 X101.517 Y74.796 E60.0191
G1 X101.513 Y80.1 E60.26608
G1 X101.512 Y144.488 E63.26426
G1 X101.479 Y144.513 E63.26618
G1 X99.771 Y144.513 E63.34572
G1 X99.51 Y144.513 E63.35787
G1 X99.485 Y144.485 E63.35962
G1 X99.485 Y144.224 E63.37177
G1 X99.487 Y141.679 E63.49028
G1 X99.487 Y65.771 E67.02487
G1 X99.487 Y65.51 E67.03702
G1 X99.515 Y65.485 E67.03877
G1 X99.776 Y65.485 E67.05092
G1 X110.228 Y65.487 E67.53761
G1 X110.49 Y65.487 E67.54981
G1 X110.515 Y65.514 E67.55153
G1 X110.515 Y65.776 E67.56373
G1 X110.513 Y68.321 E67.68223
G1 X110.512 Y144.488 E71.22889
G1 X110.479 Y144.513 E71.23081
G1 X108.771 Y144.513 E71.31035
G1 X108.51 Y144.513 E71.3225
G1 X108.485 Y144.485 E71.32425
G1 X108.485 Y144.224 E71.3364
G1 X108.487 Y141.7 E71.45393
G1 X108.487 Y77.3 E74.45266
G1 X108.482 Y75.43 E74.53974
G1 X108.483 Y74.797 E74.56921
G1 X108.483 Y74.517 E74.58225
G1 X108.203 Y74.517 E74.59069
G1 X103.833 Y74.513 E74.79418
G1 X102.309 Y74.518 E74.86514
G1 X101.797 Y74.516 E74.88898
G1 X101.517 Y74.516 E74.89742
M204 S3000
M205 X10 Y10
G0 F3000 X101.517 Y74.716
G0 X100.857 Y74.715
G0 X101.157 Y72.846
M204 S1800
M205 X8 Y8
;TYPE:SKIN
G1 F1500 X101.157 Y67.155 E75.16242
G1 X108.845 Y67.157 E75.5204
G1 X108.843 Y68.321 E75.5746
G1 X108.843 Y72.847 E75.78535
G1 X103.831 Y72.843 E76.01873
G1 X102.307 Y72.848 E76.0897
G1 X101.157 Y72.846 E76.14325
M204 S3000
M205 X10 Y10
G0 F3000 X101.889 Y72.586
M204 S1800
M205 X8 Y8
G1 F1500 X101.416 Y72.113 E76.17439
M204 S3000
M205 X10 Y10
G0 F3000 X101.416 Y71.321
M204 S1800
M205 X8 Y8
G1 F1500 X102.681 Y72.586 E76.2577
M204 S3000
M205 X10 Y10
G0 F3000 X103.47 Y72.583
M204 S1800
M205 X8 Y8
G1 F1500 X101.416 Y70.529 E76.39296
M204 S3000
M205 X10 Y10
G0 F3000 X101.416 Y69.737
M204 S1800
M205 X8 Y8
G1 F1500 X104.261 Y72.583 E76.58034
M204 S3000
M205 X10 Y10
G0 F3000 X105.054 Y72.583
M204 S1800
M205 X8 Y8
G1 F1500 X101.416 Y68.945 E76.81991
M204 S3000
M205 X10 Y10
G0 F3000 X101.416 Y68.153
M204 S1800
M205 X8 Y8
G1 F1500 X105.846 Y72.584 E77.11166
M204 S3000
M205 X10 Y10
G0 F3000 X106.638 Y72.584
M204 S1800
M205 X8 Y8
G1 F1500 X101.469 Y67.415 E77.45205
M204 S3000
M205 X10 Y10
G0 F3000 X102.261 Y67.415
M204 S1800
M205 X8 Y8
G1 F1500 X107.431 Y72.585 E77.7925
M204 S3000
M205 X10 Y10
G0 F3000 X108.224 Y72.585
M204 S1800
M205 X8 Y8
G1 F1500 X103.053 Y67.415 E78.13299
M204 S3000
M205 X10 Y10
G0 F3000 X103.846 Y67.416
M204 S1800
M205 X8 Y8
G1 F1500 X108.582 Y72.152 E78.44486
M204 S3000
M205 X10 Y10
G0 F3000 X108.582 Y71.36
M204 S1800
M205 X8 Y8
G1 F1500 X104.638 Y67.416 E78.70458
M204 S3000
M205 X10 Y10
G0 F3000 X105.43 Y67.416
M204 S1800
M205 X8 Y8
G1 F1500 X108.582 Y70.568 E78.91215
M204 S3000
M205 X10 Y10
G0 F3000 X108.582 Y69.776
M204 S1800
M205 X8 Y8
G1 F1500 X106.222 Y67.416 E79.06756
M204 S3000
M205 X10 Y10
G0 F3000 X107.014 Y67.416
M204 S1800
M205 X8 Y8
G1 F1500 X108.582 Y68.984 E79.17081
M204 S3000
M205 X10 Y10
G0 F3000 X108.583 Y68.193
M204 S1800
M205 X8 Y8
G1 F1500 X107.806 Y67.416 E79.22198
M204 S3000
M205 X10 Y10
G0 F3000 X109.317 Y73.679
G0 X109.497 Y73.859
M204 S1800
M205 X8 Y8
;TYPE:SKIN
G1 F1500 X109.497 Y74.141 E79.23038
G1 X109.498 Y80.648 E79.42416
G1 X109.499 Y110.064 E80.30016
G1 X109.498 Y142.874 E81.27725
G1 X109.498 Y143.439 E81.29407
G1 X109.386 Y143.61 E81.30016
M204 S3000
M205 X10 Y10
G0 F3000 X109.32 Y143.544
G0 X109.072 Y73.929
G0 X100.929 Y73.927
G0 X100.677 Y143.669
G0 X100.498 Y143.49
M204 S1800
M205 X8 Y8
G1 F1500 X100.498 Y143.207 E81.30859
G1 X100.499 Y136.703 E81.50231
G1 X100.498 Y107.286 E82.3785
G1 X100.499 Y78.437 E83.23776
G1 X100.5 Y73.913 E83.37251
G1 X100.602 Y73.732 E83.3787
M204 S3000
M205 X10 Y10
G0 F3000 X100.681 Y73.811
G0 X109.578 Y73.657
M204 S1800
M205 X8 Y8
G1 F1500 X109.677 Y73.756 E83.38103
M204 S3000
M205 X10 Y10
G0 F3000 X100.929 Y73.927
G0 X100.32 Y143.595
M204 S1800
M205 X8 Y8
G1 F1500 X100.402 Y143.677 E83.38295
M204 S3000
M205 X10 Y10
G0 F3000 X100.605 Y143.393
G1 F2400 E77.38295
;MESH:NONMESH
G0 F600 X100.605 Y143.393 Z0.4
G0 F3000 X100.933 Y80.1
G0 X102.458 Y80.1
G0 X102.857 Y75.855
