;FLAVOR:Marlin
;TIME:892
;Filament used: 0.844819m
;Layer height: 0.2
;MINX:95.6
;MINY:76.059
;MINZ:0.2
;MAXX:114.401
;MAXY:135.992
;MAXZ:10
;Generated with Cura_SteamEngine 4.11.0
M140 S60
M105
M190 S60
M104 S200
M105
M109 S200
M82 ;absolute extrusion mode
G21 ;metric values
G90 ;absolute positioning
M82 ;set extruder to absolute mode
M107 ;start with the fan off
G28 X0 Y0 ;move X/Y to min endstops
G28 Z0 ;move Z to min endstops
G1 Z15.0 F100 ;move the platform down 15mm
G92 E0 ;zero the extruded length
G1 F200 E3 ;extrude 3mm of feed stock
G92 E0 ;zero the extruded length again
G1 F100
G0 Y20 F100
M117 Printing...
G5
G92 E0
G92 E0
G1 F2400 E-6
;LAYER_COUNT:50
;LAYER:0
M107
M204 S3000
M205 X10 Y10
G1 F600 Z0.275
G0 F3000 X97.063 Y78.52 Z0.275
M204 S1800
M205 X8 Y8
;TYPE:SKIRT
G1 F600 Z0.2
G1 F2400 E0
G1 X97.506 Y78.033 E0.03066
G1 X97.617 Y77.923 E0.03793
G1 X98.152 Y77.449 E0.07121
G1 X98.737 Y77.037 E0.10453
G1 X99.365 Y76.693 E0.13787
G1 X100.026 Y76.422 E0.17114
G1 X100.714 Y76.226 E0.20445
G1 X101.42 Y76.108 E0.23778
G1 X102.051 Y76.068 E0.26722
G1 X102.596 Y76.059 E0.2926
G1 X107.274 Y76.061 E0.51043
G1 X107.969 Y76.071 E0.5428
G1 X108.683 Y76.121 E0.57612
G1 X109.386 Y76.25 E0.60941
G1 X110.071 Y76.458 E0.64274
G1 X110.728 Y76.74 E0.67603
G1 X111.349 Y77.094 E0.70932
G1 X111.928 Y77.515 E0.74265
G1 X112.442 Y77.984 E0.77505
G1 X112.555 Y78.099 E0.78256
G1 X113.027 Y78.637 E0.81588
G1 X113.436 Y79.223 E0.84916
G1 X113.777 Y79.852 E0.88248
G1 X114.046 Y80.515 E0.91579
G1 X114.239 Y81.204 E0.94911
G1 X114.354 Y81.91 E0.98242
G1 X114.39 Y82.478 E1.00892
G1 X114.395 Y82.654 E1.01712
G1 X114.401 Y83.318 E1.04804
G1 X114.399 Y86.866 E1.21325
G1 X114.394 Y87.624 E1.24854
G1 X114.381 Y88.673 E1.29739
G1 X114.367 Y89.342 E1.32855
G1 X114.345 Y90.036 E1.36088
G1 X114.318 Y90.646 E1.38931
G1 X114.244 Y91.969 E1.45102
G1 X114.134 Y94.603 E1.57377
G1 X114.102 Y96.222 E1.64917
G1 X114.096 Y97.146 E1.6922
G1 X114.092 Y98.833 E1.77075
G1 X114.096 Y99.155 E1.78575
G1 X114.091 Y100.618 E1.85387
G1 X114.092 Y104.412 E2.03054
G1 X114.097 Y104.996 E2.05773
G1 X114.094 Y105.298 E2.0718
G1 X114.098 Y105.888 E2.09927
G1 X114.091 Y107.829 E2.18965
G1 X114.095 Y110.198 E2.29996
G1 X114.092 Y111.089 E2.34145
G1 X114.094 Y115.492 E2.54647
G1 X114.091 Y119.943 E2.75373
G1 X114.097 Y120.443 E2.77701
G1 X114.092 Y121.516 E2.82698
G1 X114.096 Y122.065 E2.85254
G1 X114.091 Y122.831 E2.88821
G1 X114.09 Y123.895 E2.93776
G1 X114.099 Y125.908 E3.03149
G1 X114.092 Y126.524 E3.06018
G1 X114.098 Y127.923 E3.12532
G1 X114.066 Y128.828 E3.16749
G1 X113.965 Y129.733 E3.20989
G1 X113.827 Y130.468 E3.24471
G1 X113.749 Y130.782 E3.25978
G1 X113.538 Y131.465 E3.29306
G1 X113.313 Y131.998 E3.32
G1 X112.971 Y132.626 E3.3533
G1 X112.623 Y133.133 E3.38193
G1 X112.48 Y133.321 E3.39293
G1 X112.016 Y133.865 E3.42623
G1 X111.494 Y134.354 E3.45953
G1 X111.061 Y134.686 E3.48494
G1 X110.235 Y135.182 E3.5298
G1 X110.028 Y135.286 E3.54059
G1 X109.372 Y135.571 E3.57389
G1 X108.688 Y135.781 E3.60721
G1 X107.985 Y135.913 E3.64052
G1 X107.268 Y135.966 E3.674
G1 X106.176 Y135.984 E3.72485
G1 X104.111 Y135.979 E3.82101
G1 X103.145 Y135.992 E3.86599
G1 X102.43 Y135.962 E3.89931
G1 X101.664 Y135.845 E3.9354
G1 X100.968 Y135.681 E3.96869
G1 X100.295 Y135.44 E4.00198
G1 X99.652 Y135.126 E4.0353
G1 X99.091 Y134.777 E4.06606
G1 X98.515 Y134.352 E4.09939
G1 X97.991 Y133.866 E4.13267
G1 X97.511 Y133.309 E4.16691
G1 X97.42 Y133.19 E4.17389
G1 X97.018 Y132.598 E4.20721
G1 X96.653 Y131.896 E4.24405
G1 X96.559 Y131.684 E4.25485
G1 X96.306 Y131.015 E4.28815
G1 X96.156 Y130.45 E4.31537
G1 X96.065 Y129.955 E4.33881
G1 X95.981 Y129.32 E4.36863
G1 X95.935 Y128.834 E4.39137
G1 X95.908 Y128.311 E4.41575
G1 X95.896 Y127.274 E4.46404
G1 X95.902 Y126.781 E4.487
G1 X95.9 Y125.278 E4.55699
G1 X95.898 Y121.792 E4.71931
G1 X95.901 Y121.529 E4.73156
G1 X95.9 Y120.092 E4.79847
G1 X95.902 Y119.94 E4.80555
G1 X95.9 Y116.665 E4.95804
G1 X95.903 Y116.418 E4.96955
G1 X95.901 Y114.815 E5.04419
G1 X95.898 Y113.428 E5.10877
G1 X95.905 Y112.663 E5.1444
G1 X95.899 Y109.497 E5.29182
G1 X95.898 Y107.917 E5.36539
G1 X95.902 Y107.626 E5.37894
G1 X95.9 Y106.025 E5.45349
G1 X95.901 Y100.699 E5.70149
G1 X95.898 Y98.949 E5.78298
G1 X95.9 Y98.779 E5.7909
G1 X95.898 Y96.181 E5.91187
G1 X95.894 Y95.894 E5.92524
G1 X95.816 Y93.19 E6.0512
G1 X95.723 Y91.396 E6.13485
G1 X95.695 Y90.926 E6.15677
G1 X95.665 Y90.225 E6.18944
G1 X95.628 Y88.569 E6.26657
G1 X95.609 Y87.931 E6.29629
G1 X95.604 Y87.468 E6.31785
G1 X95.6 Y86.741 E6.3517
G1 X95.601 Y83.19 E6.51705
G1 X95.612 Y82.476 E6.55031
G1 X95.663 Y81.762 E6.58364
G1 X95.794 Y81.059 E6.61693
G1 X96.003 Y80.375 E6.65024
G1 X96.286 Y79.718 E6.68355
G1 X96.641 Y79.097 E6.71686
G1 X97.063 Y78.52 E6.75014
M204 S3000
M205 X10 Y10
G0 F3000 X97.615 Y78.735
M204 S1800
M205 X8 Y8
G1 F2400 X98.011 Y78.321 E6.77682
G1 X98.524 Y77.869 E6.80866
G1 X99.086 Y77.48 E6.84048
G1 X99.689 Y77.16 E6.87227
G1 X100.326 Y76.912 E6.9041
G1 X100.987 Y76.74 E6.9359
G1 X101.923 Y76.632 E6.97978
G1 X102.603 Y76.619 E7.01145
G1 X107.266 Y76.621 E7.22857
G1 X107.961 Y76.631 E7.26094
G1 X108.642 Y76.68 E7.29273
G1 X109.313 Y76.809 E7.32455
G1 X109.965 Y77.016 E7.3564
G1 X110.587 Y77.297 E7.38818
G1 X111.173 Y77.649 E7.42001
G1 X111.713 Y78.067 E7.45181
G1 X112.156 Y78.492 E7.4804
G1 X112.605 Y79.006 E7.51218
G1 X112.991 Y79.57 E7.544
G1 X113.309 Y80.175 E7.57583
G1 X113.554 Y80.812 E7.60761
G1 X113.723 Y81.474 E7.63942
G1 X113.826 Y82.366 E7.68123
G1 X113.835 Y82.659 E7.69488
G1 X113.841 Y83.317 E7.72552
G1 X113.839 Y86.862 E7.89059
G1 X113.834 Y87.617 E7.92575
G1 X113.821 Y88.662 E7.97441
G1 X113.807 Y89.324 E8.00525
G1 X113.786 Y90.012 E8.0373
G1 X113.759 Y90.615 E8.0654
G1 X113.687 Y91.897 E8.12519
G1 X113.574 Y94.616 E8.25191
G1 X113.542 Y96.21 E8.32615
G1 X113.536 Y97.143 E8.36959
G1 X113.532 Y98.744 E8.44414
G1 X113.536 Y99.153 E8.46319
G1 X113.531 Y100.616 E8.53131
G1 X113.532 Y104.419 E8.7084
G1 X113.537 Y104.991 E8.73503
G1 X113.534 Y105.298 E8.74933
G1 X113.538 Y105.886 E8.77671
G1 X113.531 Y107.827 E8.86709
G1 X113.535 Y110.196 E8.9774
G1 X113.532 Y111.087 E9.01889
G1 X113.534 Y115.483 E9.22359
G1 X113.531 Y119.866 E9.42768
G1 X113.537 Y120.44 E9.45441
G1 X113.532 Y121.521 E9.50474
G1 X113.536 Y122.061 E9.52989
G1 X113.531 Y122.827 E9.56556
G1 X113.53 Y123.894 E9.61524
G1 X113.539 Y125.901 E9.7087
G1 X113.532 Y126.517 E9.73738
G1 X113.538 Y127.926 E9.80299
G1 X113.508 Y128.779 E9.84273
G1 X113.409 Y129.663 E9.88415
G1 X113.284 Y130.333 E9.91589
G1 X113.206 Y130.647 E9.93096
G1 X113.003 Y131.299 E9.96275
G1 X112.807 Y131.758 E9.98599
G1 X112.479 Y132.357 E10.01779
G1 X112.177 Y132.794 E10.04253
G1 X112.034 Y132.982 E10.05353
G1 X111.589 Y133.5 E10.08533
G1 X111.087 Y133.963 E10.11712
G1 X110.738 Y134.229 E10.13756
G1 X109.984 Y134.681 E10.17849
G1 X109.777 Y134.785 E10.18928
G1 X109.149 Y135.056 E10.22113
G1 X108.495 Y135.251 E10.25291
G1 X107.822 Y135.369 E10.28472
G1 X107.258 Y135.406 E10.31104
G1 X106.177 Y135.424 E10.36138
G1 X104.105 Y135.419 E10.45786
G1 X103.137 Y135.432 E10.50294
G1 X102.455 Y135.402 E10.53473
G1 X101.762 Y135.294 E10.56739
G1 X101.098 Y135.136 E10.59917
G1 X100.456 Y134.9 E10.63102
G1 X99.586 Y134.431 E10.67704
G1 X99.398 Y134.308 E10.6875
G1 X98.849 Y133.901 E10.71933
G1 X98.351 Y133.433 E10.75115
G1 X97.956 Y132.969 E10.77952
G1 X97.865 Y132.85 E10.7865
G1 X97.482 Y132.283 E10.81836
G1 X97.165 Y131.669 E10.85054
G1 X97.071 Y131.457 E10.86133
G1 X96.831 Y130.817 E10.89316
G1 X96.703 Y130.331 E10.91656
G1 X96.572 Y129.548 E10.95353
G1 X96.493 Y128.781 E10.98943
G1 X96.467 Y128.304 E11.01168
G1 X96.456 Y127.425 E11.05261
G1 X96.462 Y126.788 E11.08227
G1 X96.46 Y125.286 E11.15221
G1 X96.458 Y121.798 E11.31463
G1 X96.461 Y121.535 E11.32688
G1 X96.46 Y120.101 E11.39365
G1 X96.462 Y119.978 E11.39938
G1 X96.46 Y116.672 E11.55332
G1 X96.463 Y116.425 E11.56482
G1 X96.461 Y114.822 E11.63946
G1 X96.458 Y113.434 E11.70409
G1 X96.465 Y112.669 E11.73972
G1 X96.459 Y109.505 E11.88705
G1 X96.457 Y107.925 E11.96062
G1 X96.462 Y107.538 E11.97864
G1 X96.46 Y106.034 E12.04867
G1 X96.461 Y100.705 E12.29681
G1 X96.458 Y98.955 E12.3783
G1 X96.46 Y98.785 E12.38622
G1 X96.458 Y96.18 E12.50752
G1 X96.454 Y95.926 E12.51935
G1 X96.374 Y93.145 E12.64889
G1 X96.282 Y91.367 E12.7318
G1 X96.254 Y90.902 E12.75349
G1 X96.22 Y90.078 E12.79189
G1 X96.188 Y88.557 E12.86273
G1 X96.169 Y87.924 E12.89222
G1 X96.164 Y87.465 E12.91359
G1 X96.16 Y86.738 E12.94744
G1 X96.161 Y83.191 E13.11261
G1 X96.172 Y82.485 E13.14549
G1 X96.223 Y81.803 E13.17733
G1 X96.353 Y81.133 E13.20911
G1 X96.561 Y80.482 E13.24093
G1 X96.843 Y79.86 E13.27273
G1 X97.196 Y79.275 E13.30455
G1 X97.615 Y78.735 E13.33638
M204 S3000
M205 X10 Y10
G0 F3000 X97.75 Y79.461
M204 S1800
M205 X8 Y8
G1 F2400 X98.294 Y78.829 E13.37521
G1 X98.405 Y78.719 E13.38248
G1 X98.894 Y78.291 E13.41274
G1 X99.432 Y77.926 E13.44301
G1 X100.01 Y77.63 E13.47325
G1 X100.62 Y77.407 E13.5035
G1 X101.253 Y77.261 E13.53374
G1 X101.943 Y77.192 E13.56603
G1 X102.61 Y77.179 E13.5971
G1 X107.258 Y77.181 E13.81353
G1 X107.953 Y77.191 E13.84589
G1 X108.601 Y77.24 E13.87615
G1 X109.237 Y77.368 E13.90636
G1 X109.854 Y77.574 E13.93665
G1 X110.44 Y77.854 E13.96689
G1 X110.987 Y78.203 E13.99711
G1 X111.643 Y78.769 E14.03745
G1 X111.756 Y78.884 E14.04496
G1 X112.182 Y79.375 E14.07523
G1 X112.545 Y79.914 E14.10549
G1 X112.838 Y80.493 E14.1357
G1 X113.058 Y81.105 E14.16598
G1 X113.202 Y81.738 E14.19621
G1 X113.266 Y82.387 E14.22658
G1 X113.275 Y82.665 E14.23953
G1 X113.281 Y83.317 E14.26989
G1 X113.279 Y86.858 E14.43478
G1 X113.274 Y87.61 E14.46979
G1 X113.261 Y88.651 E14.51827
G1 X113.247 Y89.307 E14.54882
G1 X113.226 Y89.988 E14.58055
G1 X113.2 Y90.584 E14.60833
G1 X113.126 Y91.907 E14.67003
G1 X113.014 Y94.58 E14.7946
G1 X112.983 Y96.131 E14.86684
G1 X112.976 Y97.139 E14.91378
G1 X112.972 Y98.751 E14.98884
G1 X112.976 Y99.151 E15.00746
G1 X112.971 Y100.614 E15.07559
G1 X112.972 Y104.425 E15.25304
G1 X112.977 Y104.986 E15.27917
G1 X112.974 Y105.298 E15.2937
G1 X112.978 Y105.884 E15.32098
G1 X112.971 Y107.825 E15.41137
G1 X112.975 Y110.194 E15.52168
G1 X112.972 Y111.085 E15.56317
G1 X112.974 Y115.473 E15.76749
G1 X112.971 Y119.873 E15.97237
G1 X112.977 Y120.438 E15.99868
G1 X112.972 Y121.526 E16.04934
G1 X112.976 Y122.057 E16.07407
G1 X112.971 Y122.823 E16.10974
G1 X112.97 Y123.894 E16.15961
G1 X112.979 Y125.895 E16.25279
G1 X112.972 Y126.511 E16.28147
G1 X112.978 Y127.928 E16.34745
G1 X112.951 Y128.729 E16.38477
G1 X112.854 Y129.592 E16.42521
G1 X112.74 Y130.198 E16.45392
G1 X112.662 Y130.512 E16.46899
G1 X112.467 Y131.132 E16.49925
G1 X112.301 Y131.518 E16.51882
G1 X111.987 Y132.087 E16.54908
G1 X111.588 Y132.643 E16.58095
G1 X111.164 Y133.134 E16.61115
G1 X110.438 Y133.755 E16.65564
G1 X110.414 Y133.772 E16.65701
G1 X109.732 Y134.181 E16.69404
G1 X109.525 Y134.285 E16.70483
G1 X108.928 Y134.54 E16.73505
G1 X108.304 Y134.72 E16.76529
G1 X107.662 Y134.823 E16.79557
G1 X107.248 Y134.846 E16.81488
G1 X106.178 Y134.864 E16.86471
G1 X104.162 Y134.859 E16.95858
G1 X103.13 Y134.873 E17.00664
G1 X102.481 Y134.841 E17.0369
G1 X101.86 Y134.743 E17.06617
G1 X101.229 Y134.59 E17.09641
G1 X100.621 Y134.361 E17.12666
G1 X99.892 Y133.962 E17.16536
G1 X99.704 Y133.839 E17.17582
G1 X99.184 Y133.451 E17.20603
G1 X98.715 Y133.002 E17.23626
G1 X98.31 Y132.509 E17.26597
G1 X97.948 Y131.97 E17.2962
G1 X97.677 Y131.442 E17.32384
G1 X97.583 Y131.23 E17.33464
G1 X97.357 Y130.621 E17.36488
G1 X97.174 Y129.795 E17.40428
G1 X97.096 Y129.215 E17.43153
G1 X97.027 Y128.297 E17.4744
G1 X97.016 Y127.418 E17.51533
G1 X97.022 Y126.795 E17.54434
G1 X97.02 Y125.295 E17.61419
G1 X97.018 Y121.805 E17.7767
G1 X97.021 Y121.542 E17.78894
G1 X97.02 Y120.11 E17.85562
G1 X97.022 Y120.011 E17.86023
G1 X97.02 Y116.679 E18.01538
G1 X97.023 Y116.432 E18.02689
G1 X97.021 Y114.83 E18.10148
G1 X97.018 Y113.439 E18.16625
G1 X97.025 Y112.674 E18.20188
G1 X97.019 Y109.513 E18.34907
G1 X97.017 Y107.932 E18.42268
G1 X97.022 Y107.545 E18.44071
G1 X97.02 Y106.042 E18.51069
G1 X97.021 Y100.712 E18.75888
G1 X97.018 Y98.962 E18.84037
G1 X97.02 Y98.792 E18.84828
G1 X97.018 Y96.18 E18.96991
G1 X97.014 Y95.91 E18.98248
G1 X96.935 Y93.143 E19.11138
G1 X96.841 Y91.338 E19.19554
G1 X96.814 Y90.878 E19.217
G1 X96.78 Y90.066 E19.25484
G1 X96.747 Y88.545 E19.32568
G1 X96.729 Y87.918 E19.35489
G1 X96.724 Y87.462 E19.37612
G1 X96.72 Y86.735 E19.40998
G1 X96.721 Y83.192 E19.57495
G1 X96.732 Y82.494 E19.60746
G1 X96.782 Y81.846 E19.63772
G1 X96.912 Y81.209 E19.668
G1 X97.118 Y80.594 E19.6982
G1 X97.399 Y80.008 E19.72846
G1 X97.75 Y79.461 E19.75872
M204 S3000
M205 X10 Y10
G1 F2400 E13.75872
G0 F3000 X101.953 Y95.295
G0 X105 Y104.094
M204 S1800
M205 X8 Y8
;TYPE:SUPPORT
G1 F2400 E19.75872
G1 F1500 X105.068 Y104.583 E19.78171
G1 X105.291 Y105.666 E19.8332
G1 X105.555 Y106.429 E19.87079
G1 X105.665 Y106.605 E19.88046
G1 X106.001 Y106.927 E19.90213
G1 X106.316 Y107.055 E19.91796
G1 X107.112 Y107.055 E19.95502
G1 X107.282 Y106.981 E19.96366
G1 X107.415 Y107.29 E19.97932
G1 X107.256 Y108.677 E20.04433
G1 X107.416 Y109.044 E20.06297
G1 X107.257 Y110.43 E20.12793
G1 X107.414 Y110.8 E20.14665
G1 X107.256 Y112.179 E20.21128
G1 X107.416 Y112.547 E20.22997
G1 X107.258 Y113.925 E20.29455
G1 X107.417 Y114.291 E20.31313
G1 X107.257 Y115.682 E20.37833
G1 X107.415 Y116.048 E20.39689
G1 X107.256 Y117.436 E20.46195
G1 X107.415 Y117.803 E20.48057
G1 X107.256 Y119.19 E20.54558
G1 X107.414 Y119.554 E20.56406
G1 X107.256 Y120.929 E20.6285
G1 X107.416 Y121.301 E20.64736
G1 X107.258 Y122.68 E20.71199
G1 X107.413 Y123.044 E20.73041
G1 X107.256 Y124.426 E20.79518
G1 X107.417 Y124.791 E20.81376
G1 X107.256 Y126.188 E20.87924
G1 X107.415 Y126.55 E20.89765
G1 X107.256 Y127.934 E20.96252
G1 X107.415 Y128.293 E20.9808
G1 X107.341 Y128.948 E21.01149
G1 X107.289 Y129.136 E21.02057
G1 X107.203 Y129.244 E21.027
G1 X107.067 Y129.31 E21.03404
G1 X106.897 Y129.309 E21.04196
G1 X106.735 Y129.218 E21.05061
G1 X105.331 Y127.789 E21.14389
G1 X104.701 Y127.783 E21.17323
G1 X103.183 Y129.276 E21.27237
G1 X103.013 Y129.32 E21.28055
G1 X102.855 Y129.284 E21.28809
G1 X102.762 Y129.209 E21.29366
G1 X102.65 Y128.881 E21.3098
G1 X102.585 Y128.3 E21.33702
G1 X102.746 Y127.938 E21.35547
G1 X102.584 Y126.538 E21.42109
G1 X102.743 Y126.178 E21.43942
G1 X102.584 Y124.798 E21.5041
G1 X102.743 Y124.432 E21.52268
G1 X102.584 Y123.045 E21.58769
G1 X102.742 Y122.681 E21.60617
G1 X102.583 Y121.299 E21.67094
G1 X102.743 Y120.932 E21.68959
G1 X102.585 Y119.553 E21.75422
G1 X102.744 Y119.186 E21.77284
G1 X102.586 Y117.807 E21.83747
G1 X102.746 Y117.439 E21.85616
G1 X102.586 Y116.056 E21.92099
G1 X102.746 Y115.689 E21.93963
G1 X102.585 Y114.297 E22.00488
G1 X102.747 Y113.93 E22.02356
G1 X102.584 Y112.55 E22.08826
G1 X102.742 Y112.178 E22.10708
G1 X102.583 Y110.792 E22.17205
G1 X102.741 Y110.427 E22.19057
G1 X102.583 Y109.049 E22.25515
G1 X102.745 Y108.685 E22.2737
G1 X102.584 Y107.296 E22.33881
G1 X102.723 Y106.977 E22.35502
G1 X102.905 Y107.054 E22.36422
G1 X103.742 Y107.055 E22.40319
G1 X104.1 Y106.888 E22.42159
G1 X104.448 Y106.422 E22.44867
G1 X104.71 Y105.665 E22.48597
G1 X104.933 Y104.582 E22.53746
G1 X105 Y104.094 E22.56039
M204 S3000
M205 X10 Y10
G0 F3000 X105.055 Y105.623
M204 S1800
M205 X8 Y8
G1 F1500 X104.927 Y105.697 E22.56728
M204 S3000
M205 X10 Y10
G0 F3000 X104.603 Y106.581
M204 S1800
M205 X8 Y8
G1 F1500 X107.109 Y108.027 E22.702
M204 S3000
M205 X10 Y10
G0 F3000 X104 Y107.177
M204 S1800
M205 X8 Y8
G1 F1500 X104 Y128.164 E23.67924
M204 S3000
M205 X10 Y10
G0 F3000 X102.869 Y125.36
M204 S1800
M205 X8 Y8
G1 F1500 X107.114 Y122.909 E23.90749
M204 S3000
M205 X10 Y10
G0 F3000 X107.169 Y126.537
M204 S1800
M205 X8 Y8
G1 F1500 X102.923 Y124.086 E24.13578
M204 S3000
M205 X10 Y10
G0 F3000 X102.819 Y116.151
M204 S1800
M205 X8 Y8
G1 F1500 X107.06 Y113.702 E24.36382
M204 S3000
M205 X10 Y10
G0 F3000 X107.058 Y117.235
M204 S1800
M205 X8 Y8
G1 F1500 X102.865 Y114.815 E24.58925
M204 S3000
M205 X10 Y10
G0 F3000 X103.001 Y106.574
M204 S1800
M205 X8 Y8
;TYPE:SUPPORT-INTERFACE
