;FLAVOR:Marlin
;TIME:885
;Filament used: 0.863415m
;Layer height: 0.2
;MINX:92.6
;MINY:76.059
;MINZ:0.2
;MAXX:117.4
;MAXY:135.994
;MAXZ:10
;Generated with Cura_SteamEngine 4.11.0
M140 S60
M105
M190 S60
M104 S200
M105
M109 S200
M82 ;absolute extrusion mode
G21 ;metric values
G90 ;absolute positioning
M82 ;set extruder to absolute mode
M107 ;start with the fan off
G28 X0 Y0 ;move X/Y to min endstops
G28 Z0 ;move Z to min endstops
G1 Z15.0 F100 ;move the platform down 15mm
G92 E0 ;zero the extruded length
G1 F200 E3 ;extrude 3mm of feed stock
G92 E0 ;zero the extruded length again
G1 F100
G0 Y20 F100
M117 Printing...
G5
G92 E0
G92 E0
G1 F2400 E-6
;LAYER_COUNT:50
;LAYER:0
M107
M204 S3000
M205 X10 Y10
G1 F600 Z0.275
G0 F3000 X94.056 Y80.025 Z0.275
M204 S1800
M205 X8 Y8
;TYPE:SKIRT
G1 F600 Z0.2
G1 F2400 E0
G1 X94.523 Y79.513 E0.03227
G1 X94.642 Y79.396 E0.04004
G1 X95.179 Y78.924 E0.07333
G1 X95.766 Y78.515 E0.10664
G1 X96.283 Y78.228 E0.13418
G1 X97.619 Y77.565 E0.20363
G1 X97.801 Y77.477 E0.21304
G1 X98.473 Y77.133 E0.24819
G1 X99.284 Y76.732 E0.29032
G1 X99.942 Y76.451 E0.32364
G1 X100.627 Y76.246 E0.35693
G1 X101.331 Y76.118 E0.39025
G1 X101.905 Y76.073 E0.41706
G1 X102.596 Y76.059 E0.44924
G1 X107.273 Y76.061 E0.66702
G1 X107.969 Y76.071 E0.69943
G1 X108.682 Y76.121 E0.73272
G1 X109.386 Y76.25 E0.76604
G1 X110.07 Y76.458 E0.79933
G1 X110.756 Y76.754 E0.83412
G1 X112.252 Y77.509 E0.91215
G1 X113.003 Y77.874 E0.95103
G1 X113.757 Y78.254 E0.99035
G1 X114.377 Y78.611 E1.02366
G1 X114.953 Y79.035 E1.05697
G1 X115.402 Y79.444 E1.08525
G1 X115.515 Y79.557 E1.09269
G1 X115.992 Y80.09 E1.126
G1 X116.406 Y80.673 E1.15929
G1 X116.753 Y81.299 E1.19262
G1 X117.028 Y81.959 E1.22591
G1 X117.227 Y82.646 E1.25922
G1 X117.348 Y83.351 E1.29252
G1 X117.386 Y83.867 E1.31662
G1 X117.399 Y84.532 E1.34759
G1 X117.4 Y85.199 E1.37865
G1 X117.389 Y86.011 E1.41646
G1 X117.303 Y86.974 E1.46148
G1 X117.2 Y87.477 E1.48539
G1 X116.944 Y88.515 E1.53517
G1 X116.824 Y88.973 E1.55722
G1 X116.233 Y91.53 E1.67942
G1 X115.699 Y94.165 E1.80461
G1 X115.256 Y96.747 E1.9266
G1 X114.879 Y99.373 E2.05013
G1 X114.577 Y102.006 E2.17353
G1 X114.35 Y104.634 E2.29636
G1 X114.196 Y107.279 E2.41973
G1 X114.119 Y109.925 E2.54299
G1 X114.107 Y111.476 E2.61522
G1 X114.109 Y115.431 E2.79938
G1 X114.104 Y115.802 E2.81665
G1 X114.096 Y117.258 E2.88445
G1 X114.097 Y117.811 E2.9102
G1 X114.106 Y118.399 E2.93759
G1 X114.108 Y120.683 E3.04394
G1 X114.106 Y120.859 E3.05213
G1 X114.109 Y122.044 E3.10731
G1 X114.104 Y122.584 E3.13246
G1 X114.11 Y123.361 E3.16864
G1 X114.099 Y123.6 E3.17978
G1 X114.095 Y125.221 E3.25526
G1 X114.102 Y126.234 E3.30243
G1 X114.1 Y126.421 E3.31114
G1 X114.103 Y127.245 E3.34951
G1 X114.092 Y128.238 E3.39575
G1 X114.061 Y128.794 E3.42168
G1 X113.999 Y129.424 E3.45116
G1 X113.909 Y130.035 E3.47991
G1 X113.838 Y130.395 E3.497
G1 X113.661 Y131.088 E3.53031
G1 X113.407 Y131.757 E3.56363
G1 X113.067 Y132.416 E3.59816
G1 X112.912 Y132.678 E3.61233
G1 X112.514 Y133.272 E3.64562
G1 X112.052 Y133.818 E3.67893
G1 X111.532 Y134.309 E3.71223
G1 X110.689 Y134.912 E3.76049
G1 X110.48 Y135.037 E3.77183
G1 X109.847 Y135.369 E3.80512
G1 X109.18 Y135.628 E3.83843
G1 X108.505 Y135.812 E3.87101
G1 X107.801 Y135.941 E3.90434
G1 X106.905 Y135.991 E3.94612
G1 X106.557 Y135.986 E3.96233
G1 X103.992 Y135.984 E4.08177
G1 X103.197 Y135.994 E4.11879
G1 X102.518 Y135.966 E4.15043
G1 X102.316 Y135.947 E4.15988
G1 X101.311 Y135.771 E4.20739
G1 X101.114 Y135.72 E4.21687
G1 X100.433 Y135.502 E4.25016
G1 X99.78 Y135.21 E4.28347
G1 X99.2 Y134.871 E4.31475
G1 X99.162 Y134.846 E4.31687
G1 X98.588 Y134.42 E4.35015
G1 X98.091 Y133.965 E4.38153
G1 X97.604 Y133.442 E4.41481
G1 X97.201 Y132.901 E4.44622
G1 X97.173 Y132.859 E4.44857
G1 X96.81 Y132.243 E4.48186
G1 X96.518 Y131.59 E4.51517
G1 X96.349 Y131.084 E4.54001
G1 X96.235 Y130.689 E4.55915
G1 X96.037 Y129.738 E4.60439
G1 X95.97 Y129.203 E4.62949
G1 X95.938 Y128.89 E4.64414
G1 X95.906 Y128.359 E4.66891
G1 X95.898 Y127.875 E4.69145
G1 X95.896 Y126.45 E4.75781
G1 X95.904 Y125.464 E4.80372
G1 X95.905 Y124.516 E4.84786
G1 X95.895 Y123.333 E4.90295
G1 X95.9 Y122.725 E4.93126
G1 X95.894 Y120.592 E5.03059
G1 X95.903 Y119.667 E5.07366
G1 X95.893 Y117.002 E5.19775
G1 X95.892 Y115.205 E5.28143
G1 X95.901 Y113.913 E5.34159
G1 X95.896 Y110.912 E5.48133
G1 X95.842 Y108.18 E5.60857
G1 X95.713 Y105.505 E5.73327
G1 X95.514 Y102.899 E5.85497
G1 X95.235 Y100.244 E5.97928
G1 X94.888 Y97.647 E6.10128
G1 X94.459 Y95.011 E6.22564
G1 X93.962 Y92.423 E6.34835
G1 X93.394 Y89.859 E6.47064
G1 X92.93 Y88.017 E6.55909
G1 X92.783 Y87.398 E6.58871
G1 X92.657 Y86.694 E6.62201
G1 X92.614 Y86.134 E6.64817
G1 X92.6 Y85.39 E6.68282
G1 X92.601 Y84.665 E6.71658
G1 X92.611 Y83.983 E6.74834
G1 X92.661 Y83.27 E6.78162
G1 X92.791 Y82.566 E6.81495
G1 X92.998 Y81.882 E6.84823
G1 X93.281 Y81.225 E6.88154
G1 X93.635 Y80.603 E6.91487
G1 X94.056 Y80.025 E6.94816
M204 S3000
M205 X10 Y10
G0 F3000 X94.608 Y80.239
M204 S1800
M205 X8 Y8
G1 F2400 X95.035 Y79.796 E6.97681
G1 X95.549 Y79.346 E7.00862
G1 X96.112 Y78.959 E7.04043
G1 X96.532 Y78.729 E7.06273
G1 X97.862 Y78.07 E7.13185
G1 X98.034 Y77.987 E7.14074
G1 X98.722 Y77.635 E7.17673
G1 X99.533 Y77.234 E7.21885
G1 X100.162 Y76.967 E7.25067
G1 X100.818 Y76.776 E7.28249
G1 X101.491 Y76.663 E7.31426
G1 X102.072 Y76.627 E7.34137
G1 X102.603 Y76.619 E7.3661
G1 X107.265 Y76.621 E7.58318
G1 X107.961 Y76.631 E7.61559
G1 X108.642 Y76.68 E7.64738
G1 X109.313 Y76.809 E7.6792
G1 X109.965 Y77.016 E7.71105
G1 X110.504 Y77.254 E7.73849
G1 X111.982 Y77.999 E7.81556
G1 X112.751 Y78.374 E7.8554
G1 X113.505 Y78.754 E7.89471
G1 X114.096 Y79.097 E7.92653
G1 X114.643 Y79.506 E7.95834
G1 X115.12 Y79.952 E7.98874
G1 X115.574 Y80.463 E8.02057
G1 X115.965 Y81.023 E8.05238
G1 X116.288 Y81.625 E8.08419
G1 X116.539 Y82.261 E8.11603
G1 X116.713 Y82.921 E8.14781
G1 X116.827 Y83.886 E8.19305
G1 X116.84 Y84.539 E8.22347
G1 X116.839 Y85.28 E8.25797
G1 X116.829 Y86.003 E8.29164
G1 X116.751 Y86.882 E8.33273
G1 X116.656 Y87.343 E8.35465
G1 X116.402 Y88.374 E8.40409
G1 X116.287 Y88.816 E8.42536
G1 X115.68 Y91.437 E8.55063
G1 X115.148 Y94.062 E8.67535
G1 X114.705 Y96.647 E8.79747
G1 X114.324 Y99.299 E8.92223
G1 X114.018 Y101.963 E9.04709
G1 X113.792 Y104.588 E9.16977
G1 X113.636 Y107.266 E9.29468
G1 X113.559 Y109.903 E9.41753
G1 X113.547 Y111.472 E9.49059
G1 X113.549 Y115.423 E9.67456
G1 X113.544 Y115.799 E9.69207
G1 X113.536 Y117.255 E9.75987
G1 X113.537 Y117.822 E9.78627
G1 X113.546 Y118.4 E9.81319
G1 X113.548 Y120.676 E9.91917
G1 X113.546 Y120.852 E9.92737
G1 X113.549 Y122.038 E9.98259
G1 X113.543 Y122.582 E10.00792
G1 X113.55 Y123.365 E10.04439
G1 X113.539 Y123.593 E10.05501
G1 X113.535 Y125.22 E10.13077
G1 X113.542 Y126.228 E10.17771
G1 X113.54 Y126.415 E10.18642
G1 X113.543 Y127.239 E10.22479
G1 X113.532 Y128.232 E10.27103
G1 X113.504 Y128.739 E10.29467
G1 X113.442 Y129.369 E10.32415
G1 X113.36 Y129.927 E10.35041
G1 X113.289 Y130.287 E10.3675
G1 X113.117 Y130.948 E10.3993
G1 X112.87 Y131.585 E10.43112
G1 X112.585 Y132.131 E10.4598
G1 X112.43 Y132.393 E10.47397
G1 X112.049 Y132.959 E10.50574
G1 X111.603 Y133.477 E10.53757
G1 X111.101 Y133.94 E10.56937
G1 X110.402 Y134.431 E10.60915
G1 X110.193 Y134.556 E10.62048
G1 X109.587 Y134.872 E10.65231
G1 X108.948 Y135.115 E10.68414
G1 X108.373 Y135.268 E10.71185
G1 X107.701 Y135.389 E10.74364
G1 X106.913 Y135.431 E10.78039
G1 X106.566 Y135.426 E10.79655
G1 X103.986 Y135.424 E10.91668
G1 X103.19 Y135.434 E10.95375
G1 X102.57 Y135.408 E10.98265
G1 X102.368 Y135.389 E10.99209
G1 X101.451 Y135.229 E11.03544
G1 X101.254 Y135.178 E11.04491
G1 X100.604 Y134.968 E11.07672
G1 X99.983 Y134.684 E11.10852
G1 X99.508 Y134.403 E11.13422
G1 X99.47 Y134.378 E11.13633
G1 X98.922 Y133.97 E11.16815
G1 X98.479 Y133.562 E11.19619
G1 X98.015 Y133.06 E11.22802
G1 X97.667 Y132.59 E11.25525
G1 X97.639 Y132.548 E11.2576
G1 X97.294 Y131.959 E11.28939
G1 X97.02 Y131.333 E11.32121
G1 X96.773 Y130.533 E11.36019
G1 X96.593 Y129.666 E11.40142
G1 X96.527 Y129.146 E11.42583
G1 X96.466 Y128.349 E11.46305
G1 X96.458 Y127.875 E11.48513
G1 X96.456 Y126.455 E11.55125
G1 X96.464 Y125.469 E11.59716
G1 X96.465 Y124.511 E11.64177
G1 X96.455 Y123.338 E11.69639
G1 X96.46 Y122.73 E11.7247
G1 X96.454 Y120.597 E11.82403
G1 X96.463 Y119.672 E11.8671
G1 X96.454 Y117.081 E11.98775
G1 X96.452 Y115.209 E12.07492
G1 X96.461 Y113.917 E12.13508
G1 X96.457 Y111.144 E12.2642
G1 X96.455 Y110.864 E12.27724
G1 X96.401 Y108.142 E12.40401
G1 X96.274 Y105.505 E12.52694
G1 X96.07 Y102.832 E12.65177
G1 X95.792 Y100.18 E12.77594
G1 X95.441 Y97.557 E12.89916
G1 X95.013 Y94.925 E13.02333
G1 X94.515 Y92.333 E13.14623
G1 X93.934 Y89.712 E13.27124
G1 X93.475 Y87.887 E13.35887
G1 X93.328 Y87.268 E13.38849
G1 X93.209 Y86.596 E13.42027
G1 X93.168 Y85.966 E13.44967
G1 X93.16 Y85.384 E13.47677
G1 X93.161 Y84.673 E13.50988
G1 X93.171 Y83.991 E13.54164
G1 X93.221 Y83.31 E13.57343
G1 X93.35 Y82.639 E13.60525
G1 X93.556 Y81.988 E13.63704
G1 X93.838 Y81.365 E13.66889
G1 X94.19 Y80.78 E13.70068
G1 X94.608 Y80.239 E13.73251
M204 S3000
M205 X10 Y10
G0 F3000 X94.744 Y80.965
M204 S1800
M205 X8 Y8
G1 F2400 X95.308 Y80.312 E13.77269
G1 X95.427 Y80.195 E13.78046
G1 X95.918 Y79.769 E13.81073
G1 X96.457 Y79.406 E13.84099
G1 X96.781 Y79.231 E13.85814
G1 X98.466 Y78.393 E13.94576
G1 X98.897 Y78.173 E13.9683
G1 X99.781 Y77.736 E14.01421
G1 X100.38 Y77.484 E14.04447
G1 X101.005 Y77.308 E14.07471
G1 X101.943 Y77.192 E14.11872
G1 X102.61 Y77.179 E14.14978
G1 X107.257 Y77.181 E14.36617
G1 X107.953 Y77.191 E14.39858
G1 X108.601 Y77.24 E14.42884
G1 X109.237 Y77.368 E14.45905
G1 X109.854 Y77.574 E14.48934
G1 X110.252 Y77.754 E14.50968
G1 X111.757 Y78.513 E14.58816
G1 X112.499 Y78.874 E14.62659
G1 X113.253 Y79.254 E14.6659
G1 X113.814 Y79.581 E14.69614
G1 X114.331 Y79.975 E14.72641
G1 X114.724 Y80.348 E14.75164
G1 X115.154 Y80.835 E14.78189
G1 X115.521 Y81.371 E14.81213
G1 X115.82 Y81.948 E14.8424
G1 X116.045 Y82.557 E14.87263
G1 X116.194 Y83.19 E14.90291
G1 X116.267 Y83.905 E14.93637
G1 X116.28 Y84.546 E14.96623
G1 X116.279 Y85.272 E15.00003
G1 X116.269 Y85.995 E15.0337
G1 X116.198 Y86.79 E15.07087
G1 X116.113 Y87.209 E15.09078
G1 X115.86 Y88.232 E15.13985
G1 X115.742 Y88.684 E15.1616
G1 X115.134 Y91.31 E15.28711
G1 X114.598 Y93.96 E15.413
G1 X114.148 Y96.582 E15.53688
G1 X113.769 Y99.225 E15.66121
G1 X113.463 Y101.886 E15.78593
G1 X113.233 Y104.545 E15.91021
G1 X113.078 Y107.216 E16.03479
G1 X112.999 Y109.929 E16.16117
G1 X112.987 Y111.468 E16.23284
G1 X112.989 Y115.415 E16.41663
G1 X112.984 Y115.796 E16.43437
G1 X112.976 Y117.252 E16.50217
G1 X112.977 Y117.832 E16.52918
G1 X112.986 Y118.4 E16.55563
G1 X112.988 Y120.67 E16.66133
G1 X112.986 Y120.846 E16.66952
G1 X112.989 Y122.032 E16.72475
G1 X112.983 Y122.581 E16.75031
G1 X112.99 Y123.37 E16.78705
G1 X112.979 Y123.58 E16.79685
G1 X112.975 Y125.219 E16.87317
G1 X112.982 Y126.222 E16.91987
G1 X112.98 Y126.409 E16.92858
G1 X112.983 Y127.232 E16.9669
G1 X112.972 Y128.225 E17.01314
G1 X112.947 Y128.684 E17.03455
G1 X112.885 Y129.314 E17.06402
G1 X112.81 Y129.819 E17.0878
G1 X112.739 Y130.179 E17.10488
G1 X112.575 Y130.807 E17.13511
G1 X112.334 Y131.41 E17.16534
G1 X111.948 Y132.107 E17.20244
G1 X111.584 Y132.645 E17.23269
G1 X111.156 Y133.134 E17.26295
G1 X110.671 Y133.567 E17.29322
G1 X110.114 Y133.95 E17.3247
G1 X109.905 Y134.075 E17.33604
G1 X109.328 Y134.374 E17.3663
G1 X108.439 Y134.675 E17.41
G1 X108.241 Y134.723 E17.41949
G1 X107.601 Y134.837 E17.44976
G1 X106.921 Y134.871 E17.48146
G1 X106.574 Y134.866 E17.49762
G1 X103.979 Y134.864 E17.61846
G1 X103.183 Y134.874 E17.65553
G1 X102.623 Y134.851 E17.68162
G1 X102.421 Y134.832 E17.69107
G1 X101.592 Y134.686 E17.73027
G1 X101.395 Y134.635 E17.73974
G1 X100.777 Y134.434 E17.77
G1 X100.189 Y134.159 E17.80023
G1 X99.778 Y133.91 E17.82261
G1 X99.021 Y133.306 E17.8677
G1 X98.867 Y133.158 E17.87765
G1 X98.428 Y132.68 E17.90787
G1 X98.105 Y132.238 E17.93336
G1 X97.778 Y131.676 E17.96363
G1 X97.425 Y130.773 E18.00878
G1 X97.311 Y130.378 E18.02792
G1 X97.148 Y129.594 E18.06521
G1 X97.084 Y129.089 E18.08891
G1 X97.026 Y128.338 E18.12399
G1 X97.018 Y127.874 E18.1456
G1 X97.016 Y126.459 E18.21148
G1 X97.024 Y125.473 E18.2574
G1 X97.025 Y124.505 E18.30247
G1 X97.015 Y123.343 E18.35658
G1 X97.02 Y122.735 E18.38489
G1 X97.014 Y120.603 E18.48417
G1 X97.023 Y119.678 E18.52724
G1 X97.014 Y117.073 E18.64854
G1 X97.012 Y115.213 E18.73515
G1 X97.021 Y113.921 E18.79532
G1 X97.015 Y110.815 E18.93994
G1 X96.962 Y108.139 E19.06457
G1 X96.833 Y105.47 E19.189
G1 X96.626 Y102.769 E19.31514
G1 X96.348 Y100.117 E19.4393
G1 X95.997 Y97.497 E19.56239
G1 X95.559 Y94.799 E19.68967
G1 X95.063 Y92.216 E19.81214
G1 X94.481 Y89.59 E19.93738
G1 X94.02 Y87.758 E20.02535
G1 X93.873 Y87.139 E20.05497
G1 X93.762 Y86.499 E20.08522
G1 X93.728 Y85.947 E20.11097
G1 X93.72 Y85.378 E20.13747
G1 X93.721 Y84.682 E20.16988
G1 X93.731 Y84 E20.20164
G1 X93.78 Y83.352 E20.2319
G1 X93.909 Y82.715 E20.26216
G1 X94.115 Y82.099 E20.29241
G1 X94.394 Y81.513 E20.32263
G1 X94.744 Y80.965 E20.35291
M204 S3000
M205 X10 Y10
G0 F3000 X99.28 Y84.235
M204 S1800
M205 X8 Y8
;TYPE:SUPPORT
G1 F1500 X101.02 Y84.235 E20.43393
G1 X101.02 Y85.76 E20.50494
G1 X99.28 Y85.76 E20.58596
G1 X99.28 Y84.235 E20.65697
M204 S3000
M205 X10 Y10
G0 F3000 X99.499 Y85.159
M204 S1800
M205 X8 Y8
G1 F1500 X100.157 Y85.538 E20.69233
M204 S3000
M205 X10 Y10
G1 F2400 E14.69233
G0 F3000 X101.339 Y83.923
G0 X108.11 Y83.373
G0 X108.979 Y85.765
M204 S1800
M205 X8 Y8
G1 F2400 E20.69233
G1 F1500 X108.98 Y84.24 E20.76334
G1 X110.72 Y84.24 E20.84436
G1 X110.72 Y85.765 E20.91537
G1 X108.979 Y85.765 E20.99644
M204 S3000
M205 X10 Y10
G0 F3000 X109.198 Y84.755
M204 S1800
M205 X8 Y8
G1 F1500 X109.711 Y84.459 E21.02402
M204 S3000
M205 X10 Y10
G1 F2400 E15.02402
G0 F3000 X108.086 Y95.126
G0 X105.001 Y104.109
M204 S1800
M205 X8 Y8
G1 F2400 E21.02402
G1 F1500 X105.212 Y105.334 E21.0819
G1 X105.225 Y105.385 E21.08435
G1 X105.506 Y106.322 E21.1299
G1 X105.593 Y106.478 E21.13822
G1 X105.929 Y106.881 E21.16265
G1 X106.275 Y107.044 E21.18046
G1 X107.105 Y107.058 E21.21911
G1 X107.429 Y106.91 E21.2357
G1 X107.427 Y110.769 E21.41539
G1 X107.43 Y116.02 E21.6599
G1 X107.153 Y117.495 E21.72978
G1 X107.425 Y117.948 E21.75438
G1 X107.429 Y121.27 E21.90907
G1 X107.196 Y122.701 E21.97658
G1 X107.413 Y123.124 E21.99872
G1 X107.216 Y124.504 E22.06363
G1 X107.417 Y124.855 E22.08246
G1 X107.265 Y126.179 E22.14452
G1 X107.422 Y126.55 E22.16328
G1 X107.262 Y127.935 E22.2282
G1 X107.415 Y128.297 E22.2465
G1 X107.338 Y128.945 E22.27688
G1 X107.274 Y129.165 E22.28755
G1 X107.168 Y129.271 E22.29453
G1 X106.981 Y129.318 E22.30351
G1 X106.806 Y129.272 E22.31194
G1 X105.332 Y127.808 E22.40867
G1 X104.705 Y127.803 E22.43787
G1 X103.183 Y129.275 E22.53646
G1 X103.01 Y129.319 E22.54478
G1 X102.832 Y129.274 E22.55333
G1 X102.731 Y129.173 E22.55998
G1 X102.649 Y128.864 E22.57486
G1 X102.582 Y128.286 E22.60196
G1 X102.736 Y127.916 E22.62062
G1 X102.576 Y126.508 E22.6866
G1 X102.747 Y126.138 E22.70558
G1 X102.579 Y124.806 E22.7681
G1 X102.658 Y124.426 E22.78617
G1 X102.576 Y123.12 E22.8471
G1 X102.814 Y122.677 E22.87052
G1 X102.587 Y121.344 E22.93348
G1 X102.794 Y121.009 E22.95182
G1 X102.587 Y119.598 E23.01822
G1 X102.792 Y119.258 E23.03671
G1 X102.573 Y117.765 E23.10698
G1 X102.572 Y114.73 E23.2483
G1 X102.755 Y114.361 E23.26748
G1 X102.58 Y112.619 E23.349
G1 X102.805 Y112.244 E23.36936
G1 X102.573 Y110.763 E23.43917
G1 X102.572 Y106.904 E23.61886
G1 X102.877 Y107.049 E23.63458
G1 X103.746 Y107.057 E23.67505
G1 X104.127 Y106.868 E23.69485
G1 X104.424 Y106.462 E23.71828
G1 X104.493 Y106.329 E23.72525
G1 X104.782 Y105.363 E23.7722
G1 X105.001 Y104.109 E23.83148
M204 S3000
M205 X10 Y10
G0 F3000 X105.063 Y105.618
M204 S1800
M205 X8 Y8
G1 F1500 X104.907 Y105.708 E23.83987
M204 S3000
M205 X10 Y10
G0 F3000 X104.608 Y106.583
M204 S1800
M205 X8 Y8
G1 F1500 X107.208 Y108.085 E23.97968
M204 S3000
M205 X10 Y10
G0 F3000 X104 Y107.176
M204 S1800
M205 X8 Y8
G1 F1500 X104 Y128.179 E24.95767
M204 S3000
M205 X10 Y10
G0 F3000 X102.87 Y125.359
M204 S1800
M205 X8 Y8
