;FLAVOR:Marlin
;TIME:175
;Filament used: 0.068583m
;Layer height: 0.2
;MINX:95.507
;MINY:95.494
;MINZ:0.2
;MAXX:114.504
;MAXY:114.496
;MAXZ:12
;Generated with Cura_SteamEngine 4.11.0
M140 S60
M105
M190 S60
M104 S200
M105
M109 S200
M82 ;absolute extrusion mode
G21 ;metric values
G90 ;absolute positioning
M82 ;set extruder to absolute mode
M107 ;start with the fan off
G28 X0 Y0 ;move X/Y to min endstops
G28 Z0 ;move Z to min endstops
G1 Z15.0 F100 ;move the platform down 15mm
G92 E0 ;zero the extruded length
G1 F200 E3 ;extrude 3mm of feed stock
G92 E0 ;zero the extruded length again
G1 F100
G0 Y20 F100
M117 Printing...
G5
G92 E0
G92 E0
G1 F2400 E-6
;LAYER_COUNT:60
;LAYER:0
M107
M204 S3000
M205 X10 Y10
G1 F600 Z0.275
G0 F3000 X98.581 Y97.99 Z0.275
M204 S1800
M205 X8 Y8
;TYPE:SKIRT
G1 F600 Z0.2
G1 F2400 E0
G1 X98.761 Y97.829 E0.01125
G1 X99.364 Y97.343 E0.04731
G1 X99.954 Y96.949 E0.08034
G1 X100.799 Y96.479 E0.12537
G1 X101.083 Y96.344 E0.14001
G1 X101.799 Y96.048 E0.17609
G1 X102.363 Y95.873 E0.20358
G1 X102.721 Y95.777 E0.22084
G1 X103.48 Y95.615 E0.25698
G1 X104.025 Y95.548 E0.28255
G1 X104.339 Y95.521 E0.29722
G1 X105.099 Y95.494 E0.33264
G1 X105.164 Y95.495 E0.33566
G1 X105.773 Y95.529 E0.36406
G1 X106.062 Y95.557 E0.37758
G1 X106.682 Y95.643 E0.40673
G1 X106.781 Y95.661 E0.41142
G1 X107.52 Y95.835 E0.44677
G1 X107.78 Y95.91 E0.45937
G1 X108.636 Y96.214 E0.50167
G1 X108.789 Y96.279 E0.50941
G1 X109.486 Y96.618 E0.5455
G1 X110.203 Y97.052 E0.58452
G1 X110.839 Y97.496 E0.62064
G1 X111.287 Y97.87 E0.64782
G1 X111.878 Y98.447 E0.68628
G1 X112.125 Y98.716 E0.70328
G1 X112.619 Y99.313 E0.73936
G1 X112.942 Y99.783 E0.76592
G1 X113.102 Y100.036 E0.77986
G1 X113.544 Y100.841 E0.82262
G1 X113.657 Y101.08 E0.83493
G1 X113.952 Y101.797 E0.87103
G1 X114.139 Y102.395 E0.90021
G1 X114.293 Y103.021 E0.93022
G1 X114.351 Y103.309 E0.9439
G1 X114.465 Y104.076 E0.98001
G1 X114.497 Y104.64 E1.00632
G1 X114.504 Y104.982 E1.02224
G1 X114.45 Y106.056 E1.07232
G1 X114.424 Y106.267 E1.08222
G1 X114.261 Y107.149 E1.12398
G1 X114.223 Y107.303 E1.13137
G1 X113.992 Y108.063 E1.16835
G1 X113.855 Y108.441 E1.18708
G1 X113.511 Y109.242 E1.22767
G1 X113.256 Y109.716 E1.25273
G1 X113.134 Y109.924 E1.26396
G1 X112.613 Y110.697 E1.30737
G1 X112.245 Y111.161 E1.33494
G1 X111.695 Y111.746 E1.37233
G1 X111.535 Y111.899 E1.38264
G1 X111.036 Y112.336 E1.41353
G1 X110.791 Y112.532 E1.42813
G1 X110.161 Y112.985 E1.46427
G1 X109.649 Y113.286 E1.49192
G1 X109.321 Y113.462 E1.50926
G1 X108.619 Y113.793 E1.54539
G1 X108.059 Y113.997 E1.57315
G1 X107.853 Y114.063 E1.58322
G1 X107.221 Y114.236 E1.61373
G1 X106.921 Y114.304 E1.62805
G1 X106.157 Y114.436 E1.66416
G1 X105.475 Y114.492 E1.69602
G1 X104.565 Y114.496 E1.73839
G1 X104.332 Y114.483 E1.74926
G1 X103.316 Y114.357 E1.79693
G1 X103.1 Y114.315 E1.80718
G1 X102.131 Y114.058 E1.85386
G1 X101.802 Y113.947 E1.87003
G1 X101.302 Y113.759 E1.8949
G1 X100.522 Y113.382 E1.93524
G1 X100.317 Y113.268 E1.94616
G1 X99.715 Y112.895 E1.97914
G1 X99.482 Y112.735 E1.9923
G1 X98.866 Y112.264 E2.02841
G1 X98.458 Y111.89 E2.05418
G1 X98.237 Y111.672 E2.06863
G1 X97.73 Y111.119 E2.10357
G1 X97.584 Y110.943 E2.11422
G1 X97.121 Y110.322 E2.15029
G1 X96.833 Y109.856 E2.17579
G1 X96.67 Y109.569 E2.19116
G1 X96.293 Y108.808 E2.23071
G1 X96.214 Y108.623 E2.24008
G1 X95.947 Y107.895 E2.27618
G1 X95.732 Y107.081 E2.31538
G1 X95.585 Y106.319 E2.35152
G1 X95.526 Y105.739 E2.37867
G1 X95.507 Y105.432 E2.39299
G1 X95.511 Y104.454 E2.43853
G1 X95.527 Y104.22 E2.44945
G1 X95.61 Y103.507 E2.48288
G1 X95.629 Y103.392 E2.4883
G1 X95.874 Y102.363 E2.53756
G1 X96.001 Y101.959 E2.55728
G1 X96.428 Y100.893 E2.61075
G1 X96.522 Y100.702 E2.62066
G1 X96.943 Y99.957 E2.66051
G1 X97.069 Y99.761 E2.67136
G1 X97.687 Y98.931 E2.71954
G1 X97.886 Y98.699 E2.73377
G1 X98.581 Y97.99 E2.78
M204 S3000
M205 X10 Y10
G0 F3000 X98.954 Y98.407
M204 S1800
M205 X8 Y8
G1 F2400 X99.134 Y98.246 E2.79125
G1 X100.004 Y97.583 E2.84218
G1 X100.257 Y97.42 E2.8562
G1 X101.039 Y96.985 E2.89787
G1 X101.323 Y96.85 E2.91251
G1 X102.013 Y96.566 E2.94725
G1 X102.508 Y96.414 E2.97136
G1 X102.866 Y96.318 E2.98862
G1 X103.596 Y96.163 E3.02337
G1 X104.387 Y96.079 E3.06041
G1 X105.09 Y96.054 E3.09317
G1 X105.155 Y96.055 E3.09619
G1 X105.719 Y96.086 E3.1225
G1 X106.008 Y96.114 E3.13602
G1 X106.582 Y96.194 E3.163
G1 X106.681 Y96.212 E3.16769
G1 X107.365 Y96.373 E3.20041
G1 X107.625 Y96.448 E3.21301
G1 X108.417 Y96.729 E3.25214
G1 X108.57 Y96.794 E3.25988
G1 X109.528 Y97.292 E3.31016
G1 X109.907 Y97.528 E3.33094
G1 X110.518 Y97.955 E3.36565
G1 X110.919 Y98.292 E3.39005
G1 X111.466 Y98.826 E3.42564
G1 X111.713 Y99.095 E3.44265
G1 X112.187 Y99.67 E3.47734
G1 X112.628 Y100.335 E3.5145
G1 X113.038 Y101.08 E3.5541
G1 X113.151 Y101.319 E3.56641
G1 X113.539 Y102.34 E3.61727
G1 X113.601 Y102.552 E3.62755
G1 X113.744 Y103.132 E3.65537
G1 X113.802 Y103.42 E3.66905
G1 X113.91 Y104.158 E3.70378
G1 X113.945 Y104.994 E3.74274
G1 X113.894 Y105.987 E3.78904
G1 X113.868 Y106.198 E3.79894
G1 X113.717 Y107.014 E3.83758
G1 X113.679 Y107.168 E3.84497
G1 X113.465 Y107.873 E3.87927
G1 X113.328 Y108.251 E3.89799
G1 X113.01 Y108.992 E3.93554
G1 X112.651 Y109.64 E3.97004
G1 X112.168 Y110.356 E4.01025
G1 X111.818 Y110.799 E4.03654
G1 X111.308 Y111.341 E4.0712
G1 X111.148 Y111.494 E4.0815
G1 X110.686 Y111.899 E4.11011
G1 X110.441 Y112.095 E4.12472
G1 X109.834 Y112.529 E4.15947
G1 X109.384 Y112.793 E4.18376
G1 X109.056 Y112.969 E4.20109
G1 X108.381 Y113.286 E4.23582
G1 X107.889 Y113.464 E4.26018
G1 X107.683 Y113.53 E4.27025
G1 X107.098 Y113.69 E4.29849
G1 X106.798 Y113.758 E4.31282
G1 X105.714 Y113.915 E4.36382
G1 X105.439 Y113.933 E4.37665
G1 X104.596 Y113.937 E4.41591
G1 X104.363 Y113.924 E4.42677
G1 X103.423 Y113.807 E4.47088
G1 X103.207 Y113.765 E4.48113
G1 X102.31 Y113.528 E4.52433
G1 X101.545 Y113.253 E4.56218
G1 X101.516 Y113.241 E4.56364
G1 X100.794 Y112.893 E4.60096
G1 X100.589 Y112.779 E4.61189
G1 X100.032 Y112.433 E4.64242
G1 X99.799 Y112.273 E4.65558
G1 X99.208 Y111.819 E4.69028
G1 X98.63 Y111.273 E4.72731
G1 X98.161 Y110.762 E4.7596
G1 X98.015 Y110.586 E4.77025
G1 X97.57 Y109.987 E4.805
G1 X97.157 Y109.292 E4.84264
G1 X96.808 Y108.588 E4.87923
G1 X96.729 Y108.403 E4.8886
G1 X96.473 Y107.703 E4.9233
G1 X96.276 Y106.946 E4.95973
G1 X96.136 Y106.213 E4.99448
G1 X96.085 Y105.704 E5.0183
G1 X96.066 Y105.397 E5.03262
G1 X96.069 Y104.492 E5.07476
G1 X96.085 Y104.258 E5.08568
G1 X96.162 Y103.598 E5.11662
G1 X96.181 Y103.483 E5.12205
G1 X96.408 Y102.531 E5.16762
G1 X96.535 Y102.127 E5.18734
G1 X96.93 Y101.141 E5.2368
G1 X97.024 Y100.95 E5.24671
G1 X97.414 Y100.259 E5.28366
G1 X97.54 Y100.063 E5.29451
G1 X98.112 Y99.296 E5.33906
G1 X98.311 Y99.064 E5.35329
G1 X98.954 Y98.407 E5.3961
M204 S3000
M205 X10 Y10
G0 F3000 X99.327 Y98.825
M204 S1800
M205 X8 Y8
G1 F2400 X99.507 Y98.664 E5.40735
G1 X100.308 Y98.054 E5.45423
G1 X100.561 Y97.891 E5.46824
G1 X101.279 Y97.491 E5.50651
G1 X101.563 Y97.356 E5.52115
G1 X102.226 Y97.085 E5.55451
G1 X103.011 Y96.858 E5.59256
G1 X103.711 Y96.712 E5.62585
G1 X104.435 Y96.637 E5.65975
G1 X105.081 Y96.614 E5.68985
G1 X105.146 Y96.615 E5.69287
G1 X105.665 Y96.644 E5.71708
G1 X105.954 Y96.672 E5.7306
G1 X106.482 Y96.745 E5.75542
G1 X106.581 Y96.763 E5.7601
G1 X107.21 Y96.911 E5.79019
G1 X107.47 Y96.986 E5.80279
G1 X108.198 Y97.245 E5.83877
G1 X108.351 Y97.31 E5.84651
G1 X109.232 Y97.767 E5.89273
G1 X109.611 Y98.003 E5.91352
G1 X110.439 Y98.617 E5.96151
G1 X110.55 Y98.714 E5.96838
G1 X111.053 Y99.204 E6.00108
G1 X111.3 Y99.473 E6.01808
G1 X111.754 Y100.026 E6.0514
G1 X112.155 Y100.634 E6.08531
G1 X112.532 Y101.319 E6.12172
G1 X112.645 Y101.558 E6.13403
G1 X113.002 Y102.498 E6.18085
G1 X113.064 Y102.71 E6.19114
G1 X113.195 Y103.242 E6.21665
G1 X113.253 Y103.53 E6.23033
G1 X113.355 Y104.238 E6.26364
G1 X113.385 Y105.005 E6.29938
G1 X113.338 Y105.919 E6.34199
G1 X113.312 Y106.13 E6.35189
G1 X113.174 Y106.88 E6.3874
G1 X113.136 Y107.034 E6.39479
G1 X112.939 Y107.682 E6.42633
G1 X112.802 Y108.06 E6.44505
G1 X112.509 Y108.741 E6.47957
G1 X112.167 Y109.357 E6.51238
G1 X111.724 Y110.015 E6.54931
G1 X111.391 Y110.436 E6.57431
G1 X110.921 Y110.937 E6.60629
G1 X110.761 Y111.09 E6.6166
G1 X110.336 Y111.462 E6.6429
G1 X110.091 Y111.658 E6.65751
G1 X109.508 Y112.072 E6.69081
G1 X108.791 Y112.475 E6.72911
G1 X108.143 Y112.778 E6.76242
G1 X107.512 Y112.997 E6.79352
G1 X106.974 Y113.144 E6.81949
G1 X106.674 Y113.212 E6.83381
G1 X105.677 Y113.356 E6.88072
G1 X105.402 Y113.374 E6.89355
G1 X104.627 Y113.378 E6.92964
G1 X104.394 Y113.365 E6.9405
G1 X103.529 Y113.257 E6.98109
G1 X103.313 Y113.215 E6.99134
G1 X102.489 Y112.997 E7.03103
G1 X101.759 Y112.736 E7.06713
G1 X101.73 Y112.724 E7.06859
G1 X101.067 Y112.403 E7.10289
G1 X100.862 Y112.289 E7.11381
G1 X100.349 Y111.972 E7.14189
G1 X100.116 Y111.812 E7.15505
G1 X99.55 Y111.375 E7.18835
G1 X99.024 Y110.874 E7.22217
G1 X98.592 Y110.404 E7.2519
G1 X98.446 Y110.228 E7.26255
G1 X98.021 Y109.653 E7.29584
G1 X97.644 Y109.016 E7.33031
G1 X97.323 Y108.368 E7.36398
G1 X97.244 Y108.183 E7.37335
G1 X96.917 Y107.207 E7.42128
G1 X96.819 Y106.811 E7.44027
G1 X96.687 Y106.109 E7.47354
G1 X96.625 Y105.362 E7.50844
G1 X96.628 Y104.53 E7.54718
G1 X96.644 Y104.296 E7.5581
G1 X96.715 Y103.69 E7.58651
G1 X96.734 Y103.575 E7.59194
G1 X96.943 Y102.699 E7.63388
G1 X97.07 Y102.295 E7.65359
G1 X97.433 Y101.388 E7.69909
G1 X97.527 Y101.197 E7.709
G1 X97.885 Y100.562 E7.74294
G1 X98.011 Y100.366 E7.75379
G1 X98.537 Y99.66 E7.79479
G1 X98.736 Y99.428 E7.80902
G1 X99.327 Y98.825 E7.84833
M204 S3000
M205 X10 Y10
G0 F3000 X99.701 Y99.242
M204 S1800
M205 X8 Y8
G1 F2400 X99.881 Y99.081 E7.85958
G1 X100.611 Y98.525 E7.90231
G1 X100.864 Y98.362 E7.91632
G1 X101.52 Y97.997 E7.95128
G1 X101.804 Y97.862 E7.96592
G1 X102.437 Y97.605 E7.99773
G1 X103.156 Y97.399 E8.03256
G1 X103.826 Y97.261 E8.06441
G1 X104.483 Y97.194 E8.09516
G1 X105.073 Y97.174 E8.12265
G1 X105.611 Y97.201 E8.14773
G1 X106.382 Y97.296 E8.18391
G1 X106.481 Y97.314 E8.18859
G1 X107.055 Y97.449 E8.21605
G1 X107.315 Y97.524 E8.22865
G1 X107.98 Y97.76 E8.26151
G1 X108.133 Y97.825 E8.26925
G1 X108.936 Y98.243 E8.3114
G1 X109.315 Y98.479 E8.33219
G1 X110.071 Y99.038 E8.37597
G1 X110.182 Y99.135 E8.38284
G1 X110.641 Y99.583 E8.4127
G1 X110.888 Y99.852 E8.42971
G1 X111.32 Y100.382 E8.46155
G1 X111.682 Y100.934 E8.49228
G1 X112.026 Y101.559 E8.5255
G1 X112.139 Y101.798 E8.53781
G1 X112.464 Y102.655 E8.58049
G1 X112.526 Y102.867 E8.59078
G1 X112.646 Y103.353 E8.61409
G1 X112.704 Y103.641 E8.62777
G1 X112.8 Y104.318 E8.65961
G1 X112.825 Y105.016 E8.69213
G1 X112.782 Y105.85 E8.73101
G1 X112.756 Y106.061 E8.74091
G1 X112.63 Y106.746 E8.77335
G1 X112.592 Y106.9 E8.78073
G1 X112.413 Y107.491 E8.80949
G1 X112.276 Y107.869 E8.82821
G1 X112.008 Y108.491 E8.85974
G1 X111.684 Y109.074 E8.8908
G1 X111.28 Y109.675 E8.92452
G1 X110.965 Y110.073 E8.94816
G1 X110.534 Y110.532 E8.97747
G1 X110.374 Y110.685 E8.98778
G1 X109.986 Y111.024 E9.01177
G1 X109.741 Y111.22 E9.02638
G1 X109.184 Y111.615 E9.05818
G1 X108.526 Y111.982 E9.09326
G1 X107.906 Y112.269 E9.12508
G1 X107.341 Y112.464 E9.15291
G1 X106.85 Y112.598 E9.17661
G1 X106.55 Y112.666 E9.19093
G1 X105.64 Y112.798 E9.23375
G1 X105.365 Y112.816 E9.24658
G1 X104.659 Y112.819 E9.27945
G1 X104.426 Y112.806 E9.29032
G1 X103.636 Y112.708 E9.32739
G1 X103.42 Y112.666 E9.33763
G1 X102.668 Y112.467 E9.37386
G1 X101.973 Y112.218 E9.40823
G1 X101.944 Y112.206 E9.40969
G1 X101.339 Y111.914 E9.44097
G1 X101.134 Y111.8 E9.4519
G1 X100.666 Y111.51 E9.47753
G1 X100.433 Y111.35 E9.4907
G1 X99.893 Y110.931 E9.52252
G1 X99.417 Y110.476 E9.55318
G1 X99.023 Y110.047 E9.58031
G1 X98.877 Y109.871 E9.59095
G1 X98.473 Y109.32 E9.62277
G1 X98.131 Y108.739 E9.65416
G1 X97.838 Y108.148 E9.68488
G1 X97.759 Y107.963 E9.69424
G1 X97.461 Y107.073 E9.73795
G1 X97.363 Y106.677 E9.75694
G1 X97.238 Y106.005 E9.78877
G1 X97.184 Y105.328 E9.82039
G1 X97.187 Y104.569 E9.85574
G1 X97.203 Y104.335 E9.86666
G1 X97.267 Y103.781 E9.89263
G1 X97.286 Y103.666 E9.89805
G1 X97.477 Y102.867 E9.93631
G1 X97.604 Y102.463 E9.95603
G1 X97.935 Y101.635 E9.99755
G1 X98.029 Y101.444 E10.00746
G1 X98.357 Y100.865 E10.03845
G1 X98.483 Y100.669 E10.0493
G1 X98.962 Y100.025 E10.08667
G1 X99.161 Y99.793 E10.1009
G1 X99.701 Y99.242 E10.13683
M204 S3000
M205 X10 Y10
G0 F3000 X100.074 Y99.66
M204 S1800
M205 X8 Y8
G1 F2400 X100.254 Y99.499 E10.14807
G1 X100.914 Y98.995 E10.18674
G1 X101.167 Y98.832 E10.20075
G1 X101.76 Y98.502 E10.23235
G1 X102.044 Y98.367 E10.247
G1 X102.943 Y98.036 E10.2916
G1 X103.301 Y97.94 E10.30886
G1 X104.217 Y97.779 E10.35217
G1 X104.531 Y97.752 E10.36685
G1 X105.064 Y97.734 E10.39168
G1 X105.846 Y97.787 E10.42818
G1 X106.381 Y97.865 E10.45335
G1 X106.899 Y97.987 E10.47813
G1 X107.159 Y98.062 E10.49073
G1 X107.761 Y98.275 E10.52047
G1 X107.914 Y98.34 E10.52821
G1 X108.64 Y98.718 E10.56632
G1 X109.019 Y98.954 E10.58711
G1 X109.702 Y99.46 E10.62669
G1 X109.813 Y99.557 E10.63355
G1 X110.228 Y99.962 E10.66055
G1 X110.475 Y100.231 E10.67756
G1 X111.049 Y100.98 E10.7215
G1 X111.209 Y101.233 E10.73544
G1 X111.519 Y101.798 E10.76545
G1 X111.632 Y102.037 E10.77776
G1 X111.927 Y102.812 E10.81637
G1 X112.097 Y103.464 E10.84775
G1 X112.155 Y103.752 E10.86143
G1 X112.258 Y104.686 E10.90518
G1 X112.265 Y105.028 E10.92111
G1 X112.226 Y105.782 E10.95626
G1 X112.2 Y105.993 E10.96616
G1 X112.086 Y106.612 E10.99547
G1 X112.048 Y106.766 E11.00286
G1 X111.886 Y107.3 E11.02884
G1 X111.749 Y107.678 E11.04756
G1 X111.508 Y108.24 E11.07604
G1 X111.201 Y108.79 E11.10537
G1 X110.836 Y109.334 E11.13587
G1 X110.521 Y109.731 E11.15947
G1 X110.147 Y110.127 E11.18483
G1 X109.636 Y110.587 E11.21685
G1 X109.391 Y110.783 E11.23146
G1 X108.589 Y111.313 E11.27622
G1 X108.261 Y111.489 E11.29355
G1 X107.376 Y111.864 E11.33831
G1 X106.726 Y112.051 E11.3698
G1 X106.426 Y112.119 E11.38413
G1 X105.604 Y112.239 E11.42281
G1 X105.329 Y112.257 E11.43564
G1 X104.69 Y112.26 E11.4654
G1 X104.457 Y112.247 E11.47626
G1 X103.743 Y112.158 E11.50977
G1 X103.527 Y112.116 E11.52001
G1 X102.847 Y111.936 E11.55277
G1 X102.187 Y111.701 E11.58539
G1 X102.158 Y111.689 E11.58685
G1 X101.611 Y111.424 E11.61515
G1 X100.983 Y111.049 E11.64921
G1 X100.75 Y110.889 E11.66237
G1 X100.031 Y110.295 E11.7058
G1 X99.81 Y110.077 E11.72026
G1 X99.454 Y109.689 E11.74477
G1 X99.308 Y109.513 E11.75542
G1 X98.781 Y108.75 E11.7986
G1 X98.618 Y108.463 E11.81397
G1 X98.353 Y107.929 E11.84173
G1 X98.274 Y107.744 E11.8511
G1 X98.005 Y106.938 E11.89066
G1 X97.907 Y106.542 E11.90966
G1 X97.762 Y105.6 E11.95404
G1 X97.743 Y105.293 E11.96836
G1 X97.745 Y104.607 E12.0003
G1 X97.761 Y104.373 E12.01123
G1 X97.82 Y103.872 E12.03471
G1 X97.839 Y103.757 E12.04014
G1 X98.011 Y103.035 E12.0747
G1 X98.138 Y102.631 E12.09442
G1 X98.438 Y101.883 E12.13195
G1 X98.532 Y101.692 E12.14186
G1 X98.828 Y101.168 E12.16988
G1 X98.954 Y100.972 E12.18073
G1 X99.387 Y100.389 E12.21455
G1 X99.586 Y100.157 E12.22878
G1 X100.074 Y99.66 E12.26122
M204 S3000
M205 X10 Y10
G1 F2400 E6.26122
;MESH:tweezers2.stl
G0 F3000 X103.17 Y103.081
G0 X104.158 Y104.24
G0 X105.247 Y105.535
M204 S1800
M205 X8 Y8
;TYPE:WALL-INNER
G1 F2400 E12.26122
G1 F1500 X104.936 Y105.585 E12.27588
G1 X104.632 Y105.459 E12.29121
G1 X104.451 Y105.21 E12.30554
G1 X104.422 Y104.893 E12.32036
G1 X104.566 Y104.603 E12.33544
G1 X104.832 Y104.437 E12.35004
G1 X104.992 Y104.411 E12.35759
G1 X105.296 Y104.491 E12.37223
G1 X105.518 Y104.719 E12.38704
G1 X105.589 Y105.029 E12.40185
G1 X105.492 Y105.325 E12.41636
G1 X105.247 Y105.535 E12.43138
M204 S3000
M205 X10 Y10
G0 F3000 X105.177 Y106.141
M204 S1800
M205 X8 Y8
G1 F1500 X104.869 Y106.147 E12.44573
G1 X104.564 Y106.069 E12.46039
G1 X104.285 Y105.905 E12.47545
G1 X104.077 Y105.69 E12.48938
G1 X103.922 Y105.409 E12.50433
G1 X103.852 Y105.103 E12.51894
G1 X103.865 Y104.792 E12.53344
G1 X103.966 Y104.49 E12.54827
G1 X104.144 Y104.227 E12.56305
G1 X104.376 Y104.03 E12.57723
G1 X104.667 Y103.896 E12.59214
G1 X104.976 Y103.846 E12.60672
G1 X105.286 Y103.881 E12.62125
G1 X105.58 Y104.002 E12.63605
G1 X105.828 Y104.196 E12.65071
