;FLAVOR:Marlin
;TIME:14006
;Filament used: 12.787m
;Layer height: 0.2
;MINX:56.611
;MINY:22.876
;MINZ:0.2
;MAXX:153.389
;MAXY:187.123
;MAXZ:15
;Generated with Cura_SteamEngine 4.11.0
M140 S60
M105
M190 S60
M104 S200
M105
M109 S200
M82 ;absolute extrusion mode
G21 ;metric values
G90 ;absolute positioning
M82 ;set extruder to absolute mode
M107 ;start with the fan off
G28 X0 Y0 ;move X/Y to min endstops
G28 Z0 ;move Z to min endstops
G1 Z15.0 F100 ;move the platform down 15mm
G92 E0 ;zero the extruded length
G1 F200 E3 ;extrude 3mm of feed stock
G92 E0 ;zero the extruded length again
G1 F100
G0 Y20 F100
M117 Printing...
G5
G92 E0
G92 E0
G1 F2400 E-6
;LAYER_COUNT:75
;LAYER:0
M107
M204 S3000
M205 X10 Y10
G1 F600 Z0.275
G0 F3000 X99.16 Y26.571 Z0.275
M204 S1800
M205 X8 Y8
;TYPE:SKIRT
G1 F600 Z0.2
G1 F2400 E0
G1 X99.5 Y26 E0.03094
G1 X99.9 Y25.407 E0.06425
G1 X100.363 Y24.862 E0.09755
G1 X100.884 Y24.372 E0.13085
G1 X101.457 Y23.943 E0.16419
G1 X102.074 Y23.581 E0.1975
G1 X102.728 Y23.291 E0.23081
G1 X103.409 Y23.075 E0.26407
G1 X104.111 Y22.936 E0.2974
G1 X104.824 Y22.876 E0.33072
G1 X105.539 Y22.897 E0.36402
G1 X106.247 Y22.997 E0.39732
G1 X106.94 Y23.175 E0.43063
G1 X107.608 Y23.43 E0.46393
G1 X108.244 Y23.758 E0.49725
G1 X108.839 Y24.154 E0.53053
G1 X109.387 Y24.615 E0.56388
G1 X109.879 Y25.133 E0.59714
G1 X110.495 Y25.995 E0.64648
G1 X110.922 Y26.711 E0.68529
G1 X152.268 Y98.325 E4.53581
G1 X152.58 Y98.885 E4.56566
G1 X152.892 Y99.528 E4.59893
G1 X153.131 Y100.203 E4.63228
G1 X153.294 Y100.899 E4.66556
G1 X153.377 Y101.61 E4.6989
G1 X153.387 Y102.167 E4.72484
G1 X153.382 Y102.359 E4.73378
G1 X153.345 Y105.011 E4.85728
G1 X153.389 Y107.9 E4.99182
G1 X153.36 Y108.615 E5.02514
G1 X153.251 Y109.322 E5.05845
G1 X153.064 Y110.012 E5.09174
G1 X152.802 Y110.678 E5.12506
G1 X152.577 Y111.118 E5.14807
G1 X152.185 Y111.82 E5.18551
G1 X110.854 Y183.406 E9.03455
G1 X110.504 Y183.995 E9.06645
G1 X110.105 Y184.589 E9.09977
G1 X109.642 Y185.134 E9.13307
G1 X109.121 Y185.624 E9.16637
G1 X108.549 Y186.053 E9.19967
G1 X107.932 Y186.416 E9.233
G1 X107.279 Y186.707 E9.26629
G1 X106.597 Y186.924 E9.29961
G1 X105.896 Y187.063 E9.33289
G1 X105.183 Y187.123 E9.36621
G1 X104.468 Y187.104 E9.39951
G1 X103.76 Y187.004 E9.43281
G1 X103.067 Y186.826 E9.46612
G1 X102.398 Y186.572 E9.49945
G1 X101.762 Y186.245 E9.53275
G1 X101.166 Y185.849 E9.56607
G1 X100.619 Y185.389 E9.59934
G1 X100.126 Y184.871 E9.63264
G1 X99.508 Y184.009 E9.68203
G1 X99.067 Y183.27 E9.7221
G1 X57.73 Y111.671 E13.5718
G1 X57.418 Y111.11 E13.60169
G1 X57.106 Y110.466 E13.63501
G1 X56.867 Y109.792 E13.66831
G1 X56.706 Y109.095 E13.70162
G1 X56.623 Y108.385 E13.73491
G1 X56.613 Y107.832 E13.76066
G1 X56.618 Y107.641 E13.76956
G1 X56.655 Y104.98 E13.89348
G1 X56.611 Y102.101 E14.02755
G1 X56.64 Y101.386 E14.06087
G1 X56.749 Y100.679 E14.09418
G1 X56.936 Y99.989 E14.12747
G1 X57.198 Y99.324 E14.16075
G1 X57.419 Y98.89 E14.18343
G1 X57.814 Y98.181 E14.22122
G1 X99.16 Y26.571 E18.07157
M204 S3000
M205 X10 Y10
G0 F3000 X99.641 Y26.857
M204 S1800
M205 X8 Y8
G1 F2400 X99.981 Y26.286 E18.10252
G1 X100.364 Y25.721 E18.1343
G1 X100.811 Y25.204 E18.16612
G1 X101.315 Y24.742 E18.19796
G1 X101.87 Y24.343 E18.22979
G1 X102.467 Y24.011 E18.2616
G1 X103.099 Y23.752 E18.2934
G1 X103.757 Y23.568 E18.32522
G1 X104.432 Y23.462 E18.35703
G1 X105.115 Y23.435 E18.38886
G1 X105.796 Y23.489 E18.42067
G1 X106.466 Y23.621 E18.45247
G1 X107.116 Y23.831 E18.48427
G1 X107.737 Y24.116 E18.51609
G1 X108.321 Y24.471 E18.54791
G1 X108.859 Y24.892 E18.57972
G1 X109.345 Y25.373 E18.61156
G1 X109.77 Y25.907 E18.64334
G1 X110.014 Y26.282 E18.66418
G1 X110.437 Y26.991 E18.70262
G1 X151.779 Y98.598 E22.55275
G1 X152.091 Y99.158 E22.5826
G1 X152.388 Y99.773 E22.61441
G1 X152.611 Y100.419 E22.64623
G1 X152.757 Y101.086 E22.67802
G1 X152.824 Y101.766 E22.70984
G1 X152.822 Y102.344 E22.73675
G1 X152.785 Y105.013 E22.86105
G1 X152.829 Y107.909 E22.99591
G1 X152.8 Y108.591 E23.0277
G1 X152.691 Y109.266 E23.05953
G1 X152.503 Y109.923 E23.09135
G1 X152.089 Y110.845 E23.13842
G1 X151.7 Y111.54 E23.1755
G1 X110.372 Y183.12 E27.02422
G1 X110.022 Y183.709 E27.05613
G1 X109.64 Y184.275 E27.08792
G1 X109.193 Y184.793 E27.11978
G1 X108.69 Y185.254 E27.15155
G1 X108.136 Y185.654 E27.18337
G1 X107.539 Y185.986 E27.21518
G1 X106.907 Y186.247 E27.24702
G1 X106.249 Y186.431 E27.27883
G1 X105.574 Y186.538 E27.31066
G1 X104.892 Y186.565 E27.34244
G1 X104.211 Y186.512 E27.37424
G1 X103.54 Y186.38 E27.40609
G1 X102.89 Y186.171 E27.43788
G1 X102.268 Y185.887 E27.46972
G1 X101.684 Y185.532 E27.50154
G1 X101.146 Y185.112 E27.53332
G1 X100.66 Y184.631 E27.56516
G1 X100.234 Y184.098 E27.59694
G1 X99.989 Y183.722 E27.61783
G1 X99.552 Y182.99 E27.65753
G1 X58.219 Y111.398 E31.50685
G1 X57.907 Y110.837 E31.53674
G1 X57.611 Y110.222 E31.56852
G1 X57.388 Y109.576 E31.60035
G1 X57.242 Y108.909 E31.63214
G1 X57.176 Y108.229 E31.66395
G1 X57.178 Y107.655 E31.69068
G1 X57.215 Y104.98 E31.81525
G1 X57.171 Y102.092 E31.94974
G1 X57.2 Y101.41 E31.98153
G1 X57.309 Y100.735 E32.01337
G1 X57.497 Y100.078 E32.04519
G1 X57.908 Y99.162 E32.09194
G1 X58.299 Y98.461 E32.12931
G1 X99.641 Y26.857 E35.97933
M204 S3000
M205 X10 Y10
G0 F3000 X100.122 Y27.144
M204 S1800
M205 X8 Y8
G1 F2400 X100.462 Y26.573 E36.01027
G1 X100.828 Y26.036 E36.04053
G1 X101.258 Y25.548 E36.07082
G1 X101.743 Y25.117 E36.10103
G1 X102.279 Y24.749 E36.13131
G1 X102.855 Y24.449 E36.16155
G1 X103.464 Y24.222 E36.19181
G1 X104.096 Y24.072 E36.22206
G1 X104.741 Y24 E36.25228
G1 X105.391 Y24.009 E36.28255
G1 X106.034 Y24.097 E36.31277
G1 X106.662 Y24.263 E36.34301
G1 X107.265 Y24.505 E36.37327
G1 X107.834 Y24.819 E36.40353
G1 X108.359 Y25.201 E36.43376
G1 X108.834 Y25.645 E36.46404
G1 X109.251 Y26.143 E36.49428
G1 X109.533 Y26.569 E36.51807
G1 X109.952 Y27.271 E36.55614
G1 X151.25 Y98.8 E40.40211
G1 X151.601 Y99.43 E40.43569
G1 X151.882 Y100.016 E40.46595
G1 X152.089 Y100.632 E40.49621
G1 X152.218 Y101.269 E40.52647
G1 X152.267 Y102.137 E40.56695
G1 X152.262 Y102.329 E40.5759
G1 X152.225 Y105.013 E40.70089
G1 X152.269 Y107.917 E40.83613
G1 X152.239 Y108.566 E40.86638
G1 X152.13 Y109.206 E40.89661
G1 X151.942 Y109.828 E40.92687
G1 X151.6 Y110.572 E40.96499
G1 X151.215 Y111.26 E41.0017
G1 X109.891 Y182.834 E44.85009
G1 X109.541 Y183.423 E44.88199
G1 X109.176 Y183.96 E44.91223
G1 X108.747 Y184.448 E44.94248
G1 X108.261 Y184.88 E44.97276
G1 X107.727 Y185.249 E45.00299
G1 X107.151 Y185.549 E45.03323
G1 X106.542 Y185.776 E45.06349
G1 X105.91 Y185.927 E45.09375
G1 X105.265 Y185.999 E45.12397
G1 X104.615 Y185.992 E45.15424
G1 X103.971 Y185.904 E45.1845
G1 X103.343 Y185.739 E45.21474
G1 X102.74 Y185.497 E45.24499
G1 X102.171 Y185.183 E45.27525
G1 X101.645 Y184.802 E45.3055
G1 X101.17 Y184.359 E45.33574
G1 X100.753 Y183.861 E45.36599
G1 X100.47 Y183.434 E45.38984
G1 X100.037 Y182.71 E45.42912
G1 X58.75 Y111.2 E49.27406
G1 X58.397 Y110.565 E49.30789
G1 X58.116 Y109.979 E49.33816
G1 X57.91 Y109.363 E49.3684
G1 X57.781 Y108.726 E49.39866
G1 X57.733 Y107.861 E49.439
G1 X57.738 Y107.67 E49.4479
G1 X57.775 Y104.98 E49.57317
G1 X57.731 Y102.084 E49.70804
G1 X57.761 Y101.435 E49.73829
G1 X57.87 Y100.795 E49.76852
G1 X58.058 Y100.173 E49.79878
G1 X58.397 Y99.435 E49.83659
G1 X58.784 Y98.741 E49.87359
G1 X100.122 Y27.144 E53.72323
M204 S3000
M205 X10 Y10
G1 F2400 E47.72323
;MESH:GOMIBAKOshort.stl
G0 F3000 X103.861 Y29.896
G0 X105 Y30.553
G0 X144.576 Y100.6
M204 S1800
M205 X8 Y8
;TYPE:WALL-INNER
G1 F2400 E53.72323
G1 F1500 X65.424 Y100.6 E57.40888
G1 X105 Y32.053 E61.0945
G1 X144.576 Y100.6 E64.78013
M204 S3000
M205 X10 Y10
G0 F3000 X145.546 Y101.16
M204 S1800
M205 X8 Y8
G1 F1500 X64.454 Y101.16 E68.55611
G1 X105 Y30.933 E72.33206
G1 X145.546 Y101.16 E76.10802
M204 S3000
M205 X10 Y10
G0 F3000 X146.43 Y101.62
G0 X146.516 Y101.72
M204 S1800
M205 X8 Y8
;TYPE:WALL-OUTER
G1 F1500 X63.484 Y101.72 E79.97433
G1 X105 Y29.813 E83.84062
G1 X146.516 Y101.72 E87.7069
M204 S3000
M205 X10 Y10
G0 F3000 X146.316 Y101.72
G0 X146.316 Y101.62
G0 X143.624 Y100.05
M204 S1800
M205 X8 Y8
;TYPE:SKIN
G1 F1500 X66.376 Y100.05 E91.30389
G1 X105 Y33.152 E94.90086
G1 X143.624 Y100.05 E98.49782
M204 S3000
M205 X10 Y10
G0 F3000 X104.979 Y33.703
M204 S1800
M205 X8 Y8
G1 F1500 X105.071 Y33.795 E98.50387
M204 S3000
M205 X10 Y10
G0 F3000 X104.689 Y34.205
M204 S1800
M205 X8 Y8
G1 F1500 X106.153 Y35.669 E98.60028
G1 X106.223 Y35.739
M204 S3000
M205 X10 Y10
G0 F3000 X104.4 Y34.707
M204 S1800
M205 X8 Y8
G1 F1500 X107.235 Y37.543 E98.787
G1 X107.305 Y37.613
M204 S3000
M205 X10 Y10
G0 F3000 X108.317 Y39.416
M204 S1800
M205 X8 Y8
G1 F1500 X104.11 Y35.21 E99.06401
M204 S3000
M205 X10 Y10
G0 F3000 X103.82 Y35.712
M204 S1800
M205 X8 Y8
G1 F1500 X109.399 Y41.29 E99.43136
G1 X109.469 Y41.36
M204 S3000
M205 X10 Y10
G0 F3000 X110.48 Y43.163
M204 S1800
M205 X8 Y8
G1 F1500 X103.531 Y36.214 E99.88897
M204 S3000
M205 X10 Y10
G0 F3000 X103.241 Y36.716
M204 S1800
M205 X8 Y8
G1 F1500 X111.562 Y45.037 E100.43692
G1 X111.632 Y45.107
M204 S3000
M205 X10 Y10
G0 F3000 X112.644 Y46.911
M204 S1800
M205 X8 Y8
G1 F1500 X102.951 Y37.218 E101.07522
M204 S3000
M205 X10 Y10
G0 F3000 X102.661 Y37.72
M204 S1800
M205 X8 Y8
G1 F1500 X113.726 Y48.785 E101.80387
G1 X113.796 Y48.855
M204 S3000
M205 X10 Y10
G0 F3000 X114.807 Y50.659
M204 S1800
M205 X8 Y8
G1 F1500 X102.371 Y38.222 E102.62283
M204 S3000
M205 X10 Y10
G0 F3000 X102.081 Y38.724
M204 S1800
M205 X8 Y8
G1 F1500 X115.889 Y52.533 E103.53215
G1 X115.959 Y52.603
M204 S3000
M205 X10 Y10
G0 F3000 X116.971 Y54.406
M204 S1800
M205 X8 Y8
G1 F1500 X101.791 Y39.226 E104.53178
M204 S3000
M205 X10 Y10
G0 F3000 X101.501 Y39.728
M204 S1800
M205 X8 Y8
G1 F1500 X118.053 Y56.28 E105.62175
G1 X118.123 Y56.35
M204 S3000
M205 X10 Y10
G0 F3000 X119.135 Y58.154
M204 S1800
M205 X8 Y8
G1 F1500 X101.211 Y40.23 E106.80208
M204 S3000
M205 X10 Y10
G0 F3000 X100.921 Y40.732
M204 S1800
M205 X8 Y8
G1 F1500 X120.217 Y60.028 E108.07275
G1 X120.287 Y60.098
M204 S3000
M205 X10 Y10
G0 F3000 X121.299 Y61.902
M204 S1800
M205 X8 Y8
G1 F1500 X100.631 Y41.234 E109.43378
M204 S3000
M205 X10 Y10
G0 F3000 X100.341 Y41.736
M204 S1800
M205 X8 Y8
G1 F1500 X122.381 Y63.776 E110.88515
G1 X122.451 Y63.846
M204 S3000
M205 X10 Y10
G0 F3000 X123.462 Y65.649
M204 S1800
M205 X8 Y8
G1 F1500 X100.052 Y42.239 E112.42674
M204 S3000
M205 X10 Y10
G0 F3000 X99.762 Y42.741
M204 S1800
M205 X8 Y8
G1 F1500 X124.544 Y67.523 E114.05867
G1 X124.614 Y67.593
M204 S3000
M205 X10 Y10
G0 F3000 X125.626 Y69.397
M204 S1800
M205 X8 Y8
G1 F1500 X99.472 Y43.243 E115.78096
M204 S3000
M205 X10 Y10
G0 F3000 X99.182 Y43.745
M204 S1800
M205 X8 Y8
G1 F1500 X126.708 Y71.271 E117.59359
G1 X126.778 Y71.341
M204 S3000
M205 X10 Y10
G0 F3000 X127.79 Y73.145
M204 S1800
M205 X8 Y8
G1 F1500 X98.892 Y44.247 E119.49658
M204 S3000
M205 X10 Y10
G0 F3000 X98.602 Y44.749
M204 S1800
M205 X8 Y8
G1 F1500 X128.872 Y75.019 E121.48991
G1 X128.942 Y75.089
M204 S3000
M205 X10 Y10
G0 F3000 X129.954 Y76.892
M204 S1800
M205 X8 Y8
G1 F1500 X98.312 Y45.251 E123.57355
M204 S3000
M205 X10 Y10
G0 F3000 X98.022 Y45.753
M204 S1800
M205 X8 Y8
G1 F1500 X131.036 Y78.766 E125.74755
G1 X131.106 Y78.836
M204 S3000
M205 X10 Y10
G0 F3000 X132.117 Y80.64
M204 S1800
M205 X8 Y8
G1 F1500 X97.732 Y46.255 E128.01186
M204 S3000
M205 X10 Y10
G0 F3000 X97.442 Y46.757
M204 S1800
M205 X8 Y8
G1 F1500 X133.199 Y82.514 E130.36652
G1 X133.269 Y82.584
M204 S3000
M205 X10 Y10
G0 F3000 X134.281 Y84.388
M204 S1800
M205 X8 Y8
G1 F1500 X97.153 Y47.26 E132.81146
M204 S3000
M205 X10 Y10
G0 F3000 X96.863 Y47.762
M204 S1800
M205 X8 Y8
G1 F1500 X135.363 Y86.262 E135.34675
G1 X135.433 Y86.332
M204 S3000
M205 X10 Y10
G0 F3000 X136.445 Y88.135
M204 S1800
M205 X8 Y8
G1 F1500 X96.573 Y48.264 E137.97236
M204 S3000
M205 X10 Y10
G0 F3000 X96.283 Y48.766
M204 S1800
M205 X8 Y8
G1 F1500 X137.527 Y90.009 E140.68831
G1 X137.597 Y90.079
M204 S3000
M205 X10 Y10
G0 F3000 X138.609 Y91.883
M204 S1800
M205 X8 Y8
G1 F1500 X95.993 Y49.268 E143.49462
M204 S3000
M205 X10 Y10
G0 F3000 X95.704 Y49.77
M204 S1800
M205 X8 Y8
G1 F1500 X139.691 Y93.757 E146.39124
G1 X139.761 Y93.827
M204 S3000
M205 X10 Y10
G0 F3000 X140.772 Y95.631
M204 S1800
M205 X8 Y8
G1 F1500 X95.414 Y50.272 E149.37817
M204 S3000
M205 X10 Y10
G0 F3000 X95.124 Y50.774
M204 S1800
M205 X8 Y8
G1 F1500 X141.854 Y97.505 E152.45545
G1 X141.924 Y97.575
M204 S3000
M205 X10 Y10
G0 F3000 X142.936 Y99.378
M204 S1800
M205 X8 Y8
G1 F1500 X94.834 Y51.276 E155.62305
M204 S3000
M205 X10 Y10
G0 F3000 X94.544 Y51.778
M204 S1800
M205 X8 Y8
G1 F1500 X142.554 Y99.789 E158.78463
M204 S3000
M205 X10 Y10
G0 F3000 X141.762 Y99.789
M204 S1800
M205 X8 Y8
G1 F1500 X94.254 Y52.28 E161.91314
M204 S3000
M205 X10 Y10
G0 F3000 X93.964 Y52.782
M204 S1800
M205 X8 Y8
G1 F1500 X140.97 Y99.789 E165.0086
M204 S3000
M205 X10 Y10
G0 F3000 X140.178 Y99.789
M204 S1800
M205 X8 Y8
G1 F1500 X93.674 Y53.284 E168.071
M204 S3000
M205 X10 Y10
G0 F3000 X93.384 Y53.786
M204 S1800
M205 X8 Y8
G1 F1500 X139.387 Y99.789 E171.10038
M204 S3000
M205 X10 Y10
G0 F3000 X138.595 Y99.789
M204 S1800
M205 X8 Y8
G1 F1500 X93.094 Y54.288 E174.0967
M204 S3000
M205 X10 Y10
G0 F3000 X92.804 Y54.79
M204 S1800
M205 X8 Y8
G1 F1500 X137.803 Y99.789 E177.05996
M204 S3000
M205 X10 Y10
G0 F3000 X137.011 Y99.789
M204 S1800
M205 X8 Y8
G1 F1500 X92.515 Y55.292 E179.99013
M204 S3000
M205 X10 Y10
G0 F3000 X92.225 Y55.794
M204 S1800
M205 X8 Y8
G1 F1500 X136.219 Y99.789 E182.88724
M204 S3000
M205 X10 Y10
G0 F3000 X135.427 Y99.789
M204 S1800
M205 X8 Y8
G1 F1500 X91.935 Y56.297 E185.75126
M204 S3000
M205 X10 Y10
G0 F3000 X91.645 Y56.799
M204 S1800
M205 X8 Y8
G1 F1500 X134.635 Y99.789 E188.58223
M204 S3000
M205 X10 Y10
G0 F3000 X133.843 Y99.789
M204 S1800
M205 X8 Y8
G1 F1500 X91.355 Y57.301 E191.38014
M204 S3000
M205 X10 Y10
G0 F3000 X91.065 Y57.803
M204 S1800
M205 X8 Y8
G1 F1500 X133.051 Y99.789 E194.14499
M204 S3000
M205 X10 Y10
G0 F3000 X132.259 Y99.789
M204 S1800
M205 X8 Y8
G1 F1500 X90.775 Y58.305 E196.87678
M204 S3000
M205 X10 Y10
G0 F3000 X90.486 Y58.807
M204 S1800
M205 X8 Y8
G1 F1500 X131.467 Y99.789 E199.57548
M204 S3000
M205 X10 Y10
G0 F3000 X130.675 Y99.789
M204 S1800
M205 X8 Y8
G1 F1500 X90.196 Y59.309 E202.24112
M204 S3000
M205 X10 Y10
G0 F3000 X89.906 Y59.812
M204 S1800
M205 X8 Y8
G1 F1500 X129.883 Y99.789 E204.87368
M204 S3000
M205 X10 Y10
G0 F3000 X129.091 Y99.789
M204 S1800
M205 X8 Y8
G1 F1500 X89.616 Y60.314 E207.47317
M204 S3000
M205 X10 Y10
G0 F3000 X89.326 Y60.816
M204 S1800
M205 X8 Y8
G1 F1500 X128.299 Y99.789 E210.03961
M204 S3000
M205 X10 Y10
G0 F3000 X127.507 Y99.789
M204 S1800
M205 X8 Y8
G1 F1500 X89.036 Y61.318 E212.57299
M204 S3000
M205 X10 Y10
G0 F3000 X88.746 Y61.82
M204 S1800
M205 X8 Y8
G1 F1500 X126.715 Y99.789 E215.07332
M204 S3000
M205 X10 Y10
G0 F3000 X125.923 Y99.789
M204 S1800
M205 X8 Y8
G1 F1500 X88.456 Y62.322 E217.54058
M204 S3000
M205 X10 Y10
G0 F3000 X88.167 Y62.824
M204 S1800
M205 X8 Y8
G1 F1500 X125.131 Y99.789 E219.97476
M204 S3000
M205 X10 Y10
G0 F3000 X124.339 Y99.789
M204 S1800
M205 X8 Y8
G1 F1500 X87.877 Y63.326 E222.37588
M204 S3000
M205 X10 Y10
G0 F3000 X87.587 Y63.828
M204 S1800
M205 X8 Y8
G1 F1500 X123.547 Y99.789 E224.74394
M204 S3000
M205 X10 Y10
G0 F3000 X122.755 Y99.789
M204 S1800
M205 X8 Y8
G1 F1500 X87.297 Y64.33 E227.07894
M204 S3000
M205 X10 Y10
G0 F3000 X87.007 Y64.832
M204 S1800
M205 X8 Y8
G1 F1500 X121.963 Y99.789 E229.38088
M204 S3000
M205 X10 Y10
G0 F3000 X121.171 Y99.789
M204 S1800
M205 X8 Y8
G1 F1500 X86.717 Y65.334 E231.64977
M204 S3000
M205 X10 Y10
G0 F3000 X86.427 Y65.836
M204 S1800
M205 X8 Y8
G1 F1500 X120.379 Y99.789 E233.8856
M204 S3000
M205 X10 Y10
G0 F3000 X119.588 Y99.789
M204 S1800
M205 X8 Y8
G1 F1500 X86.137 Y66.338 E236.08841
M204 S3000
M205 X10 Y10
G0 F3000 X85.847 Y66.84
M204 S1800
M205 X8 Y8
G1 F1500 X118.796 Y99.789 E238.25816
M204 S3000
M205 X10 Y10
G0 F3000 X118.004 Y99.789
M204 S1800
M205 X8 Y8
G1 F1500 X85.557 Y67.342 E240.39485
M204 S3000
M205 X10 Y10
G0 F3000 X85.267 Y67.844
M204 S1800
M205 X8 Y8
G1 F1500 X117.212 Y99.789 E242.49848
M204 S3000
M205 X10 Y10
G0 F3000 X116.42 Y99.789
M204 S1800
M205 X8 Y8
