;FLAVOR:Marlin
;TIME:2338
;Filament used: 2.27917m
;Layer height: 0.2
;MINX:83.573
;MINY:83.715
;MINZ:0.2
;MAXX:126.432
;MAXY:126.289
;MAXZ:15
;Generated with Cura_SteamEngine 4.11.0
M140 S60
M105
M190 S60
M104 S200
M105
M109 S200
M82 ;absolute extrusion mode
G21 ;metric values
G90 ;absolute positioning
M82 ;set extruder to absolute mode
M107 ;start with the fan off
G28 X0 Y0 ;move X/Y to min endstops
G28 Z0 ;move Z to min endstops
G1 Z15.0 F100 ;move the platform down 15mm
G92 E0 ;zero the extruded length
G1 F200 E3 ;extrude 3mm of feed stock
G92 E0 ;zero the extruded length again
G1 F100
G0 Y20 F100
M117 Printing...
G5
G92 E0
G92 E0
G1 F2400 E-6
;LAYER_COUNT:75
;LAYER:0
M107
M204 S3000
M205 X10 Y10
G1 F600 Z0.275
G0 F3000 X89.805 Y89.888 Z0.275
M204 S1800
M205 X8 Y8
;TYPE:SKIRT
G1 F600 Z0.2
G1 F2400 E0
G1 X90.289 Y89.415 E0.03151
G1 X90.947 Y88.821 E0.07279
G1 X91.463 Y88.39 E0.1041
G1 X91.602 Y88.278 E0.11241
G1 X92.07 Y87.911 E0.1401
G1 X92.313 Y87.729 E0.15424
G1 X92.796 Y87.386 E0.18182
G1 X93.302 Y87.046 E0.21021
G1 X93.451 Y86.95 E0.21846
G1 X93.929 Y86.651 E0.24472
G1 X94.387 Y86.382 E0.26945
G1 X94.846 Y86.13 E0.29383
G1 X95.446 Y85.82 E0.32528
G1 X95.638 Y85.725 E0.33525
G1 X96.12 Y85.496 E0.3601
G1 X96.819 Y85.196 E0.39552
G1 X97.293 Y85.009 E0.41925
G1 X97.542 Y84.918 E0.43159
G1 X98.633 Y84.545 E0.48528
G1 X99.053 Y84.417 E0.50573
G1 X99.825 Y84.211 E0.54293
G1 X100.042 Y84.157 E0.55334
G1 X100.708 Y84.004 E0.58516
G1 X101.326 Y83.884 E0.61448
G1 X101.793 Y83.805 E0.63653
G1 X102.86 Y83.715 E0.68639
G1 X103.534 Y83.715 E0.71778
G1 X104.936 Y83.734 E0.78307
G1 X105.716 Y83.722 E0.81939
G1 X107.093 Y83.715 E0.88351
G1 X107.808 Y83.751 E0.91684
G1 X108.184 Y83.803 E0.93452
G1 X108.709 Y83.891 E0.95931
G1 X108.963 Y83.939 E0.97134
G1 X109.646 Y84.082 E1.00384
G1 X110.189 Y84.211 E1.02982
G1 X110.339 Y84.249 E1.03703
G1 X110.87 Y84.392 E1.06264
G1 X111.404 Y84.551 E1.08858
G1 X111.968 Y84.737 E1.11623
G1 X112.469 Y84.916 E1.14101
G1 X112.651 Y84.984 E1.15005
G1 X113.192 Y85.196 E1.17711
G1 X113.898 Y85.505 E1.213
G1 X114.058 Y85.58 E1.22122
G1 X114.56 Y85.823 E1.24719
G1 X114.745 Y85.917 E1.25686
G1 X115.333 Y86.227 E1.28781
G1 X115.695 Y86.431 E1.30716
G1 X116.138 Y86.693 E1.33112
G1 X116.657 Y87.02 E1.35969
G1 X117.249 Y87.415 E1.39282
G1 X117.802 Y87.812 E1.42452
G1 X118.48 Y88.343 E1.46462
G1 X119.372 Y89.112 E1.51946
G1 X119.811 Y89.516 E1.54724
G1 X120.294 Y89.994 E1.57889
G1 X120.738 Y90.457 E1.60876
G1 X120.948 Y90.687 E1.62326
G1 X121.282 Y91.071 E1.64696
G1 X121.702 Y91.577 E1.67758
G1 X121.815 Y91.718 E1.68599
G1 X122.162 Y92.165 E1.71234
G1 X122.521 Y92.663 E1.74093
G1 X122.619 Y92.806 E1.749
G1 X123.076 Y93.493 E1.78742
G1 X123.426 Y94.057 E1.81833
G1 X123.73 Y94.586 E1.84674
G1 X123.997 Y95.082 E1.87297
G1 X124.154 Y95.396 E1.88931
G1 X124.511 Y96.139 E1.9277
G1 X124.668 Y96.488 E1.94552
G1 X124.874 Y96.976 E1.97018
G1 X125.1 Y97.569 E1.99973
G1 X125.464 Y98.659 E2.05324
G1 X125.628 Y99.201 E2.07961
G1 X125.786 Y99.793 E2.10814
G1 X125.917 Y100.34 E2.13433
G1 X126.059 Y101.018 E2.16659
G1 X126.15 Y101.531 E2.19085
G1 X126.224 Y102.02 E2.21388
G1 X126.309 Y102.693 E2.24546
G1 X126.368 Y103.28 E2.27293
G1 X126.402 Y103.791 E2.29678
G1 X126.427 Y104.379 E2.32419
G1 X126.432 Y104.749 E2.34142
G1 X126.419 Y105.596 E2.38086
G1 X126.394 Y106.236 E2.41068
G1 X126.327 Y107.096 E2.45085
G1 X126.305 Y107.302 E2.4605
G1 X126.225 Y107.949 E2.49085
G1 X126.129 Y108.575 E2.52034
G1 X126.083 Y108.833 E2.53255
G1 X125.936 Y109.566 E2.56736
G1 X125.807 Y110.126 E2.59412
G1 X125.653 Y110.712 E2.62233
G1 X125.462 Y111.363 E2.65392
G1 X125.271 Y111.95 E2.68267
G1 X125.131 Y112.345 E2.70218
G1 X124.886 Y112.99 E2.73431
G1 X124.769 Y113.276 E2.7487
G1 X124.55 Y113.778 E2.7742
G1 X124.268 Y114.38 E2.80515
G1 X123.963 Y114.98 E2.83649
G1 X123.716 Y115.437 E2.86068
G1 X123.411 Y115.967 E2.88916
G1 X123.119 Y116.44 E2.91504
G1 X122.764 Y116.985 E2.94533
G1 X122.453 Y117.434 E2.97076
G1 X122.116 Y117.89 E2.99716
G1 X121.754 Y118.356 E3.02464
G1 X121.322 Y118.884 E3.05641
G1 X121.024 Y119.227 E3.07756
G1 X120.56 Y119.735 E3.1096
G1 X120.228 Y120.077 E3.13179
G1 X119.726 Y120.57 E3.16456
G1 X119.297 Y120.967 E3.19177
G1 X118.824 Y121.379 E3.22098
G1 X118.246 Y121.848 E3.25564
G1 X118.109 Y121.954 E3.26371
G1 X117.593 Y122.34 E3.29371
G1 X117.148 Y122.657 E3.31915
G1 X116.587 Y123.029 E3.3505
G1 X116.008 Y123.387 E3.3822
G1 X115.547 Y123.653 E3.40698
G1 X114.952 Y123.98 E3.43859
G1 X114.681 Y124.121 E3.45282
G1 X114.143 Y124.384 E3.4807
G1 X113.606 Y124.628 E3.50817
G1 X113.026 Y124.871 E3.53745
G1 X112.515 Y125.067 E3.56294
G1 X111.94 Y125.272 E3.59136
G1 X111.453 Y125.432 E3.61523
G1 X111.219 Y125.502 E3.6266
G1 X110.556 Y125.687 E3.65865
G1 X109.949 Y125.847 E3.68788
G1 X109.242 Y126.007 E3.72164
G1 X108.723 Y126.105 E3.74623
G1 X108.162 Y126.198 E3.77271
G1 X107.098 Y126.279 E3.8224
G1 X105.913 Y126.271 E3.87758
G1 X104.357 Y126.289 E3.95004
G1 X104.17 Y126.281 E3.95875
G1 X102.939 Y126.286 E4.01607
G1 X102.225 Y126.249 E4.04936
G1 X101.82 Y126.192 E4.06841
G1 X101.022 Y126.054 E4.10612
G1 X100.347 Y125.916 E4.1382
G1 X99.737 Y125.769 E4.16742
G1 X99.551 Y125.721 E4.17636
G1 X98.917 Y125.548 E4.20696
G1 X98.221 Y125.33 E4.24092
G1 X98.049 Y125.271 E4.24939
G1 X97.402 Y125.039 E4.2814
G1 X96.907 Y124.843 E4.30619
G1 X96.282 Y124.575 E4.33785
G1 X95.789 Y124.349 E4.3631
G1 X95.429 Y124.172 E4.38178
G1 X94.69 Y123.786 E4.42061
G1 X93.9 Y123.333 E4.46301
G1 X93.426 Y123.039 E4.48898
G1 X92.978 Y122.742 E4.51401
G1 X92.475 Y122.388 E4.54265
G1 X91.891 Y121.952 E4.57659
G1 X91.48 Y121.628 E4.60096
G1 X91.072 Y121.284 E4.62581
G1 X90.574 Y120.842 E4.65681
G1 X90.434 Y120.714 E4.66565
G1 X90.005 Y120.31 E4.69309
G1 X89.501 Y119.799 E4.72651
G1 X89.1 Y119.367 E4.75395
G1 X88.966 Y119.217 E4.76332
G1 X88.616 Y118.813 E4.78821
G1 X88.218 Y118.33 E4.81735
G1 X87.909 Y117.929 E4.84092
G1 X87.536 Y117.42 E4.87031
G1 X87.298 Y117.072 E4.88994
G1 X86.737 Y116.19 E4.93861
G1 X86.615 Y115.99 E4.94952
G1 X86.246 Y115.36 E4.98352
G1 X86.068 Y115.035 E5.00077
G1 X85.775 Y114.461 E5.03078
G1 X85.499 Y113.882 E5.06065
G1 X85.246 Y113.302 E5.09011
G1 X85.031 Y112.772 E5.11675
G1 X84.837 Y112.256 E5.14241
G1 X84.635 Y111.67 E5.17128
G1 X84.495 Y111.224 E5.19304
G1 X84.292 Y110.522 E5.22707
G1 X84.214 Y110.227 E5.24128
G1 X84.088 Y109.698 E5.2666
G1 X83.977 Y109.164 E5.292
G1 X83.888 Y108.664 E5.31565
G1 X83.857 Y108.47 E5.32479
G1 X83.762 Y107.822 E5.35529
G1 X83.737 Y107.637 E5.36398
G1 X83.665 Y107.021 E5.39286
G1 X83.607 Y106.281 E5.42742
G1 X83.583 Y105.679 E5.45548
G1 X83.573 Y105.039 E5.48528
G1 X83.573 Y104.842 E5.49446
G1 X83.587 Y104.023 E5.5326
G1 X83.622 Y103.374 E5.56286
G1 X83.687 Y102.703 E5.59425
G1 X83.768 Y102.069 E5.62401
G1 X83.886 Y101.313 E5.65964
G1 X83.969 Y100.866 E5.68081
G1 X84.071 Y100.376 E5.70412
G1 X84.215 Y99.766 E5.7333
G1 X84.379 Y99.158 E5.76263
G1 X84.617 Y98.389 E5.80011
G1 X84.683 Y98.195 E5.80965
G1 X84.897 Y97.592 E5.83945
G1 X84.969 Y97.397 E5.84912
G1 X85.185 Y96.846 E5.87668
G1 X85.301 Y96.571 E5.89058
G1 X85.601 Y95.904 E5.92464
G1 X85.843 Y95.398 E5.95075
G1 X86.064 Y94.968 E5.97327
G1 X86.363 Y94.424 E6.00217
G1 X86.707 Y93.84 E6.03373
G1 X86.857 Y93.598 E6.04699
G1 X87.321 Y92.891 E6.08637
G1 X87.819 Y92.194 E6.12625
G1 X87.926 Y92.053 E6.1345
G1 X88.248 Y91.638 E6.15896
G1 X88.374 Y91.48 E6.16837
G1 X88.739 Y91.039 E6.19502
G1 X89.282 Y90.43 E6.23301
G1 X89.428 Y90.275 E6.24293
G1 X89.805 Y89.888 E6.26809
M204 S3000
M205 X10 Y10
G0 F3000 X90.206 Y90.279
M204 S1800
M205 X8 Y8
G1 F2400 X90.678 Y89.818 E6.29881
G1 X91.316 Y89.242 E6.33883
G1 X91.82 Y88.821 E6.36941
G1 X91.947 Y88.718 E6.37703
G1 X92.415 Y88.351 E6.40472
G1 X92.638 Y88.185 E6.41766
G1 X93.121 Y87.842 E6.44525
G1 X93.612 Y87.512 E6.4728
G1 X94.226 Y87.126 E6.50657
G1 X94.659 Y86.871 E6.52997
G1 X95.103 Y86.628 E6.55353
G1 X95.703 Y86.318 E6.58498
G1 X95.878 Y86.231 E6.59408
G1 X96.36 Y86.002 E6.61893
G1 X97.035 Y85.712 E6.65314
G1 X97.723 Y85.448 E6.68745
G1 X98.814 Y85.075 E6.74114
G1 X99.197 Y84.958 E6.75979
G1 X99.969 Y84.752 E6.79699
G1 X100.167 Y84.703 E6.80649
G1 X100.833 Y84.55 E6.83831
G1 X101.419 Y84.436 E6.86611
G1 X101.886 Y84.357 E6.88816
G1 X102.86 Y84.275 E6.93368
G1 X103.534 Y84.275 E6.96506
G1 X104.938 Y84.294 E7.03044
G1 X105.719 Y84.282 E7.06681
G1 X107.096 Y84.275 E7.13093
G1 X108.091 Y84.355 E7.17742
G1 X108.616 Y84.443 E7.2022
G1 X108.848 Y84.487 E7.2132
G1 X109.531 Y84.63 E7.24569
G1 X110.056 Y84.755 E7.27082
G1 X110.194 Y84.79 E7.27745
G1 X110.725 Y84.933 E7.30306
G1 X111.231 Y85.083 E7.32763
G1 X111.78 Y85.264 E7.35455
G1 X112.281 Y85.443 E7.37932
G1 X112.447 Y85.506 E7.38759
G1 X112.988 Y85.718 E7.41465
G1 X113.668 Y86.016 E7.44922
G1 X113.814 Y86.084 E7.45672
G1 X114.316 Y86.327 E7.48269
G1 X114.485 Y86.413 E7.49152
G1 X115.06 Y86.716 E7.52178
G1 X115.41 Y86.913 E7.54048
G1 X115.853 Y87.175 E7.56445
G1 X116.346 Y87.486 E7.59159
G1 X116.938 Y87.881 E7.62473
G1 X117.471 Y88.264 E7.65529
G1 X118.114 Y88.767 E7.6933
G1 X119.006 Y89.536 E7.74814
G1 X119.419 Y89.915 E7.77424
G1 X119.89 Y90.382 E7.80513
G1 X120.334 Y90.845 E7.835
G1 X120.525 Y91.054 E7.84818
G1 X120.859 Y91.438 E7.87188
G1 X121.269 Y91.933 E7.90181
G1 X121.372 Y92.062 E7.9095
G1 X121.719 Y92.509 E7.93585
G1 X122.063 Y92.986 E7.96323
G1 X122.152 Y93.116 E7.97057
G1 X122.609 Y93.803 E8.00899
G1 X122.941 Y94.337 E8.03827
G1 X123.239 Y94.854 E8.06605
G1 X123.497 Y95.333 E8.09139
G1 X123.649 Y95.639 E8.1073
G1 X124.059 Y96.494 E8.15145
G1 X124.152 Y96.706 E8.16223
G1 X124.406 Y97.31 E8.19274
G1 X124.569 Y97.746 E8.21441
G1 X124.933 Y98.836 E8.26792
G1 X125.086 Y99.345 E8.29267
G1 X125.244 Y99.937 E8.3212
G1 X125.372 Y100.469 E8.34668
G1 X125.507 Y101.116 E8.37746
G1 X125.598 Y101.629 E8.40172
G1 X125.668 Y102.09 E8.42343
G1 X125.753 Y102.763 E8.45502
G1 X125.809 Y103.322 E8.48118
G1 X125.843 Y103.815 E8.50419
G1 X125.868 Y104.403 E8.53159
G1 X125.872 Y104.741 E8.54733
G1 X125.859 Y105.588 E8.58678
G1 X125.834 Y106.212 E8.61586
G1 X125.769 Y107.046 E8.65481
G1 X125.749 Y107.234 E8.66361
G1 X125.669 Y107.881 E8.69397
G1 X125.576 Y108.487 E8.72252
G1 X125.534 Y108.723 E8.73368
G1 X125.387 Y109.456 E8.76849
G1 X125.264 Y109.987 E8.79387
G1 X125.115 Y110.557 E8.8213
G1 X124.929 Y111.192 E8.85211
G1 X124.743 Y111.765 E8.88017
G1 X124.607 Y112.146 E8.899
G1 X124.362 Y112.791 E8.93113
G1 X124.256 Y113.052 E8.94425
G1 X123.977 Y113.688 E8.97659
G1 X123.549 Y114.563 E9.02194
G1 X123.471 Y114.714 E9.02986
G1 X123.224 Y115.171 E9.05405
G1 X122.927 Y115.684 E9.08165
G1 X122.649 Y116.134 E9.10628
G1 X122.294 Y116.679 E9.13657
G1 X122 Y117.104 E9.16063
G1 X121.674 Y117.547 E9.18624
G1 X121.312 Y118.013 E9.21372
G1 X120.89 Y118.528 E9.24472
G1 X120.61 Y118.85 E9.26459
G1 X120.146 Y119.358 E9.29663
G1 X119.835 Y119.678 E9.3174
G1 X119.343 Y120.161 E9.34951
G1 X118.928 Y120.546 E9.37587
G1 X118.466 Y120.949 E9.40442
G1 X117.899 Y121.409 E9.43841
G1 X117.257 Y121.891 E9.47579
G1 X116.825 Y122.199 E9.5005
G1 X116.291 Y122.554 E9.53036
G1 X115.726 Y122.903 E9.56128
G1 X115.278 Y123.162 E9.58538
G1 X114.683 Y123.489 E9.61699
G1 X114.435 Y123.618 E9.63001
G1 X113.897 Y123.881 E9.65789
G1 X113.388 Y124.112 E9.68392
G1 X112.822 Y124.349 E9.71249
G1 X112.327 Y124.54 E9.7372
G1 X111.752 Y124.745 E9.76562
G1 X111.069 Y124.963 E9.79901
G1 X110.414 Y125.145 E9.83066
G1 X109.807 Y125.305 E9.85989
G1 X109.126 Y125.459 E9.8924
G1 X108.622 Y125.555 E9.91629
G1 X108.073 Y125.645 E9.9422
G1 X107.102 Y125.719 E9.98754
G1 X105.91 Y125.71 E10.04305
G1 X104.35 Y125.729 E10.1157
G1 X104.171 Y125.721 E10.12404
G1 X102.937 Y125.726 E10.1815
G1 X102.254 Y125.689 E10.21335
G1 X101.916 Y125.641 E10.22925
G1 X101.118 Y125.503 E10.26696
G1 X100.478 Y125.371 E10.29738
G1 X99.868 Y125.224 E10.3266
G1 X99.699 Y125.181 E10.33472
G1 X99.065 Y125.008 E10.36532
G1 X98.393 Y124.797 E10.39812
G1 X98.237 Y124.744 E10.40579
G1 X97.751 Y124.571 E10.42981
G1 X97.126 Y124.328 E10.46104
G1 X96.515 Y124.066 E10.49199
G1 X96.022 Y123.84 E10.51725
G1 X95.687 Y123.676 E10.53462
G1 X95.074 Y123.357 E10.56679
G1 X94.564 Y123.075 E10.59393
G1 X94.055 Y122.772 E10.62151
G1 X93.577 Y122.469 E10.64786
G1 X93.153 Y122.182 E10.67171
G1 X92.682 Y121.845 E10.69867
G1 X92.118 Y121.421 E10.73153
G1 X91.58 Y120.982 E10.76386
G1 X91.443 Y120.865 E10.77225
G1 X90.945 Y120.423 E10.80326
G1 X90.818 Y120.307 E10.81127
G1 X90.389 Y119.903 E10.83871
G1 X89.904 Y119.41 E10.87091
G1 X89.512 Y118.987 E10.89776
G1 X89.389 Y118.85 E10.90633
G1 X89.039 Y118.446 E10.93122
G1 X88.659 Y117.985 E10.95904
G1 X88.36 Y117.598 E10.98182
G1 X87.987 Y117.089 E11.0112
G1 X87.77 Y116.771 E11.02913
G1 X87.209 Y115.889 E11.0778
G1 X87.098 Y115.707 E11.08773
G1 X86.729 Y115.077 E11.12172
G1 X86.566 Y114.78 E11.1375
G1 X86.273 Y114.206 E11.16751
G1 X86.006 Y113.644 E11.19648
G1 X85.765 Y113.091 E11.22457
G1 X85.498 Y112.429 E11.25781
G1 X85.367 Y112.073 E11.27547
G1 X85.165 Y111.487 E11.30433
G1 X85.033 Y111.068 E11.32479
G1 X84.83 Y110.366 E11.35881
G1 X84.759 Y110.097 E11.37177
G1 X84.596 Y109.405 E11.40487
G1 X84.528 Y109.065 E11.42102
G1 X84.439 Y108.565 E11.44467
G1 X84.411 Y108.389 E11.45297
G1 X84.293 Y107.572 E11.4914
G1 X84.221 Y106.956 E11.52028
G1 X84.166 Y106.243 E11.55358
G1 X84.143 Y105.67 E11.58028
G1 X84.133 Y105.03 E11.61009
G1 X84.133 Y104.85 E11.61847
G1 X84.143 Y104.193 E11.64907
G1 X84.18 Y103.426 E11.68482
G1 X84.242 Y102.772 E11.71541
G1 X84.321 Y102.154 E11.74442
G1 X84.412 Y101.563 E11.77227
G1 X84.518 Y100.98 E11.79986
G1 X84.653 Y100.338 E11.83041
G1 X84.876 Y99.462 E11.8725
G1 X85.021 Y98.966 E11.89656
G1 X85.21 Y98.383 E11.9251
G1 X85.424 Y97.78 E11.95489
G1 X85.491 Y97.602 E11.96375
G1 X85.707 Y97.051 E11.99131
G1 X85.812 Y96.8 E12.00398
G1 X86.043 Y96.283 E12.03034
G1 X86.107 Y96.145 E12.03743
G1 X86.349 Y95.639 E12.06354
G1 X86.555 Y95.238 E12.08454
G1 X86.854 Y94.694 E12.11344
G1 X87.188 Y94.126 E12.14412
G1 X87.326 Y93.906 E12.15622
G1 X87.875 Y93.072 E12.20271
G1 X88.27 Y92.525 E12.23413
G1 X88.69 Y91.981 E12.26613
G1 X88.805 Y91.837 E12.27471
G1 X89.17 Y91.396 E12.30137
G1 X89.696 Y90.807 E12.33814
G1 X89.829 Y90.666 E12.34716
G1 X90.206 Y90.279 E12.37232
M204 S3000
M205 X10 Y10
G0 F3000 X90.607 Y90.67
M204 S1800
M205 X8 Y8
G1 F2400 X91.068 Y90.22 E12.40232
G1 X91.686 Y89.663 E12.44106
G1 X92.178 Y89.252 E12.47091
G1 X92.293 Y89.159 E12.47779
G1 X92.761 Y88.792 E12.50549
G1 X92.962 Y88.642 E12.51717
G1 X93.445 Y88.299 E12.54475
G1 X93.922 Y87.979 E12.5715
G1 X94.523 Y87.601 E12.60456
G1 X95.222 Y87.199 E12.6421
G1 X95.36 Y87.125 E12.6494
G1 X95.96 Y86.815 E12.68084
G1 X96.118 Y86.737 E12.68905
G1 X96.6 Y86.508 E12.7139
G1 X97.252 Y86.229 E12.74692
G1 X97.904 Y85.978 E12.77945
G1 X98.995 Y85.605 E12.83314
G1 X99.342 Y85.499 E12.85003
G1 X100.114 Y85.293 E12.88724
G1 X100.293 Y85.249 E12.89582
G1 X100.959 Y85.096 E12.92764
G1 X101.512 Y84.988 E12.95388
G1 X101.979 Y84.909 E12.97593
G1 X102.86 Y84.835 E13.0171
G1 X103.605 Y84.835 E13.05179
G1 X104.973 Y84.853 E13.1155
G1 X105.722 Y84.842 E13.15038
G1 X107.099 Y84.835 E13.2145
G1 X107.999 Y84.908 E13.25654
G1 X108.524 Y84.996 E13.28133
G1 X108.733 Y85.035 E13.29123
G1 X109.416 Y85.178 E13.32372
G1 X109.924 Y85.299 E13.34804
G1 X110.579 Y85.474 E13.37961
G1 X111.45 Y85.744 E13.42207
G1 X111.591 Y85.792 E13.429
G1 X112.092 Y85.971 E13.45378
G1 X112.242 Y86.027 E13.46123
G1 X112.783 Y86.239 E13.48829
G1 X113.438 Y86.527 E13.52161
G1 X113.571 Y86.589 E13.52844
G1 X114.073 Y86.832 E13.55441
G1 X114.225 Y86.908 E13.56232
G1 X114.788 Y87.205 E13.59196
G1 X115.125 Y87.395 E13.60998
G1 X115.568 Y87.657 E13.63394
G1 X116.036 Y87.952 E13.6597
G1 X116.628 Y88.347 E13.69284
G1 X117.141 Y88.716 E13.72227
G1 X117.749 Y89.191 E13.75819
G1 X118.641 Y89.96 E13.81303
G1 X119.026 Y90.314 E13.83739
G1 X119.486 Y90.769 E13.86751
G1 X119.93 Y91.232 E13.89738
G1 X120.103 Y91.422 E13.90935
G1 X120.437 Y91.806 E13.93305
G1 X120.837 Y92.289 E13.96225
G1 X120.93 Y92.405 E13.96917
G1 X121.277 Y92.852 E13.99552
G1 X121.605 Y93.309 E14.02172
G1 X121.686 Y93.427 E14.02838
