;FLAVOR:Marlin
;TIME:254
;Filament used: 0.159993m
;Layer height: 0.2
;MINX:63.629
;MINY:96.226
;MINZ:0.2
;MAXX:134.327
;MAXY:125.867
;MAXZ:3.8
;Generated with Cura_SteamEngine 4.11.0
M140 S60
M105
M190 S60
M104 S200
M105
M109 S200
M82 ;absolute extrusion mode
G21 ;metric values
G90 ;absolute positioning
M82 ;set extruder to absolute mode
M107 ;start with the fan off
G28 X0 Y0 ;move X/Y to min endstops
G28 Z0 ;move Z to min endstops
G1 Z15.0 F100 ;move the platform down 15mm
G92 E0 ;zero the extruded length
G1 F200 E3 ;extrude 3mm of feed stock
G92 E0 ;zero the extruded length again
G1 F100
G0 Y20 F100
M117 Printing...
G5
G92 E0
G92 E0
G1 F2400 E-6
;LAYER_COUNT:20
;LAYER:0
M107
M204 S3000
M205 X10 Y10
G1 F600 Z0.275
G0 F3000 X80.842 Y97.701 Z0.275
M204 S1800
M205 X8 Y8
;TYPE:SKIRT
G1 F600 Z0.2
G1 F2400 E0
G1 X81.315 Y97.31 E0.02858
G1 X81.786 Y96.972 E0.05557
G1 X82.299 Y96.703 E0.08254
G1 X82.974 Y96.472 E0.11576
G1 X83.467 Y96.349 E0.13942
G1 X84.038 Y96.248 E0.16642
G1 X84.617 Y96.226 E0.1934
G1 X85.193 Y96.284 E0.22036
G1 X85.756 Y96.421 E0.24734
G1 X86.173 Y96.586 E0.26822
G1 X86.476 Y96.66 E0.28275
G1 X87.014 Y96.874 E0.30971
G1 X87.643 Y97.225 E0.34325
G1 X88.122 Y97.551 E0.37023
G1 X88.552 Y97.94 E0.39723
G1 X89.065 Y98.51 E0.43294
G1 X89.22 Y98.715 E0.4449
G1 X89.684 Y98.635 E0.46683
G1 X90.122 Y98.614 E0.48725
G1 X93.691 Y98.629 E0.65344
G1 X94.268 Y98.671 E0.68037
G1 X94.835 Y98.793 E0.70738
G1 X95.365 Y98.985 E0.73363
G1 X95.44 Y99.018 E0.73744
G1 X95.952 Y99.287 E0.76437
G1 X96.423 Y99.624 E0.79134
G1 X96.849 Y100.029 E0.81871
G1 X97.556 Y100.803 E0.86753
G1 X97.916 Y101.257 E0.89451
G1 X98.211 Y101.756 E0.9215
G1 X98.434 Y102.291 E0.94849
G1 X98.558 Y102.764 E0.97126
G1 X98.691 Y102.416 E0.9886
G1 X99.045 Y101.641 E1.02828
G1 X99.257 Y101.236 E1.04956
G1 X99.596 Y100.667 E1.0804
G1 X100.058 Y100.034 E1.11689
G1 X100.081 Y100.008 E1.11851
G1 X100.583 Y99.528 E1.15085
G1 X100.82 Y99.336 E1.16506
G1 X101.294 Y99.003 E1.19203
G1 X101.81 Y98.738 E1.21904
G1 X102.467 Y98.519 E1.25129
G1 X102.557 Y98.497 E1.2556
G1 X103.128 Y98.399 E1.28258
G1 X103.707 Y98.38 E1.30955
G1 X104.283 Y98.441 E1.33652
G1 X104.836 Y98.572 E1.36299
G1 X105.384 Y98.758 E1.38993
G1 X106.092 Y99.137 E1.42733
G1 X106.152 Y99.177 E1.43069
G1 X106.61 Y99.531 E1.45764
G1 X107.016 Y99.945 E1.48464
G1 X107.458 Y100.534 E1.51893
G1 X107.51 Y100.62 E1.52361
G1 X108.157 Y100.576 E1.55381
G1 X117.168 Y100.797 E1.97352
G1 X117.95 Y100.888 E2.01018
G1 X119.719 Y101.261 E2.09436
G1 X120.276 Y101.42 E2.12134
G1 X120.806 Y101.653 E2.1483
G1 X121.299 Y101.957 E2.17526
G1 X121.745 Y102.327 E2.20225
G1 X122.137 Y102.754 E2.22924
G1 X122.466 Y103.231 E2.25622
G1 X122.726 Y103.748 E2.28317
G1 X122.912 Y104.297 E2.31016
G1 X123.021 Y104.866 E2.33714
G1 X123.05 Y105.51 E2.36715
G1 X123.039 Y105.843 E2.38267
G1 X122.98 Y106.419 E2.40963
G1 X122.842 Y106.982 E2.43662
G1 X122.628 Y107.52 E2.46358
G1 X122.342 Y108.024 E2.49056
G1 X121.99 Y108.484 E2.51754
G1 X121.577 Y108.89 E2.5445
G1 X121.113 Y109.237 E2.57148
G1 X120.605 Y109.516 E2.59847
G1 X120.064 Y109.722 E2.62543
G1 X119.431 Y109.862 E2.65561
G1 X117.563 Y110.127 E2.74347
G1 X116.811 Y110.166 E2.77853
G1 X107.518 Y109.807 E3.21157
G1 X106.942 Y109.745 E3.23855
G1 X106.38 Y109.604 E3.26553
G1 X105.843 Y109.387 E3.2925
G1 X105.652 Y109.277 E3.30276
G1 X104.942 Y109.51 E3.33756
G1 X104.235 Y109.647 E3.37109
G1 X104.197 Y109.651 E3.37287
G1 X103.44 Y109.662 E3.40812
G1 X102.872 Y109.619 E3.43465
G1 X102.259 Y109.527 E3.46351
G1 X101.735 Y109.408 E3.48853
G1 X101.37 Y109.307 E3.50617
G1 X100.72 Y109.039 E3.5389
G1 X100.487 Y108.919 E3.55111
G1 X99.991 Y108.619 E3.5781
G1 X99.542 Y108.253 E3.60507
G1 X99.147 Y107.829 E3.63206
G1 X98.846 Y107.408 E3.65615
G1 X98.788 Y107.315 E3.66126
G1 X98.516 Y106.803 E3.68825
G1 X98.317 Y106.259 E3.71523
G1 X98.195 Y105.693 E3.74219
G1 X98.181 Y105.533 E3.74967
G1 X97.864 Y106.108 E3.78024
G1 X97.526 Y106.578 E3.8072
G1 X97.126 Y106.997 E3.83417
G1 X96.672 Y107.357 E3.86115
G1 X96.173 Y107.651 E3.88812
G1 X95.638 Y107.873 E3.91509
G1 X95.078 Y108.02 E3.94205
G1 X94.502 Y108.089 E3.96906
G1 X93.923 Y108.078 E3.99603
G1 X93.115 Y107.925 E4.03432
G1 X92.178 Y107.651 E4.07978
G1 X91.171 Y107.719 E4.12678
G1 X90.592 Y107.719 E4.15374
G1 X90.049 Y107.644 E4.17926
G1 X89.995 Y107.633 E4.18183
G1 X89.436 Y107.479 E4.20883
G1 X88.979 Y107.287 E4.23191
G1 X88.178 Y106.893 E4.27347
G1 X87.677 Y106.602 E4.30045
G1 X87.221 Y106.245 E4.32742
G1 X87.039 Y106.057 E4.3396
G1 X86.651 Y106.178 E4.35853
G1 X86.08 Y106.274 E4.38549
G1 X85.724 Y106.284 E4.40207
G1 X85.341 Y106.38 E4.42046
G1 X84.77 Y106.481 E4.44746
G1 X84.191 Y106.503 E4.47444
G1 X83.615 Y106.445 E4.5014
G1 X83.052 Y106.308 E4.52838
G1 X82.635 Y106.143 E4.54926
G1 X82.332 Y106.069 E4.56378
G1 X81.794 Y105.855 E4.59074
G1 X81.165 Y105.504 E4.62428
G1 X80.686 Y105.178 E4.65126
G1 X80.256 Y104.789 E4.67826
G1 X79.884 Y104.345 E4.70523
G1 X79.577 Y103.854 E4.7322
G1 X79.34 Y103.325 E4.75919
G1 X79.179 Y102.769 E4.78614
G1 X79.097 Y102.216 E4.81217
G1 X79.062 Y101.784 E4.83236
G1 X79.055 Y101.205 E4.85932
G1 X79.128 Y100.63 E4.88631
G1 X79.279 Y100.071 E4.91327
G1 X79.541 Y99.471 E4.94376
G1 X79.811 Y98.964 E4.9705
G1 X80.118 Y98.472 E4.99751
G1 X80.489 Y98.028 E5.02445
G1 X80.842 Y97.701 E5.04686
M204 S3000
M205 X10 Y10
G0 F3000 X81.199 Y98.132
M204 S1800
M205 X8 Y8
G1 F2400 X81.672 Y97.741 E5.07543
G1 X82.112 Y97.43 E5.10052
G1 X82.593 Y97.186 E5.12564
G1 X83.11 Y97.015 E5.15099
G1 X83.603 Y96.892 E5.17465
G1 X84.134 Y96.801 E5.19974
G1 X84.673 Y96.789 E5.22484
G1 X85.208 Y96.857 E5.24995
G1 X85.727 Y97.003 E5.27506
G1 X85.927 Y97.095 E5.28531
G1 X86.446 Y97.242 E5.31043
G1 X87.034 Y97.518 E5.34067
G1 X87.361 Y97.709 E5.35831
G1 X87.805 Y98.015 E5.38342
G1 X88.199 Y98.383 E5.40852
G1 X88.668 Y98.907 E5.44127
G1 X88.987 Y99.342 E5.46638
G1 X89.012 Y99.342 E5.46755
G1 X89.537 Y99.218 E5.49267
G1 X90.119 Y99.174 E5.51984
G1 X93.688 Y99.189 E5.68603
G1 X94.226 Y99.231 E5.71116
G1 X94.751 Y99.352 E5.73625
G1 X95.214 Y99.53 E5.75935
G1 X95.69 Y99.783 E5.78445
G1 X96.124 Y100.104 E5.80958
G1 X96.436 Y100.407 E5.82983
G1 X97.143 Y101.181 E5.87865
G1 X97.476 Y101.605 E5.90375
G1 X97.743 Y102.074 E5.92888
G1 X97.937 Y102.577 E5.95398
G1 X98.056 Y103.103 E5.9791
G1 X98.095 Y103.64 E6.00417
G1 X98.054 Y104.178 E6.02929
G1 X97.935 Y104.704 E6.0544
G1 X97.739 Y105.206 E6.0795
G1 X97.388 Y105.812 E6.11211
G1 X97.071 Y106.248 E6.13721
G1 X96.693 Y106.633 E6.16233
G1 X96.262 Y106.957 E6.18744
G1 X95.788 Y107.214 E6.21254
G1 X95.281 Y107.398 E6.23766
G1 X94.752 Y107.505 E6.26279
G1 X94.214 Y107.533 E6.28788
G1 X93.677 Y107.481 E6.313
G1 X93.273 Y107.387 E6.33231
G1 X92.243 Y107.086 E6.38228
G1 X91.133 Y107.161 E6.43408
G1 X90.594 Y107.157 E6.45918
G1 X90.106 Y107.085 E6.48215
G1 X89.587 Y106.938 E6.50727
G1 X89.226 Y106.784 E6.52554
G1 X88.425 Y106.39 E6.56711
G1 X87.96 Y106.117 E6.59222
G1 X87.541 Y105.778 E6.61731
G1 X87.191 Y105.397 E6.64141
G1 X86.754 Y105.57 E6.66329
G1 X86.228 Y105.691 E6.68842
G1 X85.691 Y105.734 E6.71351
G1 X85.205 Y105.837 E6.73664
G1 X84.674 Y105.928 E6.76173
G1 X84.135 Y105.94 E6.78683
G1 X83.6 Y105.872 E6.81194
G1 X83.081 Y105.726 E6.83705
G1 X82.881 Y105.634 E6.8473
G1 X82.362 Y105.487 E6.87242
G1 X81.774 Y105.211 E6.90266
G1 X81.447 Y105.02 E6.9203
G1 X81.003 Y104.714 E6.9454
G1 X80.609 Y104.346 E6.97051
G1 X80.273 Y103.924 E6.99563
G1 X80.004 Y103.457 E7.02072
G1 X79.806 Y102.955 E7.04585
G1 X79.655 Y102.171 E7.08303
G1 X79.62 Y101.739 E7.10321
G1 X79.616 Y101.2 E7.12831
G1 X79.692 Y100.666 E7.15342
G1 X79.847 Y100.149 E7.17856
G1 X80.035 Y99.734 E7.19977
G1 X80.305 Y99.227 E7.22652
G1 X80.593 Y98.771 E7.25163
G1 X80.945 Y98.363 E7.27672
G1 X81.199 Y98.132 E7.29271
M204 S3000
M205 X10 Y10
G0 F3000 X81.556 Y98.564
M204 S1800
M205 X8 Y8
G1 F2400 X82.029 Y98.173 E7.32129
G1 X82.435 Y97.889 E7.34436
G1 X82.882 Y97.674 E7.36745
G1 X83.245 Y97.559 E7.38518
G1 X83.738 Y97.436 E7.40884
G1 X84.228 Y97.355 E7.43197
G1 X84.724 Y97.353 E7.45507
G1 X85.214 Y97.432 E7.47818
G1 X85.809 Y97.65 E7.50768
G1 X86.402 Y97.826 E7.53649
G1 X87.078 Y98.192 E7.57228
G1 X87.485 Y98.476 E7.59539
G1 X87.975 Y99.002 E7.62886
G1 X88.268 Y99.301 E7.64836
G1 X88.554 Y99.707 E7.67148
G1 X88.73 Y100.069 E7.69023
G1 X88.975 Y99.948 E7.70295
G1 X89.45 Y99.804 E7.72606
G1 X90.117 Y99.734 E7.75729
G1 X93.686 Y99.749 E7.92348
G1 X94.18 Y99.791 E7.94656
G1 X94.913 Y100.01 E7.98219
G1 X95.425 Y100.278 E8.0091
G1 X96.022 Y100.785 E8.04557
G1 X96.729 Y101.559 E8.09438
G1 X97.033 Y101.951 E8.11748
G1 X97.27 Y102.386 E8.14055
G1 X97.434 Y102.854 E8.16364
G1 X97.521 Y103.343 E8.18676
G1 X97.528 Y103.839 E8.20986
G1 X97.456 Y104.329 E8.23292
G1 X97.306 Y104.802 E8.25603
G1 X97.073 Y105.259 E8.27992
G1 X96.618 Y105.916 E8.31713
G1 X96.263 Y106.263 E8.34024
G1 X95.858 Y106.548 E8.3633
G1 X95.411 Y106.765 E8.38644
G1 X94.936 Y106.907 E8.40953
G1 X94.444 Y106.97 E8.43262
G1 X93.948 Y106.954 E8.45573
G1 X93.43 Y106.85 E8.48033
G1 X92.303 Y106.52 E8.53501
G1 X91.095 Y106.602 E8.59139
G1 X90.6 Y106.596 E8.61444
G1 X90.218 Y106.536 E8.63245
G1 X89.474 Y106.282 E8.66906
G1 X88.673 Y105.888 E8.71062
G1 X88.247 Y105.634 E8.73372
G1 X87.867 Y105.315 E8.75682
G1 X87.543 Y104.939 E8.77993
G1 X87.369 Y104.654 E8.79548
G1 X86.793 Y104.963 E8.82592
G1 X86.318 Y105.106 E8.84901
G1 X85.826 Y105.17 E8.87212
G1 X85.563 Y105.17 E8.88436
G1 X85.07 Y105.293 E8.90802
G1 X84.58 Y105.374 E8.93115
G1 X84.084 Y105.376 E8.95425
G1 X83.594 Y105.297 E8.97736
G1 X82.999 Y105.079 E9.00686
G1 X82.406 Y104.903 E9.03567
G1 X81.73 Y104.537 E9.07146
G1 X81.323 Y104.253 E9.09457
G1 X80.967 Y103.907 E9.11769
G1 X80.671 Y103.509 E9.14078
G1 X80.443 Y103.069 E9.16386
G1 X80.288 Y102.597 E9.18699
G1 X80.178 Y101.694 E9.22935
G1 X80.178 Y101.198 E9.25245
G1 X80.257 Y100.708 E9.27556
G1 X80.529 Y99.997 E9.311
G1 X80.799 Y99.49 E9.33775
G1 X81.067 Y99.073 E9.36083
G1 X81.556 Y98.564 E9.3937
M204 S3000
M205 X10 Y10
G0 F3000 X81.912 Y98.996
M204 S1800
M205 X8 Y8
G1 F2400 X82.385 Y98.605 E9.42228
G1 X82.755 Y98.351 E9.44317
G1 X83.381 Y98.102 E9.47454
G1 X83.874 Y97.979 E9.4982
G1 X84.317 Y97.91 E9.51908
G1 X84.766 Y97.92 E9.53999
G1 X85.205 Y98.009 E9.56085
G1 X85.601 Y98.181 E9.58095
G1 X85.922 Y98.247 E9.59621
G1 X86.469 Y98.485 E9.62399
G1 X87.162 Y98.936 E9.66249
G1 X87.55 Y99.367 E9.68949
G1 X87.865 Y99.693 E9.7106
G1 X88.114 Y100.066 E9.73149
G1 X88.293 Y100.477 E9.75236
G1 X88.399 Y100.971 E9.77589
G1 X88.62 Y100.777 E9.78958
G1 X89.005 Y100.546 E9.81049
G1 X89.424 Y100.387 E9.83135
G1 X90.115 Y100.294 E9.86382
G1 X93.684 Y100.309 E10.03001
G1 X94.13 Y100.351 E10.05087
G1 X94.688 Y100.522 E10.07804
G1 X95.156 Y100.772 E10.10275
G1 X95.609 Y101.162 E10.13058
G1 X96.316 Y101.936 E10.1794
G1 X96.587 Y102.293 E10.20027
G1 X96.792 Y102.693 E10.2212
G1 X96.922 Y103.122 E10.24207
G1 X96.974 Y103.567 E10.26293
G1 X96.946 Y104.015 E10.28383
G1 X96.84 Y104.451 E10.30473
G1 X96.597 Y104.964 E10.33116
G1 X96.167 Y105.581 E10.36618
G1 X95.839 Y105.886 E10.38703
G1 X95.461 Y106.128 E10.40793
G1 X95.046 Y106.299 E10.42883
G1 X94.608 Y106.394 E10.4497
G1 X94.16 Y106.41 E10.47058
G1 X93.587 Y106.313 E10.49764
G1 X92.362 Y105.955 E10.55706
G1 X91.058 Y106.043 E10.61792
G1 X90.384 Y105.998 E10.64938
G1 X90.33 Y105.987 E10.65194
G1 X89.721 Y105.779 E10.68191
G1 X88.92 Y105.385 E10.72347
G1 X88.536 Y105.152 E10.74439
G1 X88.201 Y104.855 E10.76524
G1 X87.923 Y104.503 E10.78612
G1 X87.712 Y104.107 E10.80702
G1 X87.587 Y103.719 E10.826
G1 X87.15 Y104.135 E10.85409
G1 X86.765 Y104.365 E10.87497
G1 X86.345 Y104.522 E10.89585
G1 X85.904 Y104.603 E10.91673
G1 X85.427 Y104.627 E10.93897
G1 X84.934 Y104.75 E10.96263
G1 X84.491 Y104.819 E10.98351
G1 X84.042 Y104.809 E11.00442
G1 X83.603 Y104.72 E11.02528
G1 X83.207 Y104.548 E11.04538
G1 X82.886 Y104.482 E11.06064
G1 X82.339 Y104.244 E11.08842
G1 X81.646 Y103.793 E11.12692
G1 X81.333 Y103.473 E11.14776
G1 X81.081 Y103.102 E11.16864
G1 X80.898 Y102.692 E11.18955
G1 X80.771 Y102.08 E11.21866
G1 X80.74 Y101.2 E11.25966
G1 X80.823 Y100.759 E11.28055
G1 X81.024 Y100.26 E11.3056
G1 X81.294 Y99.753 E11.33235
G1 X81.539 Y99.378 E11.35321
G1 X81.912 Y98.996 E11.37807
M204 S3000
M205 X10 Y10
G0 F3000 X82.269 Y99.427
M204 S1800
M205 X8 Y8
G1 F2400 X82.742 Y99.036 E11.40664
G1 X83.071 Y98.816 E11.42507
G1 X83.517 Y98.645 E11.44732
G1 X84.01 Y98.522 E11.47098
G1 X84.401 Y98.466 E11.48937
G1 X84.796 Y98.489 E11.50779
G1 X85.178 Y98.591 E11.5262
G1 X85.512 Y98.726 E11.54298
G1 X85.894 Y98.829 E11.5614
G1 X86.514 Y99.16 E11.59413
G1 X86.833 Y99.392 E11.61249
G1 X87.187 Y99.793 E11.6374
G1 X87.458 Y100.081 E11.65581
G1 X87.665 Y100.418 E11.67423
G1 X87.801 Y100.789 E11.69263
G1 X87.86 Y101.18 E11.71104
G1 X87.839 Y101.575 E11.72946
G1 X87.637 Y102.302 E11.7646
G1 X87.451 Y102.917 E11.79451
G1 X87.25 Y103.257 E11.81291
G1 X86.984 Y103.55 E11.83133
G1 X86.665 Y103.784 E11.84975
G1 X86.305 Y103.949 E11.86819
G1 X85.92 Y104.038 E11.88659
G1 X85.429 Y104.031 E11.90946
G1 X85.291 Y104.084 E11.91634
G1 X84.798 Y104.207 E11.94
G1 X84.407 Y104.263 E11.9584
G1 X84.012 Y104.24 E11.97682
G1 X83.63 Y104.138 E11.99523
G1 X83.296 Y104.003 E12.012
G1 X82.914 Y103.9 E12.03043
G1 X82.294 Y103.569 E12.06315
G1 X81.975 Y103.337 E12.08152
G1 X81.708 Y103.044 E12.09998
G1 X81.506 Y102.704 E12.11839
G1 X81.376 Y102.331 E12.13679
G1 X81.294 Y101.603 E12.1709
G1 X81.302 Y101.208 E12.1893
G1 X81.39 Y100.822 E12.20773
G1 X81.518 Y100.524 E12.22283
G1 X81.788 Y100.017 E12.24958
G1 X82.008 Y99.688 E12.26801
G1 X82.269 Y99.427 E12.2852
M204 S3000
M205 X10 Y10
G0 F3000 X82.626 Y99.859
M204 S1800
M205 X8 Y8
G1 F2400 X83.099 Y99.468 E12.31377
G1 X83.38 Y99.287 E12.32934
G1 X83.652 Y99.189 E12.3428
G1 X84.145 Y99.066 E12.36646
G1 X84.477 Y99.024 E12.38204
G1 X84.808 Y99.062 E12.39756
G1 X85.288 Y99.272 E12.42195
G1 X85.524 Y99.3 E12.43302
G1 X85.904 Y99.452 E12.45208
G1 X86.497 Y99.845 E12.4852
G1 X87.044 Y100.463 E12.52363
G1 X87.203 Y100.757 E12.5392
G1 X87.289 Y101.08 E12.55476
G1 X87.295 Y101.414 E12.57031
G1 X87.098 Y102.146 E12.60561
G1 X86.92 Y102.728 E12.63395
G1 X86.734 Y103.006 E12.64953
G1 X86.488 Y103.232 E12.66508
G1 X86.195 Y103.393 E12.68065
G1 X85.873 Y103.48 E12.69618
G1 X85.539 Y103.488 E12.71174
G1 X85.391 Y103.455 E12.7188
G1 X85.156 Y103.54 E12.73043
G1 X84.663 Y103.663 E12.75409
G1 X84.331 Y103.705 E12.76968
G1 X84 Y103.667 E12.78519
G1 X83.52 Y103.457 E12.80959
G1 X83.284 Y103.429 E12.82065
G1 X82.904 Y103.277 E12.83971
G1 X82.311 Y102.884 E12.87284
G1 X82.1 Y102.625 E12.88839
G1 X81.956 Y102.323 E12.90397
G1 X81.853 Y101.558 E12.93991
G1 X81.866 Y101.224 E12.95548
G1 X82.012 Y100.787 E12.97693
G1 X82.282 Y100.28 E13.00368
G1 X82.473 Y100.006 E13.01923
G1 X82.626 Y99.859 E13.02911
M204 S3000
M205 X10 Y10
G0 F3000 X82.983 Y100.291
M204 S1800
M205 X8 Y8
G1 F2400 X83.456 Y99.9 E13.05769
G1 X83.788 Y99.732 E13.07501
G1 X84.281 Y99.609 E13.09867
G1 X84.538 Y99.586 E13.11069
G1 X84.908 Y99.699 E13.1287
G1 X85.138 Y99.833 E13.1411
G1 X85.253 Y99.823 E13.14647
G1 X85.622 Y99.936 E13.16444
G1 X86.149 Y100.29 E13.194
G1 X86.309 Y100.514 E13.20682
G1 X86.619 Y100.836 E13.22764
G1 X86.718 Y101.075 E13.23968
G1 X86.74 Y101.332 E13.25169
G1 X86.705 Y101.519 E13.26055
G1 X86.557 Y102.002 E13.28407
G1 X86.392 Y102.526 E13.30965
G1 X86.227 Y102.724 E13.32166
G1 X86.009 Y102.863 E13.33369
G1 X85.759 Y102.929 E13.34573
G1 X85.501 Y102.916 E13.35776
G1 X85.316 Y102.847 E13.36696
G1 X85.02 Y102.997 E13.38241
G1 X84.527 Y103.12 E13.40607
G1 X84.27 Y103.143 E13.41808
G1 X83.9 Y103.03 E13.4361
G1 X83.67 Y102.896 E13.44849
G1 X83.555 Y102.906 E13.45387
G1 X83.186 Y102.793 E13.47184
G1 X82.659 Y102.439 E13.5014
G1 X82.517 Y102.223 E13.51344
G1 X82.446 Y101.945 E13.5268
G1 X82.43 Y101.255 E13.55893
G1 X82.507 Y101.05 E13.56913
G1 X82.777 Y100.543 E13.59588
G1 X82.983 Y100.291 E13.61103
M204 S3000
M205 X10 Y10
G0 F3000 X83.34 Y100.722
M204 S1800
M205 X8 Y8
G1 F2400 X83.813 Y100.331 E13.63961
G1 X83.923 Y100.275 E13.64536
G1 X84.416 Y100.152 E13.66902
G1 X84.625 Y100.182 E13.67885
G1 X85 Y100.422 E13.69958
