;FLAVOR:Marlin
;TIME:6005
;Filament used: 2.93517m
;Layer height: 0.2
;MINX:86.869
;MINY:39.496
;MINZ:0.2
;MAXX:160.452
;MAXY:113.081
;MAXZ:38.2
;Generated with Cura_SteamEngine 4.11.0
M140 S60
M105
M190 S60
M104 S200
M105
M109 S200
M82 ;absolute extrusion mode
G21 ;metric values
G90 ;absolute positioning
M82 ;set extruder to absolute mode
M107 ;start with the fan off
G28 X0 Y0 ;move X/Y to min endstops
G28 Z0 ;move Z to min endstops
G1 Z15.0 F100 ;move the platform down 15mm
G92 E0 ;zero the extruded length
G1 F200 E3 ;extrude 3mm of feed stock
G92 E0 ;zero the extruded length again
G1 F100
G0 Y20 F100
M117 Printing...
G5
G92 E0
G92 E0
G1 F2400 E-6
;LAYER_COUNT:200
;LAYER:0
M107
M204 S3000
M205 X10 Y10
G1 F600 Z0.275
G0 F3000 X87.53 Y47.293 Z0.275
M204 S1800
M205 X8 Y8
;TYPE:SKIRT
G1 F600 Z0.2
G1 F2400 E0
G1 X87.882 Y46.67 E0.03332
G1 X88.301 Y46.091 E0.0666
G1 X88.842 Y45.491 E0.10422
G1 X88.974 Y45.356 E0.11301
G1 X92.284 Y42.044 E0.33104
G1 X92.553 Y41.777 E0.34869
G1 X93.034 Y41.309 E0.37994
G1 X93.574 Y40.84 E0.41325
G1 X94.162 Y40.433 E0.44655
G1 X94.793 Y40.095 E0.47988
G1 X95.457 Y39.83 E0.51317
G1 X96.147 Y39.64 E0.54649
G1 X96.853 Y39.528 E0.57978
G1 X97.568 Y39.496 E0.6131
G1 X98.281 Y39.544 E0.64638
G1 X98.985 Y39.671 E0.67969
G1 X99.67 Y39.876 E0.71298
G1 X100.328 Y40.156 E0.74628
G1 X100.951 Y40.508 E0.7796
G1 X101.531 Y40.927 E0.81292
G1 X102.07 Y41.41 E0.84662
G1 X102.216 Y41.552 E0.8561
G1 X158.126 Y97.46 E4.53781
G1 X158.638 Y97.986 E4.57199
G1 X159.108 Y98.526 E4.60532
G1 X159.514 Y99.114 E4.63859
G1 X159.852 Y99.745 E4.67193
G1 X160.118 Y100.409 E4.70523
G1 X160.308 Y101.098 E4.73851
G1 X160.419 Y101.805 E4.77184
G1 X160.452 Y102.519 E4.80512
G1 X160.404 Y103.233 E4.83844
G1 X160.277 Y103.937 E4.87175
G1 X160.072 Y104.622 E4.90505
G1 X159.792 Y105.28 E4.93834
G1 X159.44 Y105.903 E4.97166
G1 X159.022 Y106.483 E5.00495
G1 X158.488 Y107.075 E5.04208
G1 X158.367 Y107.201 E5.05021
G1 X157.877 Y107.695 E5.08261
G1 X157.161 Y108.407 E5.12963
G1 X155.565 Y110.004 E5.23476
G1 X155.002 Y110.569 E5.2719
G1 X154.293 Y111.261 E5.31804
G1 X153.754 Y111.731 E5.35134
G1 X153.166 Y112.138 E5.38463
G1 X152.536 Y112.477 E5.41795
G1 X151.873 Y112.744 E5.45123
G1 X151.183 Y112.935 E5.48457
G1 X150.477 Y113.048 E5.51786
G1 X149.762 Y113.081 E5.55119
G1 X149.049 Y113.034 E5.58446
G1 X148.345 Y112.908 E5.61776
G1 X147.659 Y112.704 E5.65109
G1 X147 Y112.425 E5.68441
G1 X146.377 Y112.074 E5.71771
G1 X145.797 Y111.656 E5.751
G1 X145.191 Y111.11 E5.78898
G1 X145.061 Y110.983 E5.79744
G1 X89.183 Y55.103 E9.47717
G1 X88.682 Y54.588 E9.51062
G1 X88.212 Y54.048 E9.54396
G1 X87.806 Y53.459 E9.57727
G1 X87.468 Y52.829 E9.61056
G1 X87.203 Y52.165 E9.64385
G1 X87.013 Y51.475 E9.67718
G1 X86.901 Y50.768 E9.71051
G1 X86.869 Y50.054 E9.74379
G1 X86.917 Y49.34 E9.77711
G1 X87.045 Y48.636 E9.81043
G1 X87.25 Y47.951 E9.84372
G1 X87.53 Y47.293 E9.87702
M204 S3000
M205 X10 Y10
G0 F3000 X88.189 Y47.243
M204 S1800
M205 X8 Y8
G1 F2400 X88.561 Y46.67 E9.90883
G1 X89.019 Y46.119 E9.94219
G1 X89.369 Y45.751 E9.96584
G1 X92.943 Y42.178 E10.20116
G1 X93.424 Y41.71 E10.23241
G1 X93.941 Y41.263 E10.26424
G1 X94.507 Y40.88 E10.29606
G1 X95.113 Y40.565 E10.32786
G1 X95.752 Y40.323 E10.35968
G1 X96.415 Y40.157 E10.3915
G1 X97.092 Y40.07 E10.42329
G1 X97.775 Y40.063 E10.45509
G1 X98.455 Y40.135 E10.48693
G1 X99.121 Y40.286 E10.51873
G1 X99.765 Y40.514 E10.55054
G1 X100.378 Y40.816 E10.58236
G1 X100.952 Y41.187 E10.61419
G1 X101.493 Y41.637 E10.64695
G1 X101.82 Y41.948 E10.66797
G1 X157.725 Y97.851 E14.34934
G1 X158.237 Y98.377 E14.38352
G1 X158.684 Y98.893 E14.41531
G1 X159.068 Y99.458 E14.44712
G1 X159.383 Y100.065 E14.47896
G1 X159.625 Y100.704 E14.51078
G1 X159.791 Y101.366 E14.54256
G1 X159.878 Y102.044 E14.57439
G1 X159.885 Y102.727 E14.6062
G1 X159.813 Y103.407 E14.63804
G1 X159.662 Y104.073 E14.66983
G1 X159.434 Y104.717 E14.70165
G1 X159.132 Y105.33 E14.73347
G1 X158.761 Y105.904 E14.76529
G1 X158.31 Y106.447 E14.79816
G1 X157.969 Y106.807 E14.82125
G1 X157.482 Y107.298 E14.85345
G1 X155.156 Y109.622 E15.00655
G1 X154.674 Y110.106 E15.03836
G1 X153.902 Y110.86 E15.08861
G1 X153.386 Y111.308 E15.12043
G1 X152.821 Y111.693 E15.15227
G1 X152.215 Y112.008 E15.18407
G1 X151.577 Y112.251 E15.21586
G1 X150.914 Y112.418 E15.24769
G1 X150.237 Y112.506 E15.27948
G1 X149.554 Y112.515 E15.31129
G1 X148.874 Y112.443 E15.34313
G1 X148.208 Y112.293 E15.37492
G1 X147.563 Y112.066 E15.40676
G1 X146.95 Y111.765 E15.43856
G1 X146.376 Y111.395 E15.47036
G1 X145.812 Y110.926 E15.50451
G1 X145.457 Y110.587 E15.52737
G1 X89.584 Y54.712 E19.20677
G1 X89.083 Y54.197 E19.24022
G1 X88.636 Y53.68 E19.27205
G1 X88.253 Y53.115 E19.30383
G1 X87.938 Y52.509 E19.33563
G1 X87.696 Y51.87 E19.36745
G1 X87.53 Y51.207 E19.39928
G1 X87.443 Y50.529 E19.4311
G1 X87.436 Y49.846 E19.46291
G1 X87.508 Y49.167 E19.4947
G1 X87.66 Y48.5 E19.52656
G1 X87.888 Y47.856 E19.55837
G1 X88.189 Y47.243 E19.59017
M204 S3000
M205 X10 Y10
G0 F3000 X88.537 Y47.783
M204 S1800
M205 X8 Y8
G1 F2400 X88.86 Y47.22 E19.62039
G1 X89.427 Y46.503 E19.66296
G1 X89.765 Y46.147 E19.68582
G1 X93.299 Y42.614 E19.9185
G1 X93.815 Y42.112 E19.95202
G1 X94.308 Y41.688 E19.9823
G1 X94.848 Y41.328 E20.01252
G1 X95.429 Y41.038 E20.04276
G1 X96.042 Y40.821 E20.07304
G1 X96.676 Y40.68 E20.10328
G1 X97.323 Y40.619 E20.13354
G1 X97.972 Y40.637 E20.16377
G1 X98.614 Y40.736 E20.19402
G1 X99.239 Y40.912 E20.22426
G1 X99.838 Y41.163 E20.2545
G1 X100.402 Y41.487 E20.28479
G1 X101.11 Y42.045 E20.32676
G1 X101.424 Y42.344 E20.34695
G1 X157.324 Y98.241 E24.02796
G1 X157.836 Y98.767 E24.06214
G1 X158.259 Y99.26 E24.09239
G1 X158.619 Y99.8 E24.12261
G1 X158.91 Y100.381 E24.15287
G1 X159.127 Y100.994 E24.18315
G1 X159.268 Y101.628 E24.21339
G1 X159.329 Y102.274 E24.2436
G1 X159.311 Y102.924 E24.27388
G1 X159.213 Y103.566 E24.30412
G1 X159.037 Y104.191 E24.33436
G1 X158.785 Y104.79 E24.36462
G1 X158.462 Y105.354 E24.39488
G1 X157.902 Y106.064 E24.43699
G1 X157.572 Y106.412 E24.45932
G1 X157.087 Y106.901 E24.49139
G1 X154.76 Y109.226 E24.64456
G1 X154.277 Y109.711 E24.67643
G1 X153.511 Y110.46 E24.72632
G1 X153.019 Y110.884 E24.75656
G1 X152.479 Y111.244 E24.78678
G1 X151.898 Y111.536 E24.81706
G1 X151.286 Y111.754 E24.84731
G1 X150.652 Y111.895 E24.87755
G1 X150.006 Y111.958 E24.90778
G1 X149.356 Y111.94 E24.93806
G1 X148.714 Y111.843 E24.96829
G1 X148.088 Y111.668 E24.99856
G1 X147.489 Y111.417 E25.0288
G1 X146.925 Y111.095 E25.05904
G1 X146.197 Y110.519 E25.10227
G1 X145.853 Y110.191 E25.1244
G1 X89.985 Y54.322 E28.80343
G1 X89.484 Y53.807 E28.83689
G1 X89.061 Y53.314 E28.86714
G1 X88.701 Y52.773 E28.8974
G1 X88.411 Y52.192 E28.92763
G1 X88.193 Y51.58 E28.95788
G1 X88.053 Y50.946 E28.98812
G1 X87.992 Y50.299 E29.01838
G1 X88.01 Y49.65 E29.04861
G1 X88.109 Y49.007 E29.0789
G1 X88.285 Y48.382 E29.10914
G1 X88.537 Y47.783 E29.1394
M204 S3000
M205 X10 Y10
G0 F3000 X94.852 Y48.923
M204 S1800
M205 X8 Y8
;TYPE:SUPPORT
G1 F1500 X96.295 Y47.48 E29.23442
G1 X152.468 Y103.654 E32.93354
G1 X151.026 Y105.096 E33.0285
G1 X94.852 Y48.923 E36.72762
M204 S3000
M205 X10 Y10
G0 F3000 X96 Y49.759
M204 S1800
M205 X8 Y8
G1 F1500 X96 Y48.086 E36.80552
M204 S3000
M205 X10 Y10
G0 F3000 X99.591 Y53.351
M204 S1800
M205 X8 Y8
G1 F1500 X101.027 Y52.522 E36.88273
M204 S3000
M205 X10 Y10
G0 F3000 X104 Y55.497
M204 S1800
M205 X8 Y8
G1 F1500 X104 Y57.759 E36.98806
M204 S3000
M205 X10 Y10
G0 F3000 X105.447 Y59.208
M204 S1800
M205 X8 Y8
G1 F1500 X106.883 Y58.379 E37.06527
M204 S3000
M205 X10 Y10
G0 F3000 X109.403 Y63.164
M204 S1800
M205 X8 Y8
G1 F1500 X114.76 Y66.257 E37.35331
M204 S3000
M205 X10 Y10
G0 F3000 X112 Y65.759
M204 S1800
M205 X8 Y8
G1 F1500 X112 Y63.497 E37.45863
M204 S3000
M205 X10 Y10
G0 F3000 X112.74 Y64.235
M204 S1800
M205 X8 Y8
G1 F1500 X111.304 Y65.064 E37.53584
M204 S3000
M205 X10 Y10
G0 F3000 X117.16 Y70.921
M204 S1800
M205 X8 Y8
G1 F1500 X118.596 Y70.092 E37.61305
M204 S3000
M205 X10 Y10
G0 F3000 X120 Y71.497
M204 S1800
M205 X8 Y8
G1 F1500 X120 Y73.759 E37.71838
M204 S3000
M205 X10 Y10
G0 F3000 X123.017 Y76.777
M204 S1800
M205 X8 Y8
G1 F1500 X124.452 Y75.948 E37.79555
M204 S3000
M205 X10 Y10
G0 F3000 X128 Y79.497
M204 S1800
M205 X8 Y8
G1 F1500 X128 Y81.759 E37.90088
M204 S3000
M205 X10 Y10
G0 F3000 X128.873 Y82.633
M204 S1800
M205 X8 Y8
G1 F1500 X130.308 Y81.805 E37.97802
M204 S3000
M205 X10 Y10
G0 F3000 X131.261 Y85.021
M204 S1800
M205 X8 Y8
G1 F1500 X136.617 Y88.113 E38.26599
M204 S3000
M205 X10 Y10
G0 F3000 X136.164 Y87.662
M204 S1800
M205 X8 Y8
G1 F1500 X134.729 Y88.49 E38.34314
M204 S3000
M205 X10 Y10
G0 F3000 X136 Y87.497
M204 S1800
M205 X8 Y8
G1 F1500 X136 Y89.759 E38.44847
M204 S3000
M205 X10 Y10
G0 F3000 X140.586 Y94.346
M204 S1800
M205 X8 Y8
G1 F1500 X142.021 Y93.518 E38.52561
M204 S3000
M205 X10 Y10
G0 F3000 X144 Y95.497
M204 S1800
M205 X8 Y8
G1 F1500 X144 Y97.759 E38.63094
M204 S3000
M205 X10 Y10
G0 F3000 X146.442 Y100.203
M204 S1800
M205 X8 Y8
G1 F1500 X147.877 Y99.375 E38.70809
M204 S3000
M205 X10 Y10
G0 F3000 X152 Y103.497
M204 S1800
M205 X8 Y8
G1 F1500 X152 Y103.811 E38.72271
M204 S3000
M205 X10 Y10
G1 F2400 E32.72271
;MESH:1122334455.stl
G0 F3000 X153.204 Y102.607
G1 F2400 E38.72271
G0 F3000 X153.67 Y102.451
M204 S1800
M205 X8 Y8
;TYPE:WALL-OUTER
G1 F1500 X153.359 Y102.762 E38.74319
G1 X97.186 Y46.59 E42.44224
G1 X97.497 Y46.279 E42.46272
G1 X153.67 Y102.451 E45.36251
M204 S3000
M205 X10 Y10
G0 F3000 X153.529 Y102.592
G1 F2400 E39.36251
G0 F3000 X153.459 Y102.522
G0 X152.642 Y103.381
G0 X150.751 Y105.268
G0 X150.083 Y105.936
G1 F2400 E45.36251
G0 F3000 X150.134 Y105.987
M204 S1800
M205 X8 Y8
G1 F1500 X149.823 Y106.298 E45.38299
G1 X93.651 Y50.125 E49.08204
G1 X93.962 Y49.814 E49.10252
G1 X150.134 Y105.987 E52.00231
M204 S3000
M205 X10 Y10
G0 F3000 X149.993 Y106.128
G1 F2400 E46.00231
;MESH:NONMESH
G0 F600 X149.993 Y106.128 Z0.4
G0 F3000 X149.923 Y106.058
G0 X93.962 Y49.834
G0 X94.739 Y48.922
;TIME_ELAPSED:44.939426
;LAYER:1
M106 S127.5
M204 S1800
M205 X8 Y8
;TYPE:SUPPORT
G1 F2400 E52.00231
G1 F1650 X96.294 Y47.367 E52.07545
G1 X152.582 Y103.654 E54.72304
G1 X151.026 Y105.21 E54.79623
G1 X94.739 Y48.922 E57.44382
M204 S3000
M205 X10 Y10
G0 F4500 X96 Y47.858
M204 S1800
M205 X8 Y8
G1 F1650 X96 Y49.986 E57.5146
M204 S3000
M205 X10 Y10
G0 F4500 X99.447 Y53.435
M204 S1800
M205 X8 Y8
G1 F1650 X101.171 Y52.439 E57.58082
M204 S3000
M205 X10 Y10
G0 F4500 X104 Y55.27
M204 S1800
M205 X8 Y8
G1 F1650 X104 Y57.986 E57.67115
M204 S3000
M205 X10 Y10
G0 F4500 X105.303 Y59.291
M204 S1800
M205 X8 Y8
G1 F1650 X107.027 Y58.296 E57.73736
M204 S3000
M205 X10 Y10
G0 F4500 X108.868 Y62.855
M204 S1800
M205 X8 Y8
G1 F1650 X115.297 Y66.567 E57.98427
M204 S3000
M205 X10 Y10
G0 F4500 X112 Y65.986
M204 S1800
M205 X8 Y8
G1 F1650 X112 Y63.27 E58.07461
M204 S3000
M205 X10 Y10
G0 F4500 X112.884 Y64.152
M204 S1800
M205 X8 Y8
G1 F1650 X111.159 Y65.148 E58.14086
M204 S3000
M205 X10 Y10
G0 F4500 X117.016 Y71.004
M204 S1800
M205 X8 Y8
G1 F1650 X118.74 Y70.009 E58.20706
M204 S3000
M205 X10 Y10
G0 F4500 X120 Y71.27
M204 S1800
M205 X8 Y8
G1 F1650 X120 Y73.986 E58.2974
M204 S3000
M205 X10 Y10
G0 F4500 X122.873 Y76.86
M204 S1800
M205 X8 Y8
G1 F1650 X124.596 Y75.865 E58.36357
M204 S3000
M205 X10 Y10
G0 F4500 X128 Y79.27
M204 S1800
M205 X8 Y8
G1 F1650 X128 Y81.986 E58.45391
M204 S3000
M205 X10 Y10
G0 F4500 X128.729 Y82.717
M204 S1800
M205 X8 Y8
G1 F1650 X130.453 Y81.721 E58.52013
M204 S3000
M205 X10 Y10
G0 F4500 X130.725 Y84.712
M204 S1800
M205 X8 Y8
G1 F1650 X137.155 Y88.424 E58.76707
M204 S3000
M205 X10 Y10
G0 F4500 X136.309 Y87.578
M204 S1800
M205 X8 Y8
G1 F1650 X134.585 Y88.573 E58.83328
M204 S3000
M205 X10 Y10
G0 F4500 X136 Y87.27
M204 S1800
M205 X8 Y8
G1 F1650 X136 Y89.986 E58.92361
M204 S3000
M205 X10 Y10
G0 F4500 X140.441 Y94.43
M204 S1800
M205 X8 Y8
G1 F1650 X142.166 Y93.434 E58.98986
M204 S3000
M205 X10 Y10
G0 F4500 X144 Y95.27
M204 S1800
M205 X8 Y8
G1 F1650 X144 Y97.986 E59.0802
M204 S3000
M205 X10 Y10
G0 F4500 X146.298 Y100.286
M204 S1800
M205 X8 Y8
G1 F1650 X148.022 Y99.291 E59.1464
M204 S3000
M205 X10 Y10
G0 F4500 X152 Y103.27
M204 S1800
M205 X8 Y8
G1 F1650 X152 Y104.039 E59.17198
M204 S3000
M205 X10 Y10
G1 F2400 E53.17198
;MESH:1122334455.stl
G0 F4500 X153.261 Y102.778
G1 F2400 E59.17198
G0 F4500 X153.643 Y102.592
M204 S1800
M205 X8 Y8
;TYPE:WALL-OUTER
G1 F2250 X153.359 Y102.876 E59.18534
G1 X97.213 Y46.731 E61.82625
G1 X97.072 Y46.59 E61.83288
G1 X97.213 Y46.449 E61.83716
G1 X97.497 Y46.165 E61.85052
G1 X153.643 Y102.31 E64.49143
G1 X153.784 Y102.451 E64.49807
G1 X153.643 Y102.592 E64.50235
M204 S3000
M205 X10 Y10
G0 F4500 X153.502 Y102.733
G0 X153.297 Y102.391
M204 S1800
M205 X8 Y8
;TYPE:SKIN
G1 F1350 X153.156 Y102.249 E64.50586
G1 X147.923 Y97.017 E64.63562
G1 X144.105 Y93.198 E64.73032
G1 X138.872 Y87.966 E64.86009
G1 X135.054 Y84.147 E64.95478
G1 X129.821 Y78.915 E65.08455
G1 X126.003 Y75.096 E65.17925
G1 X120.77 Y69.864 E65.30901
G1 X116.952 Y66.045 E65.40371
G1 X111.719 Y60.813 E65.53347
G1 X107.901 Y56.994 E65.62817
G1 X102.386 Y51.479 E65.76494
G1 X97.436 Y46.529 E65.8877
M204 S3000
M205 X10 Y10
G0 F4500 X97.367 Y46.599
G1 F2400 E59.8877
G0 F4500 X153.289 Y102.806
G0 X152.678 Y103.418
G0 X150.788 Y105.304
G0 X150.177 Y105.916
G1 F2400 E65.8877
G0 F4500 X149.964 Y106.271
M204 S1800
M205 X8 Y8
;TYPE:WALL-OUTER
G1 F2250 X149.823 Y106.412 E65.89433
G1 X149.682 Y106.271 E65.89861
G1 X93.537 Y50.125 E68.53953
G1 X93.821 Y49.841 E68.55289
G1 X93.962 Y49.7 E68.55952
G1 X94.103 Y49.841 E68.5638
G1 X150.248 Y105.987 E71.20471
G1 X149.964 Y106.271 E71.21807
M204 S3000
M205 X10 Y10
G0 F4500 X149.823 Y106.412
G0 X149.762 Y105.926
M204 S1800
M205 X8 Y8
;TYPE:SKIN
G1 F1350 X149.621 Y105.785 E71.22156
G1 X145.378 Y101.542 E71.32653
G1 X140.853 Y97.016 E71.43848
G1 X137.034 Y93.198 E71.53295
G1 X132.368 Y88.531 E71.64839
G1 X128.549 Y84.713 E71.74285
G1 X124.307 Y80.47 E71.84781
G1 X120.488 Y76.652 E71.94227
G1 X115.821 Y71.985 E72.05773
G1 X111.437 Y67.601 E72.16618
G1 X106.912 Y63.075 E72.27814
G1 X103.093 Y59.257 E72.3726
G1 X98.851 Y55.014 E72.47756
G1 X95.032 Y51.196 E72.57202
G1 X93.901 Y50.065 E72.6
M204 S3000
M205 X10 Y10
G0 F4500 X93.832 Y50.134
G1 F2400 E66.6
;MESH:NONMESH
G0 F600 X93.832 Y50.134 Z0.6
G0 F4500 X94.739 Y48.922
;TIME_ELAPSED:72.374124
;LAYER:2
M106 S255
M204 S1800
M205 X8 Y8
;TYPE:SUPPORT
G1 F2400 E72.6
G1 F1800 X96.294 Y47.367 E72.67314
G1 X152.582 Y103.654 E75.32074
G1 X151.026 Y105.21 E75.39392
G1 X94.739 Y48.922 E78.04152
M204 S3000
M205 X10 Y10
G0 F6000 X96 Y47.858
M204 S1800
M205 X8 Y8
G1 F1800 X96 Y49.986 E78.11229
M204 S3000
M205 X10 Y10
G0 F6000 X99.447 Y53.435
M204 S1800
M205 X8 Y8
G1 F1800 X101.171 Y52.439 E78.17852
M204 S3000
M205 X10 Y10
G0 F6000 X104 Y55.27
M204 S1800
M205 X8 Y8
G1 F1800 X104 Y57.986 E78.26885
M204 S3000
M205 X10 Y10
G0 F6000 X105.303 Y59.291
M204 S1800
M205 X8 Y8
G1 F1800 X107.027 Y58.296 E78.33506
M204 S3000
M205 X10 Y10
G0 F6000 X108.868 Y62.855
M204 S1800
M205 X8 Y8
G1 F1800 X115.297 Y66.567 E78.58197
M204 S3000
M205 X10 Y10
G0 F6000 X112 Y65.986
M204 S1800
M205 X8 Y8
G1 F1800 X112 Y63.27 E78.6723
M204 S3000
M205 X10 Y10
G0 F6000 X112.884 Y64.152
M204 S1800
M205 X8 Y8
G1 F1800 X111.159 Y65.148 E78.73855
M204 S3000
M205 X10 Y10
G0 F6000 X117.016 Y71.004
M204 S1800
M205 X8 Y8
G1 F1800 X118.74 Y70.009 E78.80476
M204 S3000
M205 X10 Y10
G0 F6000 X120 Y71.27
M204 S1800
M205 X8 Y8
G1 F1800 X120 Y73.986 E78.89509
M204 S3000
M205 X10 Y10
G0 F6000 X122.873 Y76.86
M204 S1800
M205 X8 Y8
G1 F1800 X124.596 Y75.865 E78.96127
M204 S3000
M205 X10 Y10
G0 F6000 X128 Y79.27
M204 S1800
M205 X8 Y8
G1 F1800 X128 Y81.986 E79.0516
M204 S3000
M205 X10 Y10
G0 F6000 X128.729 Y82.717
M204 S1800
M205 X8 Y8
G1 F1800 X130.453 Y81.721 E79.11783
M204 S3000
M205 X10 Y10
G0 F6000 X130.725 Y84.712
M204 S1800
M205 X8 Y8
G1 F1800 X137.155 Y88.424 E79.36477
M204 S3000
M205 X10 Y10
G0 F6000 X136.309 Y87.578
M204 S1800
M205 X8 Y8
G1 F1800 X134.585 Y88.573 E79.43097
M204 S3000
M205 X10 Y10
G0 F6000 X136 Y87.27
M204 S1800
M205 X8 Y8
G1 F1800 X136 Y89.986 E79.52131
M204 S3000
M205 X10 Y10
G0 F6000 X140.441 Y94.43
M204 S1800
M205 X8 Y8
