;FLAVOR:Marlin
;TIME:4040
;Filament used: 2.90594m
;Layer height: 0.2
;MINX:74.22
;MINY:76.316
;MINZ:0.2
;MAXX:133.76
;MAXY:124.2
;MAXZ:56.4
;Generated with Cura_SteamEngine 4.11.0
M140 S60
M105
M190 S60
M104 S200
M105
M109 S200
M82 ;absolute extrusion mode
G21 ;metric values
G90 ;absolute positioning
M82 ;set extruder to absolute mode
M107 ;start with the fan off
G28 X0 Y0 ;move X/Y to min endstops
G28 Z0 ;move Z to min endstops
G1 Z15.0 F100 ;move the platform down 15mm
G92 E0 ;zero the extruded length
G1 F200 E3 ;extrude 3mm of feed stock
G92 E0 ;zero the extruded length again
G1 F100
G0 Y20 F100
M117 Printing...
G5
G92 E0
G92 E0
G1 F2400 E-6
;LAYER_COUNT:282
;LAYER:0
M107
M204 S3000
M205 X10 Y10
G1 F600 Z0.275
G0 F3000 X88.874 Y79.312 Z0.275
M204 S1800
M205 X8 Y8
;TYPE:SKIRT
G1 F600 Z0.2
G1 F2400 E0
G1 X89.289 Y78.908 E0.02697
G1 X89.535 Y78.714 E0.04156
G1 X91.656 Y77.17 E0.16372
G1 X92.147 Y76.863 E0.19068
G1 X92.675 Y76.625 E0.21765
G1 X93.231 Y76.463 E0.24462
G1 X93.805 Y76.378 E0.27163
G1 X94.128 Y76.366 E0.28669
G1 X96.748 Y76.366 E0.40868
G1 X97.326 Y76.406 E0.43566
G1 X97.841 Y76.514 E0.46016
G1 X98.016 Y76.463 E0.46865
G1 X98.589 Y76.379 E0.49562
G1 X98.913 Y76.366 E0.51072
G1 X101.533 Y76.366 E0.63272
G1 X102.111 Y76.406 E0.65969
G1 X102.385 Y76.464 E0.67273
G1 X102.5 Y76.43 E0.67832
G1 X103.073 Y76.345 E0.70529
G1 X103.395 Y76.333 E0.7203
G1 X106.037 Y76.333 E0.84332
G1 X106.615 Y76.373 E0.8703
G1 X106.984 Y76.45 E0.88785
G1 X107.112 Y76.413 E0.89405
G1 X107.685 Y76.329 E0.92102
G1 X108.01 Y76.316 E0.93617
G1 X110.662 Y76.316 E1.05965
G1 X111.24 Y76.356 E1.08663
G1 X111.807 Y76.475 E1.11361
G1 X112.268 Y76.641 E1.13643
G1 X112.505 Y76.632 E1.14747
G1 X115.017 Y76.632 E1.26444
G1 X115.595 Y76.672 E1.29142
G1 X116.162 Y76.791 E1.31839
G1 X116.393 Y76.846 E1.32945
G1 X116.966 Y76.762 E1.35642
G1 X117.29 Y76.749 E1.37152
G1 X119.792 Y76.749 E1.48802
G1 X120.37 Y76.789 E1.515
G1 X120.937 Y76.908 E1.54198
G1 X121.482 Y77.104 E1.56894
G1 X121.995 Y77.373 E1.59592
G1 X122.264 Y77.553 E1.61099
G1 X124.289 Y79.027 E1.72761
G1 X124.732 Y79.4 E1.75458
G1 X125.121 Y79.83 E1.78158
G1 X125.446 Y80.309 E1.80853
G1 X125.703 Y80.828 E1.8355
G1 X125.811 Y81.123 E1.85013
G1 X125.984 Y81.653 E1.87609
G1 X126.668 Y81.653 E1.90794
G1 X127.246 Y81.693 E1.93492
G1 X127.813 Y81.812 E1.9619
G1 X128.358 Y82.008 E1.98886
G1 X128.871 Y82.277 E2.01584
G1 X129.14 Y82.457 E2.03091
G1 X131.235 Y83.982 E2.15157
G1 X131.679 Y84.355 E2.17857
G1 X132.067 Y84.785 E2.20554
G1 X132.392 Y85.264 E2.23249
G1 X132.649 Y85.783 E2.25946
G1 X132.757 Y86.079 E2.27413
G1 X133.557 Y88.538 E2.39454
G1 X133.698 Y89.1 E2.42152
G1 X133.76 Y89.676 E2.4485
G1 X133.742 Y90.255 E2.47547
G1 X133.645 Y90.826 E2.50244
G1 X133.557 Y91.136 E2.51744
G1 X132.757 Y93.595 E2.63785
G1 X132.54 Y94.133 E2.66487
G1 X132.252 Y94.635 E2.69181
G1 X131.896 Y95.093 E2.71883
G1 X131.482 Y95.497 E2.74576
G1 X131.235 Y95.692 E2.76041
G1 X129.14 Y97.217 E2.88107
G1 X128.649 Y97.524 E2.90804
G1 X128.121 Y97.762 E2.93501
G1 X127.564 Y97.924 E2.96202
G1 X126.991 Y98.009 E2.98899
G1 X126.668 Y98.021 E3.00404
G1 X124.48 Y98.021 E3.10592
G1 X124.2 Y98.002 E3.11899
G1 X124.2 Y119.836 E4.13567
G1 X124.16 Y120.414 E4.16265
G1 X124.041 Y120.981 E4.18963
G1 X123.845 Y121.526 E4.2166
G1 X123.576 Y122.039 E4.24357
G1 X123.239 Y122.51 E4.27054
G1 X122.806 Y122.97 E4.29996
G1 X122.369 Y123.35 E4.32692
G1 X121.884 Y123.667 E4.3539
G1 X121.36 Y123.914 E4.38088
G1 X120.807 Y124.086 E4.40784
G1 X120.235 Y124.181 E4.43484
G1 X119.836 Y124.2 E4.45344
G1 X90.164 Y124.2 E5.83509
G1 X89.586 Y124.16 E5.86207
G1 X89.019 Y124.041 E5.88905
G1 X88.474 Y123.845 E5.91602
G1 X87.961 Y123.576 E5.94299
G1 X87.49 Y123.239 E5.96996
G1 X87.03 Y122.806 E5.99937
G1 X86.65 Y122.369 E6.02634
G1 X86.333 Y121.884 E6.05332
G1 X86.086 Y121.36 E6.08029
G1 X85.914 Y120.807 E6.10726
G1 X85.819 Y120.235 E6.13426
G1 X85.8 Y119.836 E6.15286
G1 X85.8 Y111.908 E6.52202
G1 X85.201 Y111.961 E6.55002
G1 X81.999 Y111.961 E6.69912
G1 X81.421 Y111.921 E6.7261
G1 X80.854 Y111.802 E6.75308
G1 X80.309 Y111.606 E6.78005
G1 X79.796 Y111.337 E6.80702
G1 X79.527 Y111.157 E6.82209
G1 X76.935 Y109.27 E6.97138
G1 X76.491 Y108.897 E6.99838
G1 X76.103 Y108.467 E7.02535
G1 X75.778 Y107.988 E7.0523
G1 X75.521 Y107.468 E7.07931
G1 X75.413 Y107.174 E7.0939
G1 X74.423 Y104.132 E7.24286
G1 X74.282 Y103.57 E7.26984
G1 X74.22 Y102.994 E7.29681
G1 X74.238 Y102.415 E7.32379
G1 X74.335 Y101.844 E7.35076
G1 X74.423 Y101.532 E7.36585
G1 X75.413 Y98.49 E7.51481
G1 X75.63 Y97.953 E7.54178
G1 X75.919 Y97.451 E7.56875
G1 X76.274 Y96.993 E7.59574
G1 X76.688 Y96.589 E7.62267
G1 X77.116 Y96.27 E7.64753
G1 X78.522 Y95.355 E7.72564
G1 X79.163 Y92.05 E7.8824
G1 X79.312 Y91.491 E7.90934
G1 X79.537 Y90.957 E7.93632
G1 X79.833 Y90.459 E7.9633
G1 X80.195 Y90.006 E7.9903
G1 X80.816 Y89.453 E8.02902
G1 X82.37 Y88.323 E8.11849
G1 X82.861 Y88.016 E8.14545
G1 X83.389 Y87.778 E8.17242
G1 X83.946 Y87.616 E8.19943
G1 X84.519 Y87.532 E8.2264
G1 X84.84 Y87.52 E8.24136
G1 X85.52 Y87.52 E8.27302
G1 X86.098 Y87.56 E8.3
G1 X86.631 Y87.672 E8.32536
G1 X87.03 Y87.194 E8.35435
G1 X87.487 Y86.775 E8.38322
G1 X87.202 Y85.898 E8.42616
G1 X87.061 Y85.336 E8.45314
G1 X86.999 Y84.76 E8.48012
G1 X87.017 Y84.181 E8.50709
G1 X87.114 Y83.61 E8.53406
G1 X87.202 Y83.299 E8.54911
G1 X88.013 Y80.809 E8.67105
G1 X88.23 Y80.272 E8.69802
G1 X88.519 Y79.77 E8.72499
G1 X88.874 Y79.312 E8.75197
M204 S3000
M205 X10 Y10
G0 F3000 X89.368 Y79.603
M204 S1800
M205 X8 Y8
G1 F2400 X89.865 Y79.167 E8.78276
G1 X91.986 Y77.623 E8.90492
G1 X92.444 Y77.339 E8.93001
G1 X92.939 Y77.126 E8.95511
G1 X93.461 Y76.988 E8.98025
G1 X94.128 Y76.926 E9.01144
G1 X96.748 Y76.926 E9.13344
G1 X97.286 Y76.966 E9.15856
G1 X97.812 Y77.085 E9.18367
G1 X98.245 Y76.988 E9.20433
G1 X98.913 Y76.926 E9.23557
G1 X101.533 Y76.926 E9.35757
G1 X102.071 Y76.966 E9.38269
G1 X102.401 Y77.041 E9.39845
G1 X102.729 Y76.954 E9.41425
G1 X103.395 Y76.893 E9.44539
G1 X106.037 Y76.893 E9.56841
G1 X106.575 Y76.933 E9.59353
G1 X106.998 Y77.029 E9.61373
G1 X107.341 Y76.938 E9.63026
G1 X108.01 Y76.876 E9.66154
G1 X110.662 Y76.876 E9.78503
G1 X111.2 Y76.916 E9.81015
G1 X111.726 Y77.035 E9.83526
G1 X112.203 Y77.22 E9.85908
G1 X112.505 Y77.192 E9.87321
G1 X115.017 Y77.192 E9.99018
G1 X115.555 Y77.232 E10.0153
G1 X116.081 Y77.351 E10.04041
G1 X116.331 Y77.448 E10.05289
G1 X116.622 Y77.371 E10.06691
G1 X117.29 Y77.309 E10.09815
G1 X119.792 Y77.309 E10.21465
G1 X120.33 Y77.349 E10.23977
G1 X120.856 Y77.468 E10.26489
G1 X121.358 Y77.663 E10.28996
G1 X121.934 Y78.006 E10.32118
G1 X123.959 Y79.48 E10.43781
G1 X124.37 Y79.829 E10.46291
G1 X124.726 Y80.235 E10.48806
G1 X125.017 Y80.688 E10.51313
G1 X125.278 Y81.296 E10.54394
G1 X125.577 Y82.213 E10.58885
G1 X126.668 Y82.213 E10.63965
G1 X127.206 Y82.253 E10.66477
G1 X127.732 Y82.372 E10.68988
G1 X128.234 Y82.567 E10.71496
G1 X128.81 Y82.91 E10.74618
G1 X130.905 Y84.435 E10.86684
G1 X131.316 Y84.784 E10.89194
G1 X131.672 Y85.19 E10.91709
G1 X131.963 Y85.643 E10.94216
G1 X132.224 Y86.252 E10.97301
G1 X133.024 Y88.711 E11.09342
G1 X133.153 Y89.235 E11.11855
G1 X133.202 Y89.772 E11.14365
G1 X133.172 Y90.31 E11.16874
G1 X133.024 Y90.963 E11.19992
G1 X132.224 Y93.422 E11.32033
G1 X132.02 Y93.921 E11.34543
G1 X131.744 Y94.385 E11.37057
G1 X131.403 Y94.802 E11.39566
G1 X130.905 Y95.239 E11.42651
G1 X128.81 Y96.764 E11.54717
G1 X128.352 Y97.048 E11.57226
G1 X127.857 Y97.261 E11.59735
G1 X127.335 Y97.399 E11.62249
G1 X126.668 Y97.461 E11.65369
G1 X124.48 Y97.461 E11.75557
G1 X123.942 Y97.421 E11.78069
G1 X123.64 Y97.353 E11.7951
G1 X123.64 Y119.836 E12.84201
G1 X123.6 Y120.374 E12.86713
G1 X123.481 Y120.9 E12.89224
G1 X123.286 Y121.402 E12.91732
G1 X123.018 Y121.871 E12.94247
G1 X122.574 Y122.41 E12.97499
G1 X122.41 Y122.574 E12.98579
G1 X122.001 Y122.926 E13.01091
G1 X121.545 Y123.214 E13.03603
G1 X121.052 Y123.431 E13.06111
G1 X120.532 Y123.573 E13.08621
G1 X119.836 Y123.64 E13.11877
G1 X90.164 Y123.64 E14.50042
G1 X89.626 Y123.6 E14.52554
G1 X89.1 Y123.481 E14.55065
G1 X88.598 Y123.286 E14.57573
G1 X88.129 Y123.018 E14.60088
G1 X87.59 Y122.574 E14.6334
G1 X87.426 Y122.41 E14.6442
G1 X87.074 Y122.001 E14.66932
G1 X86.786 Y121.545 E14.69444
G1 X86.569 Y121.052 E14.71952
G1 X86.427 Y120.532 E14.74462
G1 X86.36 Y119.836 E14.77718
G1 X86.36 Y111.209 E15.17889
G1 X85.867 Y111.34 E15.20264
G1 X85.201 Y111.401 E15.23378
G1 X81.999 Y111.401 E15.38288
G1 X81.461 Y111.361 E15.408
G1 X80.935 Y111.242 E15.43311
G1 X80.433 Y111.047 E15.45819
G1 X79.857 Y110.704 E15.4894
G1 X77.265 Y108.817 E15.6387
G1 X76.853 Y108.468 E15.66384
G1 X76.498 Y108.062 E15.68895
G1 X76.207 Y107.608 E15.71406
G1 X75.946 Y107 E15.74487
G1 X74.956 Y103.958 E15.89383
G1 X74.827 Y103.435 E15.91891
G1 X74.778 Y102.898 E15.94402
G1 X74.808 Y102.359 E15.96916
G1 X74.956 Y101.706 E16.00034
G1 X75.946 Y98.664 E16.1493
G1 X76.15 Y98.165 E16.1744
G1 X76.426 Y97.701 E16.19954
G1 X76.767 Y97.284 E16.22462
G1 X77.167 Y96.921 E16.24977
G1 X77.421 Y96.739 E16.26432
G1 X79.027 Y95.694 E16.35354
G1 X79.713 Y92.157 E16.52131
G1 X79.854 Y91.637 E16.5464
G1 X80.071 Y91.143 E16.57152
G1 X80.359 Y90.687 E16.59664
G1 X80.71 Y90.278 E16.62173
G1 X81.145 Y89.906 E16.64838
G1 X82.699 Y88.776 E16.73785
G1 X83.158 Y88.492 E16.76299
G1 X83.653 Y88.279 E16.78808
G1 X84.174 Y88.141 E16.81318
G1 X84.84 Y88.08 E16.84432
G1 X85.52 Y88.08 E16.87598
G1 X86.058 Y88.12 E16.9011
G1 X86.584 Y88.239 E16.92621
G1 X86.858 Y88.346 E16.93991
G1 X86.982 Y88.129 E16.95155
G1 X87.426 Y87.59 E16.98406
G1 X87.59 Y87.426 E16.99486
G1 X87.999 Y87.074 E17.01999
G1 X88.176 Y86.962 E17.02974
G1 X88.033 Y86.645 E17.04594
G1 X87.734 Y85.725 E17.09098
G1 X87.606 Y85.201 E17.1161
G1 X87.557 Y84.664 E17.14121
G1 X87.587 Y84.126 E17.1663
G1 X87.735 Y83.473 E17.19748
G1 X88.546 Y80.983 E17.31942
G1 X88.75 Y80.484 E17.34452
G1 X89.026 Y80.02 E17.36966
G1 X89.368 Y79.603 E17.39477
M204 S3000
M205 X10 Y10
G0 F3000 X89.858 Y79.904
M204 S1800
M205 X8 Y8
G1 F2400 X90.194 Y79.62 E17.41526
G1 X92.315 Y78.076 E17.53742
G1 X92.739 Y77.817 E17.56055
G1 X93.198 Y77.63 E17.58363
G1 X93.681 Y77.519 E17.60671
G1 X94.128 Y77.486 E17.62758
G1 X96.748 Y77.486 E17.74957
G1 X97.242 Y77.526 E17.77265
G1 X97.833 Y77.691 E17.80122
G1 X98.465 Y77.519 E17.83172
G1 X98.913 Y77.486 E17.85264
G1 X101.533 Y77.486 E17.97464
G1 X102.027 Y77.526 E17.99772
G1 X102.409 Y77.62 E18.01604
G1 X102.949 Y77.485 E18.04195
G1 X103.395 Y77.453 E18.06277
G1 X106.037 Y77.453 E18.1858
G1 X106.531 Y77.493 E18.20888
G1 X107.005 Y77.61 E18.23161
G1 X107.562 Y77.469 E18.25836
G1 X108.01 Y77.436 E18.27928
G1 X110.662 Y77.436 E18.40277
G1 X111.156 Y77.476 E18.42585
G1 X111.638 Y77.595 E18.44896
G1 X112.081 Y77.783 E18.47137
G1 X112.505 Y77.752 E18.49117
G1 X115.017 Y77.752 E18.60814
G1 X115.511 Y77.792 E18.63122
G1 X115.993 Y77.911 E18.65433
G1 X116.295 Y78.039 E18.66961
G1 X116.843 Y77.902 E18.69591
G1 X117.29 Y77.869 E18.71678
G1 X119.792 Y77.869 E18.83328
G1 X120.286 Y77.909 E18.85636
G1 X120.768 Y78.028 E18.87948
G1 X121.224 Y78.222 E18.90256
G1 X121.605 Y78.459 E18.92345
G1 X123.63 Y79.933 E19.04008
G1 X124.006 Y80.256 E19.06316
G1 X124.325 Y80.635 E19.08622
G1 X124.58 Y81.061 E19.10934
G1 X124.746 Y81.469 E19.12985
G1 X125.171 Y82.773 E19.19372
G1 X126.668 Y82.773 E19.26342
G1 X127.162 Y82.813 E19.2865
G1 X127.644 Y82.932 E19.30962
G1 X128.1 Y83.126 E19.33269
G1 X128.481 Y83.363 E19.35359
G1 X130.576 Y84.888 E19.47425
G1 X130.952 Y85.211 E19.49733
G1 X131.271 Y85.591 E19.52043
G1 X131.526 Y86.016 E19.54351
G1 X131.692 Y86.425 E19.56406
G1 X132.492 Y88.884 E19.68447
G1 X132.607 Y89.367 E19.70759
G1 X132.643 Y89.861 E19.73066
G1 X132.599 Y90.355 E19.75375
G1 X132.492 Y90.79 E19.77461
G1 X131.692 Y93.249 E19.89502
G1 X131.501 Y93.707 E19.91812
G1 X131.239 Y94.128 E19.94121
G1 X130.913 Y94.502 E19.96432
G1 X130.576 Y94.786 E19.98484
G1 X128.481 Y96.311 E20.1055
G1 X128.057 Y96.57 E20.12863
G1 X127.598 Y96.757 E20.15171
G1 X127.115 Y96.868 E20.17479
G1 X126.668 Y96.901 E20.19566
G1 X124.48 Y96.901 E20.29754
G1 X123.986 Y96.861 E20.32062
G1 X123.504 Y96.742 E20.34374
G1 X123.08 Y96.562 E20.36519
G1 X123.08 Y119.836 E21.44892
G1 X123.04 Y120.33 E21.472
G1 X122.921 Y120.812 E21.49512
G1 X122.727 Y121.268 E21.51819
G1 X122.462 Y121.687 E21.54128
G1 X122.014 Y122.178 E21.57223
G1 X121.636 Y122.499 E21.59532
G1 X121.212 Y122.756 E21.6184
G1 X120.751 Y122.941 E21.64153
G1 X120.268 Y123.05 E21.66459
G1 X119.836 Y123.08 E21.68475
G1 X90.164 Y123.08 E23.06641
G1 X89.67 Y123.04 E23.08949
G1 X89.188 Y122.921 E23.1126
G1 X88.732 Y122.727 E23.13568
G1 X88.313 Y122.462 E23.15876
G1 X87.822 Y122.014 E23.18971
G1 X87.501 Y121.636 E23.2128
G1 X87.244 Y121.212 E23.23589
G1 X87.059 Y120.751 E23.25902
G1 X86.95 Y120.268 E23.28208
G1 X86.92 Y119.836 E23.30224
G1 X86.92 Y110.309 E23.74586
G1 X86.589 Y110.51 E23.76389
G1 X86.13 Y110.698 E23.78699
G1 X85.647 Y110.809 E23.81006
G1 X85.201 Y110.841 E23.83088
G1 X81.999 Y110.841 E23.97998
G1 X81.505 Y110.801 E24.00306
G1 X81.023 Y110.682 E24.02618
G1 X80.567 Y110.488 E24.04925
G1 X80.186 Y110.251 E24.07015
G1 X77.594 Y108.364 E24.21944
G1 X77.218 Y108.041 E24.24252
G1 X76.899 Y107.661 E24.26562
G1 X76.644 Y107.236 E24.2887
G1 X76.478 Y106.827 E24.30925
G1 X75.488 Y103.785 E24.45821
G1 X75.373 Y103.303 E24.48129
G1 X75.337 Y102.808 E24.5044
G1 X75.381 Y102.314 E24.52749
G1 X75.488 Y101.879 E24.54835
G1 X76.478 Y98.837 E24.69731
G1 X76.669 Y98.379 E24.72042
G1 X76.931 Y97.958 E24.74351
G1 X77.257 Y97.584 E24.76661
G1 X77.727 Y97.209 E24.79461
G1 X79.531 Y96.035 E24.89483
G1 X80.262 Y92.264 E25.07369
G1 X80.396 Y91.786 E25.09681
G1 X80.604 Y91.336 E25.11989
G1 X80.882 Y90.925 E25.143
G1 X81.222 Y90.564 E25.16609
G1 X81.475 Y90.359 E25.18125
G1 X83.029 Y89.229 E25.27072
G1 X83.452 Y88.971 E25.29379
G1 X83.911 Y88.783 E25.31689
G1 X84.395 Y88.672 E25.34001
G1 X84.84 Y88.64 E25.36079
G1 X85.52 Y88.64 E25.39245
G1 X86.014 Y88.68 E25.41553
G1 X86.496 Y88.799 E25.43865
G1 X87.117 Y89.098 E25.47074
G1 X87.273 Y88.732 E25.48926
G1 X87.538 Y88.313 E25.51235
G1 X87.986 Y87.822 E25.5433
G1 X88.364 Y87.501 E25.56639
G1 X88.916 Y87.193 E25.59582
G1 X88.711 Y86.838 E25.61491
G1 X88.566 Y86.472 E25.63324
G1 X88.267 Y85.552 E25.67829
G1 X88.152 Y85.069 E25.70141
G1 X88.116 Y84.575 E25.72447
G1 X88.16 Y84.081 E25.74757
G1 X88.267 Y83.646 E25.76843
G1 X89.078 Y81.156 E25.89036
G1 X89.269 Y80.698 E25.91347
G1 X89.532 Y80.277 E25.93659
G1 X89.858 Y79.904 E25.95965
M204 S3000
M205 X10 Y10
G0 F3000 X90.034 Y80.542
M204 S1800
M205 X8 Y8
G1 F2400 X90.524 Y80.073 E25.99124
G1 X92.645 Y78.529 E26.1134
G1 X93.03 Y78.298 E26.1343
G1 X93.449 Y78.139 E26.15517
G1 X94.128 Y78.046 E26.18708
G1 X96.748 Y78.046 E26.30908
G1 X97.195 Y78.086 E26.32998
G1 X97.627 Y78.204 E26.35083
G1 X97.819 Y78.296 E26.36074
G1 X98.234 Y78.139 E26.38141
G1 X98.913 Y78.046 E26.41332
G1 X101.533 Y78.046 E26.53532
G1 X101.98 Y78.086 E26.55621
G1 X102.432 Y78.214 E26.57809
G1 X102.717 Y78.106 E26.59228
G1 X103.395 Y78.013 E26.62415
G1 X106.037 Y78.013 E26.74717
G1 X106.484 Y78.053 E26.76807
G1 X107.003 Y78.213 E26.79335
G1 X107.33 Y78.089 E26.80964
G1 X108.01 Y77.996 E26.8416
G1 X110.662 Y77.996 E26.96509
G1 X111.109 Y78.036 E26.98598
G1 X111.541 Y78.154 E27.00684
G1 X111.987 Y78.375 E27.03001
G1 X112.505 Y78.312 E27.05431
G1 X115.017 Y78.312 E27.17128
G1 X115.464 Y78.352 E27.19218
G1 X115.896 Y78.47 E27.21303
G1 X116.272 Y78.65 E27.23244
G1 X116.611 Y78.522 E27.24931
G1 X117.29 Y78.429 E27.28123
G1 X119.792 Y78.429 E27.39773
G1 X120.239 Y78.469 E27.41863
G1 X120.671 Y78.587 E27.43948
G1 X121.275 Y78.912 E27.47142
G1 X123.3 Y80.386 E27.58805
G1 X123.638 Y80.681 E27.60894
G1 X123.918 Y81.031 E27.62981
G1 X124.213 Y81.643 E27.66144
G1 X124.763 Y83.333 E27.7442
G1 X126.668 Y83.333 E27.8329
G1 X127.115 Y83.373 E27.8538
G1 X127.547 Y83.491 E27.87465
G1 X128.151 Y83.816 E27.90659
G1 X130.246 Y85.341 E28.02725
G1 X130.584 Y85.636 E28.04814
G1 X130.864 Y85.986 E28.06901
G1 X131.159 Y86.598 E28.10065
G1 X131.959 Y89.057 E28.22106
G1 X132.06 Y89.495 E28.24199
G1 X132.081 Y89.943 E28.26287
