;FLAVOR:Marlin
;TIME:6635
;Filament used: 7.16143m
;Layer height: 0.2
;MINX:46.154
;MINY:87.338
;MINZ:0.2
;MAXX:163.847
;MAXY:122.662
;MAXZ:50.8
;Generated with Cura_SteamEngine 4.11.0
M140 S60
M105
M190 S60
M104 S200
M105
M109 S200
M82 ;absolute extrusion mode
G21 ;metric values
G90 ;absolute positioning
M82 ;set extruder to absolute mode
M107 ;start with the fan off
G28 X0 Y0 ;move X/Y to min endstops
G28 Z0 ;move Z to min endstops
G1 Z15.0 F100 ;move the platform down 15mm
G92 E0 ;zero the extruded length
G1 F200 E3 ;extrude 3mm of feed stock
G92 E0 ;zero the extruded length again
G1 F100
G0 Y20 F100
M117 Printing...
G5
G92 E0
G92 E0
G1 F2400 E-6
;LAYER_COUNT:254
;LAYER:0
M107
M204 S3000
M205 X10 Y10
G1 F600 Z0.275
G0 F3000 X49.688 Y88.607 Z0.275
M204 S1800
M205 X8 Y8
;TYPE:SKIRT
G1 F600 Z0.2
G1 F2400 E0
G1 X50.326 Y88.283 E0.03332
G1 X50.937 Y88.047 E0.06382
G1 X51.85 Y87.792 E0.10796
G1 X52.44 Y87.677 E0.13595
G1 X52.982 Y87.588 E0.16152
G1 X53.53 Y87.513 E0.18728
G1 X54.139 Y87.448 E0.2158
G1 X54.664 Y87.406 E0.24032
G1 X55.232 Y87.373 E0.26682
G1 X56.1 Y87.345 E0.30725
G1 X56.856 Y87.338 E0.34246
G1 X151.289 Y87.338 E4.73965
G1 X152.076 Y87.343 E4.7763
G1 X153.08 Y87.371 E4.82307
G1 X153.314 Y87.382 E4.83398
G1 X154.25 Y87.444 E4.87766
G1 X154.807 Y87.492 E4.90369
G1 X155.403 Y87.556 E4.9316
G1 X155.984 Y87.634 E4.9589
G1 X156.87 Y87.773 E5.00066
G1 X157.208 Y87.837 E5.01668
G1 X157.856 Y87.975 E5.04753
G1 X158.654 Y88.182 E5.08592
G1 X159.333 Y88.408 E5.11924
G1 X160.14 Y88.794 E5.16089
G1 X160.309 Y88.89 E5.16994
G1 X160.91 Y89.278 E5.20325
G1 X161.465 Y89.73 E5.23658
G1 X162.039 Y90.327 E5.27515
G1 X162.196 Y90.513 E5.28648
G1 X162.626 Y91.084 E5.31976
G1 X162.989 Y91.7 E5.35306
G1 X163.231 Y92.224 E5.37993
G1 X163.324 Y92.452 E5.3914
G1 X163.557 Y93.128 E5.42469
G1 X163.746 Y94.054 E5.4687
G1 X163.788 Y94.381 E5.48405
G1 X163.835 Y94.937 E5.51003
G1 X163.847 Y95.586 E5.54026
G1 X163.845 Y113.657 E6.38172
G1 X163.84 Y114.387 E6.41571
G1 X163.801 Y115.05 E6.44664
G1 X163.778 Y115.257 E6.45634
G1 X163.637 Y116.058 E6.49421
G1 X163.442 Y116.73 E6.52679
G1 X163.187 Y117.398 E6.56009
G1 X162.673 Y118.331 E6.60969
G1 X162.548 Y118.519 E6.6202
G1 X162.12 Y119.091 E6.65346
G1 X161.63 Y119.612 E6.68677
G1 X161.018 Y120.125 E6.72395
G1 X160.816 Y120.274 E6.73564
G1 X160.218 Y120.666 E6.76894
G1 X159.579 Y120.989 E6.80228
G1 X158.989 Y121.213 E6.83166
G1 X158.884 Y121.247 E6.8368
G1 X158.334 Y121.398 E6.86336
G1 X157.509 Y121.586 E6.90276
G1 X157.244 Y121.641 E6.91536
G1 X156.181 Y121.835 E6.96568
G1 X155.768 Y121.896 E6.98512
G1 X155.164 Y121.968 E7.01344
G1 X154.994 Y121.986 E7.0214
G1 X154.43 Y122.038 E7.04777
G1 X153.61 Y122.096 E7.08605
G1 X153.425 Y122.106 E7.09468
G1 X152.641 Y122.137 E7.13121
G1 X152.471 Y122.141 E7.13913
G1 X151.073 Y122.159 E7.20423
G1 X135.597 Y122.159 E7.92486
G1 X132.935 Y122.197 E8.04883
G1 X130.295 Y122.309 E8.17187
G1 X127.625 Y122.498 E8.29651
G1 X127.196 Y122.54 E8.31658
G1 X126.307 Y122.614 E8.35812
G1 X125.911 Y122.635 E8.37658
G1 X124.676 Y122.661 E8.4341
G1 X57.135 Y122.662 E11.57909
G1 X55.707 Y122.641 E11.64559
G1 X55.536 Y122.636 E11.65356
G1 X54.938 Y122.611 E11.68143
G1 X54.32 Y122.567 E11.71028
G1 X54.135 Y122.549 E11.71893
G1 X53.346 Y122.463 E11.75589
G1 X52.61 Y122.353 E11.79054
G1 X51.969 Y122.233 E11.82091
G1 X51.414 Y122.102 E11.84746
G1 X51.193 Y122.039 E11.85816
G1 X50.518 Y121.805 E11.89143
G1 X49.872 Y121.496 E11.92477
G1 X49.1 Y120.998 E11.96755
G1 X48.906 Y120.852 E11.97886
G1 X48.359 Y120.39 E12.0122
G1 X47.867 Y119.871 E12.0455
G1 X47.373 Y119.203 E12.08418
G1 X47.25 Y119.012 E12.09476
G1 X46.897 Y118.39 E12.12806
G1 X46.616 Y117.732 E12.16138
G1 X46.429 Y117.125 E12.19095
G1 X46.371 Y116.897 E12.20191
G1 X46.233 Y116.195 E12.23522
G1 X46.174 Y115.434 E12.27076
G1 X46.154 Y114.264 E12.32525
G1 X46.154 Y95.173 E13.21421
G1 X46.162 Y94.627 E13.23964
G1 X46.172 Y94.399 E13.25026
G1 X46.243 Y93.687 E13.28358
G1 X46.371 Y93.073 E13.31279
G1 X46.427 Y92.857 E13.32318
G1 X46.645 Y92.176 E13.35647
G1 X46.937 Y91.523 E13.38978
G1 X47.304 Y90.902 E13.42337
G1 X47.458 Y90.672 E13.43626
G1 X47.889 Y90.101 E13.46957
G1 X48.38 Y89.582 E13.50284
G1 X48.971 Y89.087 E13.53873
G1 X49.09 Y88.999 E13.54563
G1 X49.688 Y88.607 E13.57892
M204 S3000
M205 X10 Y10
G0 F3000 X49.995 Y89.076
M204 S1800
M205 X8 Y8
G1 F2400 X50.911 Y88.652 E13.62592
G1 X51.127 Y88.574 E13.63661
G1 X51.96 Y88.342 E13.67688
G1 X52.534 Y88.229 E13.70412
G1 X53.06 Y88.142 E13.72895
G1 X53.592 Y88.07 E13.75394
G1 X54.184 Y88.006 E13.78167
G1 X54.7 Y87.965 E13.80577
G1 X55.251 Y87.932 E13.83148
G1 X55.962 Y87.908 E13.8646
G1 X56.861 Y87.898 E13.90647
G1 X151.285 Y87.898 E18.30324
G1 X152.205 Y87.905 E18.34608
G1 X153.064 Y87.93 E18.3861
G1 X153.277 Y87.941 E18.39603
G1 X154.205 Y88.002 E18.43933
G1 X154.748 Y88.048 E18.46471
G1 X155.344 Y88.112 E18.49262
G1 X155.898 Y88.187 E18.51865
G1 X156.62 Y88.299 E18.55267
G1 X157.093 Y88.385 E18.57506
G1 X157.727 Y88.52 E18.60524
G1 X158.508 Y88.723 E18.64282
G1 X159.155 Y88.94 E18.6746
G1 X159.863 Y89.281 E18.71119
G1 X160.032 Y89.377 E18.72024
G1 X160.606 Y89.749 E18.75209
G1 X161.132 Y90.185 E18.7839
G1 X161.611 Y90.688 E18.81624
G1 X161.768 Y90.874 E18.82758
G1 X162.177 Y91.421 E18.85938
G1 X162.52 Y92.012 E18.8912
G1 X162.805 Y92.663 E18.92429
G1 X163.026 Y93.31 E18.95613
G1 X163.19 Y94.125 E18.99484
G1 X163.232 Y94.452 E19.01019
G1 X163.275 Y94.959 E19.03388
G1 X163.287 Y95.592 E19.06336
G1 X163.285 Y113.653 E19.90436
G1 X163.28 Y114.383 E19.93835
G1 X163.244 Y114.988 E19.96657
G1 X163.221 Y115.195 E19.97627
G1 X163.093 Y115.926 E20.01083
G1 X162.908 Y116.56 E20.04158
G1 X162.663 Y117.198 E20.0734
G1 X162.207 Y118.02 E20.11717
G1 X162.082 Y118.208 E20.12769
G1 X161.671 Y118.754 E20.15951
G1 X161.199 Y119.248 E20.19132
G1 X160.686 Y119.675 E20.2224
G1 X160.484 Y119.824 E20.23409
G1 X159.911 Y120.196 E20.2659
G1 X159.299 Y120.5 E20.29772
G1 X158.816 Y120.68 E20.32172
G1 X158.711 Y120.714 E20.32686
G1 X158.21 Y120.852 E20.35106
G1 X157.385 Y121.04 E20.39046
G1 X157.142 Y121.09 E20.40201
G1 X156.091 Y121.282 E20.45176
G1 X155.701 Y121.34 E20.47012
G1 X155.097 Y121.412 E20.49844
G1 X154.378 Y121.48 E20.53207
G1 X153.572 Y121.537 E20.5697
G1 X153.403 Y121.546 E20.57758
G1 X152.463 Y121.582 E20.62138
G1 X151.148 Y121.599 E20.68262
G1 X135.589 Y121.599 E21.40711
G1 X132.938 Y121.636 E21.53056
G1 X130.231 Y121.751 E21.65673
G1 X127.608 Y121.937 E21.77917
G1 X127.149 Y121.982 E21.80065
G1 X126.26 Y122.056 E21.84218
G1 X125.899 Y122.075 E21.85902
G1 X124.664 Y122.101 E21.91654
G1 X57.135 Y122.102 E25.06097
G1 X55.715 Y122.081 E25.1271
G1 X55.559 Y122.077 E25.13436
G1 X54.961 Y122.052 E25.16223
G1 X54.365 Y122.009 E25.19006
G1 X54.195 Y121.993 E25.19801
G1 X53.406 Y121.907 E25.23497
G1 X52.7 Y121.8 E25.26822
G1 X52.074 Y121.683 E25.29787
G1 X51.568 Y121.563 E25.32208
G1 X51.347 Y121.5 E25.33279
G1 X50.702 Y121.275 E25.36459
G1 X50.088 Y120.976 E25.39639
G1 X49.436 Y120.55 E25.43266
G1 X49.242 Y120.404 E25.44397
G1 X48.721 Y119.962 E25.47578
G1 X48.256 Y119.462 E25.50757
G1 X47.844 Y118.9 E25.54002
G1 X47.721 Y118.709 E25.5506
G1 X47.385 Y118.114 E25.58242
G1 X47.121 Y117.484 E25.61423
G1 X46.971 Y116.987 E25.6384
G1 X46.913 Y116.759 E25.64935
G1 X46.784 Y116.088 E25.68117
G1 X46.734 Y115.424 E25.71218
G1 X46.714 Y114.264 E25.7662
G1 X46.714 Y95.177 E26.65497
G1 X46.722 Y94.651 E26.67947
G1 X46.732 Y94.423 E26.69009
G1 X46.801 Y93.743 E26.72192
G1 X46.913 Y93.213 E26.74714
G1 X46.969 Y92.997 E26.75753
G1 X47.179 Y92.347 E26.78934
G1 X47.463 Y91.726 E26.82114
G1 X47.769 Y91.214 E26.84891
G1 X47.923 Y90.984 E26.8618
G1 X48.336 Y90.439 E26.89364
G1 X48.809 Y89.947 E26.92542
G1 X49.304 Y89.537 E26.95535
G1 X49.423 Y89.449 E26.96224
G1 X49.995 Y89.076 E26.99404
M204 S3000
M205 X10 Y10
G0 F3000 X50.301 Y89.546
M204 S1800
M205 X8 Y8
G1 F2400 X51.102 Y89.179 E27.03506
G1 X51.318 Y89.101 E27.04576
G1 X52.071 Y88.891 E27.08216
G1 X52.627 Y88.781 E27.10855
G1 X53.138 Y88.697 E27.13266
G1 X53.654 Y88.626 E27.15692
G1 X54.23 Y88.565 E27.18389
G1 X54.736 Y88.524 E27.20753
G1 X55.27 Y88.492 E27.23244
G1 X56.11 Y88.465 E27.27157
G1 X56.866 Y88.458 E27.30678
G1 X151.282 Y88.458 E31.70318
G1 X152.189 Y88.465 E31.74542
G1 X153.048 Y88.49 E31.78543
G1 X153.24 Y88.499 E31.79438
G1 X154.16 Y88.56 E31.83731
G1 X154.688 Y88.605 E31.86199
G1 X155.284 Y88.669 E31.8899
G1 X155.812 Y88.74 E31.91471
G1 X156.534 Y88.852 E31.94873
G1 X156.978 Y88.933 E31.96975
G1 X157.598 Y89.065 E31.99926
G1 X158.361 Y89.263 E32.03597
G1 X158.976 Y89.471 E32.0662
G1 X159.587 Y89.768 E32.09783
G1 X159.756 Y89.864 E32.10688
G1 X160.3 Y90.219 E32.13713
G1 X160.796 Y90.638 E32.16736
G1 X161.183 Y91.049 E32.19365
G1 X161.34 Y91.235 E32.20498
G1 X161.727 Y91.757 E32.23524
G1 X162.048 Y92.321 E32.26546
G1 X162.287 Y92.875 E32.29355
G1 X162.495 Y93.49 E32.32378
G1 X162.635 Y94.196 E32.3573
G1 X162.716 Y94.982 E32.39409
G1 X162.727 Y95.598 E32.42278
G1 X162.725 Y113.649 E33.26331
G1 X162.72 Y114.379 E33.2973
G1 X162.688 Y114.926 E33.32282
G1 X162.665 Y115.133 E33.33252
G1 X162.548 Y115.794 E33.36377
G1 X162.375 Y116.39 E33.39267
G1 X162.14 Y116.996 E33.42294
G1 X161.741 Y117.71 E33.46102
G1 X161.616 Y117.898 E33.47153
G1 X161.224 Y118.416 E33.50178
G1 X160.771 Y118.882 E33.53204
G1 X160.353 Y119.224 E33.55719
G1 X160.151 Y119.373 E33.56888
G1 X159.606 Y119.726 E33.59912
G1 X159.021 Y120.009 E33.62938
G1 X158.539 Y120.181 E33.65321
G1 X158.085 Y120.306 E33.67513
G1 X157.26 Y120.494 E33.71453
G1 X157.041 Y120.539 E33.72494
G1 X156.001 Y120.729 E33.77417
G1 X155.635 Y120.784 E33.79141
G1 X154.891 Y120.871 E33.82629
G1 X154.204 Y120.933 E33.85841
G1 X153.534 Y120.979 E33.88968
G1 X153.381 Y120.987 E33.89681
G1 X152.456 Y121.022 E33.93991
G1 X151.141 Y121.039 E34.00115
G1 X135.581 Y121.039 E34.72569
G1 X132.906 Y121.077 E34.85026
G1 X130.24 Y121.19 E34.97451
G1 X127.548 Y121.381 E35.10018
G1 X127.103 Y121.424 E35.121
G1 X126.214 Y121.498 E35.16254
G1 X125.887 Y121.515 E35.17778
G1 X124.541 Y121.542 E35.24047
G1 X57.056 Y121.541 E38.38286
G1 X55.724 Y121.521 E38.44489
G1 X55.582 Y121.517 E38.4515
G1 X54.984 Y121.492 E38.47937
G1 X54.409 Y121.45 E38.50622
G1 X54.256 Y121.436 E38.51337
G1 X53.467 Y121.35 E38.55033
G1 X52.789 Y121.248 E38.58225
G1 X52.179 Y121.133 E38.61116
G1 X51.501 Y120.962 E38.64372
G1 X50.888 Y120.746 E38.67398
G1 X50.307 Y120.456 E38.70422
G1 X49.773 Y120.103 E38.73402
G1 X49.579 Y119.957 E38.74533
G1 X49.085 Y119.535 E38.77558
G1 X48.647 Y119.056 E38.80581
G1 X48.315 Y118.597 E38.83218
G1 X48.192 Y118.406 E38.84276
G1 X47.874 Y117.839 E38.87303
G1 X47.629 Y117.237 E38.9033
G1 X47.456 Y116.621 E38.93309
G1 X47.335 Y115.982 E38.96337
G1 X47.294 Y115.414 E38.98989
G1 X47.274 Y114.264 E39.04345
G1 X47.274 Y95.181 E39.93203
G1 X47.281 Y94.676 E39.95555
G1 X47.291 Y94.448 E39.96618
G1 X47.359 Y93.802 E39.99642
G1 X47.511 Y93.138 E40.02814
G1 X47.712 Y92.52 E40.0584
G1 X47.988 Y91.932 E40.08865
G1 X48.389 Y91.295 E40.1237
G1 X48.783 Y90.779 E40.15393
G1 X49.237 Y90.315 E40.18416
G1 X49.637 Y89.988 E40.20821
G1 X49.756 Y89.9 E40.2151
G1 X50.301 Y89.546 E40.24537
M204 S3000
M205 X10 Y10
G1 F2400 E34.24537
;MESH:DF assignment4.stl
G0 F3000 X56.396 Y93.074
G0 X56.423 Y94.598
G0 X126.526 Y114.361
M204 S1800
M205 X8 Y8
;TYPE:WALL-INNER
G1 F2400 E40.24537
G1 F1500 X125.951 Y114.755 E40.27782
G1 X125.77 Y114.827 E40.28689
G1 X125.495 Y114.862 E40.2998
G1 X56.448 Y114.862 E43.51492
G1 X55.298 Y114.829 E43.56849
G1 X54.937 Y114.79 E43.5854
G1 X54.233 Y114.723 E43.61833
G1 X53.954 Y114.674 E43.63152
G1 X53.954 Y95.323 E44.53258
G1 X54.042 Y95.306 E44.53675
G1 X54.81 Y95.21 E44.57279
G1 X55.601 Y95.154 E44.60972
G1 X56.434 Y95.138 E44.64851
G1 X151.635 Y95.138 E49.08147
G1 X152.651 Y95.153 E49.12878
G1 X153.597 Y95.208 E49.17291
G1 X153.816 Y95.231 E49.18316
G1 X154.549 Y95.301 E49.21745
G1 X155.353 Y95.419 E49.25529
G1 X156.019 Y95.549 E49.28689
G1 X156.047 Y95.556 E49.28823
G1 X156.046 Y113.941 E50.14431
G1 X155.563 Y114.04 E50.16727
G1 X154.996 Y114.135 E50.19404
G1 X154.388 Y114.215 E50.22259
G1 X153.063 Y114.324 E50.2845
G1 X151.622 Y114.359 E50.35162
G1 X129.331 Y114.359 E51.38958
G1 X127.981 Y114.362 E51.45244
G1 X126.526 Y114.361 E51.52019
M204 S3000
M205 X10 Y10
G0 F3000 X126.699 Y114.921
M204 S1800
M205 X8 Y8
G1 F1500 X126.216 Y115.252 E51.54746
G1 X125.912 Y115.374 E51.56271
G1 X125.533 Y115.422 E51.5805
G1 X56.432 Y115.422 E54.79813
G1 X55.26 Y115.388 E54.85273
G1 X54.881 Y115.347 E54.87048
G1 X54.171 Y115.28 E54.90369
G1 X53.394 Y115.143 E54.94043
G1 X53.394 Y94.856 E55.88507
G1 X53.96 Y94.752 E55.91187
G1 X54.756 Y94.652 E55.94923
G1 X55.57 Y94.594 E55.98723
G1 X56.423 Y94.578 E56.02695
G1 X151.643 Y94.578 E60.46079
G1 X152.669 Y94.593 E60.50857
G1 X153.648 Y94.65 E60.55424
G1 X153.872 Y94.674 E60.56473
G1 X154.606 Y94.743 E60.59906
G1 X155.456 Y94.868 E60.63906
G1 X156.136 Y95.001 E60.67133
G1 X156.589 Y95.115 E60.69308
G1 X156.607 Y95.163 E60.69546
G1 X156.606 Y114.22 E61.58284
G1 X156.582 Y114.378 E61.59028
G1 X156.212 Y114.479 E61.60814
G1 X155.676 Y114.589 E61.63362
G1 X155.079 Y114.689 E61.6618
G1 X154.445 Y114.772 E61.69158
G1 X153.088 Y114.884 E61.75498
G1 X151.635 Y114.919 E61.82266
G1 X129.332 Y114.919 E62.86118
G1 X127.982 Y114.922 E62.92404
G1 X126.699 Y114.921 E62.98378
M204 S3000
M205 X10 Y10
G0 F3000 X126.873 Y115.481
M204 S1800
M205 X8 Y8
;TYPE:WALL-OUTER
G1 F1500 X126.483 Y115.749 E63.00582
G1 X126.052 Y115.921 E63.02742
G1 X125.573 Y115.982 E63.04991
G1 X56.416 Y115.982 E66.27015
G1 X55.222 Y115.947 E66.32577
G1 X54.824 Y115.904 E66.34441
G1 X54.097 Y115.835 E66.37841
G1 X53.139 Y115.666 E66.42371
G1 X52.966 Y115.574 E66.43284
G1 X52.859 Y115.395 E66.44255
G1 X52.834 Y115.208 E66.45133
G1 X52.834 Y94.781 E67.4025
G1 X52.879 Y94.554 E67.41327
G1 X53.005 Y94.396 E67.42268
G1 X53.147 Y94.332 E67.42994
G1 X53.878 Y94.198 E67.46454
G1 X54.702 Y94.094 E67.50321
G1 X55.538 Y94.034 E67.54224
G1 X56.413 Y94.018 E67.58299
G1 X151.651 Y94.018 E72.01767
G1 X152.693 Y94.033 E72.0662
G1 X153.191 Y94.065 E72.08944
G1 X153.702 Y94.092 E72.11326
G1 X153.929 Y94.117 E72.1239
G1 X154.666 Y94.186 E72.15836
G1 X155.556 Y94.317 E72.20025
G1 X156.248 Y94.452 E72.23308
G1 X156.869 Y94.608 E72.2629
G1 X157.044 Y94.735 E72.27297
G1 X157.159 Y95.039 E72.2881
G1 X157.167 Y95.116 E72.29171
G1 X157.166 Y114.266 E73.18341
G1 X157.106 Y114.659 E73.20192
G1 X156.938 Y114.861 E73.21416
G1 X156.344 Y115.023 E73.24282
G1 X155.776 Y115.14 E73.26983
G1 X155.16 Y115.243 E73.29891
G1 X154.499 Y115.329 E73.32995
G1 X153.113 Y115.444 E73.39471
G1 X151.648 Y115.479 E73.46294
G1 X129.333 Y115.479 E74.50202
G1 X127.982 Y115.482 E74.56493
G1 X126.873 Y115.481 E74.61657
M204 S3000
M205 X10 Y10
G0 F3000 X126.709 Y115.594
G0 X126.336 Y115.049
G0 X125.689 Y114.267
M204 S1800
M205 X8 Y8
;TYPE:SKIN
G1 F1500 X125.458 Y114.312 E74.62753
G1 X56.464 Y114.312 E77.84018
G1 X55.323 Y114.279 E77.89333
G1 X54.504 Y114.196 E77.93166
G1 X54.504 Y95.803 E78.78812
G1 X54.878 Y95.756 E78.80567
G1 X55.612 Y95.704 E78.83993
G1 X56.444 Y95.688 E78.87868
G1 X151.627 Y95.688 E83.3108
G1 X152.619 Y95.703 E83.357
G1 X153.581 Y95.758 E83.40187
G1 X153.76 Y95.779 E83.41026
G1 X154.496 Y95.849 E83.44469
G1 X155.251 Y95.959 E83.48021
G1 X155.497 Y96.007 E83.49188
G1 X155.496 Y113.492 E84.30606
G1 X155.463 Y113.5 E84.30764
G1 X154.924 Y113.589 E84.33308
G1 X154.316 Y113.669 E84.36163
G1 X153.04 Y113.774 E84.42125
G1 X151.608 Y113.809 E84.48795
G1 X129.331 Y113.809 E85.52526
G1 X127.981 Y113.812 E85.58812
G1 X126.355 Y113.811 E85.66383
G1 X125.689 Y114.267 E85.70142
M204 S3000
M205 X10 Y10
G0 F3000 X155.236 Y96.631
M204 S1800
M205 X8 Y8
G1 F1500 X154.755 Y96.15 E85.73309
M204 S3000
M205 X10 Y10
G0 F3000 X153.862 Y96.049
M204 S1800
M205 X8 Y8
G1 F1500 X155.236 Y97.423 E85.82357
M204 S3000
M205 X10 Y10
G0 F3000 X155.236 Y98.215
M204 S1800
M205 X8 Y8
G1 F1500 X153.007 Y95.986 E85.97036
M204 S3000
M205 X10 Y10
G0 F3000 X152.186 Y95.957
M204 S1800
M205 X8 Y8
G1 F1500 X155.236 Y99.006 E86.17117
M204 S3000
M205 X10 Y10
G0 F3000 X155.236 Y99.798
M204 S1800
