;FLAVOR:Marlin
;TIME:945
;Filament used: 0.726054m
;Layer height: 0.2
;MINX:61.667
;MINY:54.454
;MINZ:0.2
;MAXX:177.635
;MAXY:145.01
;MAXZ:2.6
;Generated with Cura_SteamEngine 4.11.0
M140 S60
M105
M190 S60
M104 S200
M105
M109 S200
M82 ;absolute extrusion mode
G21 ;metric values
G90 ;absolute positioning
M82 ;set extruder to absolute mode
M107 ;start with the fan off
G28 X0 Y0 ;move X/Y to min endstops
G28 Z0 ;move Z to min endstops
G1 Z15.0 F100 ;move the platform down 15mm
G92 E0 ;zero the extruded length
G1 F200 E3 ;extrude 3mm of feed stock
G92 E0 ;zero the extruded length again
G1 F100
G0 Y20 F100
M117 Printing...
G5
G92 E0
G92 E0
G1 F2400 E-6
;LAYER_COUNT:13
;LAYER:0
M107
M204 S3000
M205 X10 Y10
G1 F600 Z0.275
G0 F3000 X89.59 Y59.458 Z0.275
M204 S1800
M205 X8 Y8
;TYPE:SKIRT
G1 F600 Z0.2
G1 F2400 E0
G1 X89.665 Y59.355 E0.00593
G1 X90.037 Y58.911 E0.0329
G1 X90.319 Y58.498 E0.05619
G1 X90.381 Y58.412 E0.06113
G1 X90.751 Y57.966 E0.08811
G1 X90.811 Y57.905 E0.0921
G1 X91.116 Y57.412 E0.11909
G1 X91.485 Y56.965 E0.14608
G1 X91.866 Y56.611 E0.1703
G1 X92.016 Y56.488 E0.17933
G1 X92.488 Y56.153 E0.20628
G1 X93.002 Y55.885 E0.23327
G1 X93.548 Y55.691 E0.26025
G1 X94.115 Y55.574 E0.28721
G1 X94.736 Y55.489 E0.3164
G1 X95.314 Y55.45 E0.34337
G1 X95.892 Y55.491 E0.37035
G1 X96.459 Y55.611 E0.39734
G1 X97.004 Y55.808 E0.42433
G1 X97.516 Y56.077 E0.45126
G1 X98.169 Y56.576 E0.48953
G1 X98.4 Y56.791 E0.50422
G1 X98.796 Y57.214 E0.5312
G1 X99.13 Y57.687 E0.55816
G1 X99.396 Y58.202 E0.58515
G1 X99.588 Y58.748 E0.6121
G1 X99.703 Y59.316 E0.63909
G1 X99.739 Y59.894 E0.66605
G1 X99.651 Y60.721 E0.70478
G1 X99.457 Y61.653 E0.74911
G1 X99.253 Y62.778 E0.80235
G1 X99.145 Y63.253 E0.82503
G1 X98.939 Y63.795 E0.85203
G1 X98.66 Y64.303 E0.87902
G1 X98.362 Y64.711 E0.90254
G1 X98.266 Y64.827 E0.90955
G1 X97.866 Y65.247 E0.93656
G1 X97.413 Y65.607 E0.9635
G1 X96.915 Y65.902 E0.99046
G1 X96.458 Y66.099 E1.01363
G1 X95.978 Y66.273 E1.0374
G1 X95.265 Y66.539 E1.07284
G1 X94.448 Y66.838 E1.11335
G1 X93.892 Y66.999 E1.1403
G1 X93.319 Y67.082 E1.16726
G1 X92.739 Y67.086 E1.19427
G1 X92.165 Y67.009 E1.22124
G1 X91.607 Y66.854 E1.2482
G1 X91.075 Y66.624 E1.27519
G1 X90.58 Y66.323 E1.30217
G1 X90.131 Y65.957 E1.32914
G1 X89.606 Y65.391 E1.36509
G1 X89.253 Y64.931 E1.39209
G1 X88.967 Y64.428 E1.41903
G1 X88.752 Y63.89 E1.44601
G1 X88.614 Y63.327 E1.473
G1 X88.554 Y62.751 E1.49997
G1 X88.575 Y62.172 E1.52695
G1 X88.674 Y61.601 E1.55393
G1 X88.852 Y61.05 E1.58089
G1 X88.973 Y60.686 E1.59876
G1 X89.183 Y60.146 E1.62573
G1 X89.59 Y59.458 E1.66296
M204 S3000
M205 X10 Y10
G0 F3000 X90.042 Y59.787
M204 S1800
M205 X8 Y8
G1 F2400 X90.117 Y59.684 E1.66889
G1 X90.466 Y59.273 E1.694
G1 X90.569 Y59.183 E1.70036
G1 X90.835 Y58.739 E1.72447
G1 X91.182 Y58.326 E1.74958
G1 X91.277 Y58.242 E1.75549
G1 X91.342 Y58.1 E1.76276
G1 X91.637 Y57.648 E1.78789
G1 X91.996 Y57.245 E1.81302
G1 X92.371 Y56.921 E1.8361
G1 X92.812 Y56.611 E1.8612
G1 X93.294 Y56.37 E1.88629
G1 X93.807 Y56.202 E1.91143
G1 X94.338 Y56.112 E1.93651
G1 X94.85 Y56.039 E1.96059
G1 X95.388 Y56.011 E1.98568
G1 X95.925 Y56.063 E2.0108
G1 X96.448 Y56.193 E2.03589
G1 X96.946 Y56.4 E2.061
G1 X97.409 Y56.677 E2.08613
G1 X98.019 Y57.201 E2.12357
G1 X98.385 Y57.596 E2.14865
G1 X98.689 Y58.042 E2.17378
G1 X98.924 Y58.527 E2.19888
G1 X99.085 Y59.042 E2.224
G1 X99.167 Y59.575 E2.24911
G1 X99.17 Y60.114 E2.27421
G1 X99.103 Y60.607 E2.29738
G1 X98.909 Y61.539 E2.34171
G1 X98.84 Y61.91 E2.35928
G1 X98.706 Y62.66 E2.39475
G1 X98.598 Y63.126 E2.41703
G1 X98.398 Y63.627 E2.44215
G1 X98.127 Y64.093 E2.46725
G1 X97.834 Y64.47 E2.48948
G1 X97.461 Y64.859 E2.51458
G1 X97.034 Y65.188 E2.53968
G1 X96.563 Y65.451 E2.56479
G1 X95.809 Y65.738 E2.60236
G1 X95.073 Y66.013 E2.63895
G1 X94.256 Y66.312 E2.67946
G1 X93.737 Y66.46 E2.70459
G1 X93.202 Y66.529 E2.72971
G1 X92.663 Y66.518 E2.75481
G1 X92.132 Y66.428 E2.77989
G1 X91.619 Y66.26 E2.80502
G1 X91.137 Y66.018 E2.83014
G1 X90.696 Y65.708 E2.85524
G1 X90.279 Y65.306 E2.88221
G1 X90.026 Y65.02 E2.89999
G1 X89.699 Y64.591 E2.92511
G1 X89.44 Y64.118 E2.95022
G1 X89.253 Y63.612 E2.97534
G1 X89.143 Y63.084 E3.00045
G1 X89.113 Y62.546 E3.02554
G1 X89.162 Y62.008 E3.0507
G1 X89.29 Y61.485 E3.07577
G1 X89.453 Y61.091 E3.09562
G1 X89.52 Y60.816 E3.1088
G1 X89.722 Y60.316 E3.13391
G1 X90.042 Y59.787 E3.1627
M204 S3000
M205 X10 Y10
G0 F3000 X90.57 Y60.014
M204 S1800
M205 X8 Y8
G1 F2400 X90.999 Y59.549 E3.19216
G1 X91.29 Y59.067 E3.21838
G1 X91.73 Y58.594 E3.24846
G1 X91.872 Y58.301 E3.26362
G1 X92.157 Y57.895 E3.28672
G1 X92.576 Y57.477 E3.31428
G1 X93.134 Y57.072 E3.34638
G1 X93.581 Y56.858 E3.36946
G1 X94.057 Y56.719 E3.39255
G1 X94.617 Y56.657 E3.41878
G1 X94.96 Y56.59 E3.43506
G1 X95.455 Y56.574 E3.45812
G1 X95.947 Y56.637 E3.48121
G1 X96.423 Y56.779 E3.50434
G1 X96.869 Y56.995 E3.52742
G1 X97.406 Y57.395 E3.5586
G1 X97.972 Y57.976 E3.59637
G1 X98.244 Y58.392 E3.61951
G1 X98.445 Y58.845 E3.64259
G1 X98.571 Y59.324 E3.66565
G1 X98.619 Y59.818 E3.68876
G1 X98.554 Y60.493 E3.72034
G1 X98.373 Y61.363 E3.76172
G1 X98.204 Y62.286 E3.80541
G1 X98.052 Y62.996 E3.83922
G1 X97.859 Y63.453 E3.86232
G1 X97.499 Y63.997 E3.89269
G1 X97.057 Y64.468 E3.92277
G1 X96.658 Y64.763 E3.94588
G1 X96.077 Y65.046 E3.97597
G1 X95.579 Y65.226 E4.00063
G1 X94.903 Y65.479 E4.03424
G1 X94.064 Y65.786 E4.07584
G1 X93.586 Y65.919 E4.09894
G1 X93.093 Y65.973 E4.12203
G1 X92.597 Y65.947 E4.14516
G1 X92.112 Y65.842 E4.16827
G1 X91.651 Y65.66 E4.19135
G1 X91.224 Y65.407 E4.21446
G1 X90.698 Y64.935 E4.24737
G1 X90.147 Y64.252 E4.28823
G1 X89.917 Y63.813 E4.31131
G1 X89.761 Y63.342 E4.33441
G1 X89.682 Y62.852 E4.35752
G1 X89.682 Y62.356 E4.38062
G1 X89.762 Y61.867 E4.40369
G1 X89.986 Y61.268 E4.43347
G1 X90.065 Y60.95 E4.44872
G1 X90.26 Y60.494 E4.47182
G1 X90.57 Y60.014 E4.49842
M204 S3000
M205 X10 Y10
G0 F3000 X90.948 Y60.447
M204 S1800
M205 X8 Y8
G1 F2400 X91.318 Y60.006 E4.52523
G1 X91.448 Y59.877 E4.53376
G1 X91.744 Y59.394 E4.56013
G1 X92.037 Y59.055 E4.581
G1 X92.195 Y58.91 E4.59098
G1 X92.4 Y58.511 E4.61187
G1 X92.672 Y58.155 E4.63273
G1 X93.081 Y57.787 E4.65835
G1 X93.452 Y57.535 E4.67924
G1 X93.862 Y57.352 E4.70014
G1 X94.297 Y57.245 E4.721
G1 X95.066 Y57.142 E4.75713
G1 X95.514 Y57.138 E4.77799
G1 X95.956 Y57.215 E4.79888
G1 X96.378 Y57.368 E4.81978
G1 X96.765 Y57.594 E4.84065
G1 X97.256 Y58.02 E4.87092
G1 X97.556 Y58.354 E4.89183
G1 X97.792 Y58.735 E4.9127
G1 X97.956 Y59.153 E4.9336
G1 X98.044 Y59.593 E4.9545
G1 X98.053 Y60.041 E4.97536
G1 X98.006 Y60.379 E4.99125
G1 X97.812 Y61.311 E5.03558
G1 X97.739 Y61.704 E5.05419
G1 X97.647 Y62.222 E5.07869
G1 X97.506 Y62.862 E5.10921
G1 X97.321 Y63.27 E5.13007
G1 X96.971 Y63.756 E5.15796
G1 X96.656 Y64.074 E5.1788
G1 X96.289 Y64.332 E5.19969
G1 X95.887 Y64.519 E5.22033
G1 X95.389 Y64.699 E5.24499
G1 X94.688 Y64.961 E5.27984
G1 X93.871 Y65.26 E5.32035
G1 X93.438 Y65.377 E5.34123
G1 X92.991 Y65.414 E5.36212
G1 X92.544 Y65.372 E5.38302
G1 X92.112 Y65.251 E5.40391
G1 X91.709 Y65.055 E5.42478
G1 X91.346 Y64.791 E5.44568
G1 X90.865 Y64.278 E5.47843
G1 X90.598 Y63.917 E5.49933
G1 X90.401 Y63.514 E5.52022
G1 X90.277 Y63.083 E5.5411
G1 X90.232 Y62.637 E5.56198
G1 X90.267 Y62.189 E5.5829
G1 X90.381 Y61.755 E5.6038
G1 X90.519 Y61.44 E5.61981
G1 X90.61 Y61.087 E5.63678
G1 X90.948 Y60.447 E5.67049
M204 S3000
M205 X10 Y10
G0 F3000 X91.401 Y60.776
M204 S1800
M205 X8 Y8
G1 F2400 X91.739 Y60.379 E5.69476
G1 X91.904 Y60.262 E5.70418
G1 X92.136 Y59.808 E5.72792
G1 X92.461 Y59.426 E5.75128
G1 X92.671 Y59.265 E5.7636
G1 X92.731 Y59.078 E5.77274
G1 X92.925 Y58.733 E5.79117
G1 X93.286 Y58.343 E5.81592
G1 X93.766 Y58.002 E5.84334
G1 X94.132 Y57.854 E5.86172
G1 X94.645 Y57.776 E5.88588
G1 X95.166 Y57.695 E5.91043
G1 X95.561 Y57.706 E5.92883
G1 X95.946 Y57.797 E5.94725
G1 X96.305 Y57.963 E5.96567
G1 X96.874 Y58.43 E5.99995
G1 X97.135 Y58.728 E6.01839
G1 X97.331 Y59.071 E6.03679
G1 X97.454 Y59.447 E6.05521
G1 X97.499 Y59.84 E6.07363
G1 X97.458 Y60.264 E6.09346
G1 X97.272 Y61.157 E6.13594
G1 X97.189 Y61.601 E6.15697
G1 X97.096 Y62.124 E6.18171
G1 X96.961 Y62.721 E6.21021
G1 X96.786 Y63.076 E6.22864
G1 X96.54 Y63.399 E6.24754
G1 X96.258 Y63.676 E6.26595
G1 X95.927 Y63.892 E6.28435
G1 X95.696 Y63.992 E6.29607
G1 X95.22 Y64.164 E6.31964
G1 X94.496 Y64.436 E6.35565
G1 X93.679 Y64.735 E6.39616
G1 X93.295 Y64.832 E6.41461
G1 X92.9 Y64.851 E6.43302
G1 X92.51 Y64.79 E6.4514
G1 X92.139 Y64.652 E6.46983
G1 X91.804 Y64.443 E6.48822
G1 X91.284 Y63.907 E6.52299
G1 X91.053 Y63.586 E6.54141
G1 X90.892 Y63.225 E6.55981
G1 X90.806 Y62.839 E6.57823
G1 X90.799 Y62.443 E6.59667
G1 X90.872 Y62.054 E6.6151
G1 X91.051 Y61.613 E6.63726
G1 X91.154 Y61.231 E6.65568
G1 X91.401 Y60.776 E6.67979
M204 S3000
M205 X10 Y10
G0 F3000 X91.928 Y61.003
M204 S1800
M205 X8 Y8
G1 F2400 X92.156 Y60.758 E6.69538
G1 X92.374 Y60.589 E6.70822
G1 X92.59 Y60.135 E6.73163
G1 X92.879 Y59.804 E6.75209
G1 X93.159 Y59.57 E6.76908
G1 X93.267 Y59.254 E6.78463
G1 X93.446 Y58.972 E6.80019
G1 X93.791 Y58.653 E6.82207
G1 X94.073 Y58.474 E6.83762
G1 X94.389 Y58.366 E6.85317
G1 X94.928 Y58.302 E6.87844
G1 X95.258 Y58.251 E6.89399
G1 X95.591 Y58.279 E6.90955
G1 X95.908 Y58.385 E6.92512
G1 X96.262 Y58.625 E6.94503
G1 X96.708 Y59.095 E6.9752
G1 X96.858 Y59.394 E6.99078
G1 X96.931 Y59.72 E7.00633
G1 X96.91 Y60.15 E7.02638
G1 X96.716 Y61.082 E7.07071
G1 X96.638 Y61.498 E7.09042
G1 X96.549 Y61.999 E7.11411
G1 X96.418 Y62.573 E7.14153
G1 X96.109 Y63.042 E7.16768
G1 X95.866 Y63.272 E7.18326
G1 X95.506 Y63.466 E7.2023
G1 X95.008 Y63.646 E7.22696
G1 X94.313 Y63.906 E7.26151
G1 X93.486 Y64.209 E7.30252
G1 X93.161 Y64.285 E7.31806
G1 X92.827 Y64.283 E7.33362
G1 X92.503 Y64.201 E7.34918
G1 X92.208 Y64.045 E7.36472
G1 X91.703 Y63.536 E7.3981
G1 X91.513 Y63.261 E7.41367
G1 X91.394 Y62.949 E7.42922
G1 X91.352 Y62.617 E7.4448
G1 X91.39 Y62.285 E7.46036
G1 X91.584 Y61.816 E7.48399
G1 X91.697 Y61.382 E7.50488
G1 X91.928 Y61.003 E7.52554
M204 S3000
M205 X10 Y10
G0 F3000 X92.306 Y61.436
M204 S1800
M205 X8 Y8
G1 F2400 X92.657 Y61.09 E7.54849
G1 X92.85 Y60.976 E7.55893
G1 X93.045 Y60.463 E7.58449
G1 X93.342 Y60.156 E7.60438
G1 X93.648 Y59.964 E7.6212
G1 X93.799 Y59.444 E7.64641
G1 X94.146 Y59.086 E7.66963
G1 X94.369 Y58.955 E7.68167
G1 X94.899 Y58.892 E7.70652
G1 X95.337 Y58.81 E7.72727
G1 X95.591 Y58.859 E7.73932
G1 X95.88 Y59.035 E7.75507
G1 X96.271 Y59.453 E7.78172
G1 X96.362 Y59.695 E7.79376
G1 X96.361 Y60.036 E7.80964
G1 X96.171 Y60.951 E7.85316
G1 X96.088 Y61.395 E7.87419
G1 X95.993 Y61.927 E7.89935
G1 X95.877 Y62.41 E7.92248
G1 X95.677 Y62.685 E7.93832
G1 X95.484 Y62.856 E7.95032
G1 X95.316 Y62.939 E7.95905
G1 X94.827 Y63.116 E7.98327
G1 X94.111 Y63.384 E8.01886
G1 X93.294 Y63.683 E8.05937
G1 X93.04 Y63.733 E8.07143
G1 X92.783 Y63.704 E8.08347
G1 X92.548 Y63.599 E8.09546
G1 X92.123 Y63.165 E8.12374
G1 X91.983 Y62.947 E8.13581
G1 X91.917 Y62.697 E8.14785
G1 X91.929 Y62.439 E8.15987
G1 X92.156 Y61.794 E8.19171
G1 X92.306 Y61.436 E8.20979
M204 S3000
M205 X10 Y10
G0 F3000 X92.759 Y61.765
M204 S1800
M205 X8 Y8
G1 F2400 X92.926 Y61.581 E8.22136
G1 X93.333 Y61.358 E8.24297
G1 X93.499 Y60.79 E8.27052
G1 X93.639 Y60.631 E8.28039
G1 X94.085 Y60.351 E8.30491
G1 X94.16 Y60.252 E8.31069
G1 X94.255 Y59.801 E8.33215
G1 X94.351 Y59.642 E8.3408
G1 X94.501 Y59.519 E8.34983
G1 X94.674 Y59.456 E8.35841
G1 X94.981 Y59.451 E8.3727
G1 X95.232 Y59.38 E8.38485
G1 X95.38 Y59.38 E8.39174
G1 X95.73 Y59.66 E8.41261
G1 X95.808 Y59.786 E8.41951
G1 X95.813 Y59.922 E8.42585
G1 X95.619 Y60.854 E8.47018
G1 X95.538 Y61.29 E8.49083
G1 X95.442 Y61.829 E8.51632
G1 X95.342 Y62.212 E8.53475
G1 X95.125 Y62.412 E8.54849
G1 X94.627 Y62.592 E8.57315
G1 X93.918 Y62.858 E8.60841
G1 X93.101 Y63.157 E8.64892
G1 X92.953 Y63.169 E8.65584
G1 X92.795 Y63.08 E8.66428
G1 X92.542 Y62.794 E8.68206
G1 X92.477 Y62.66 E8.689
G1 X92.503 Y62.48 E8.69746
G1 X92.662 Y62.169 E8.71373
G1 X92.759 Y61.765 E8.73307
M204 S3000
M205 X10 Y10
G1 F2400 E2.73307
G0 F3000 X87.669 Y64.788
M204 S1800
M205 X8 Y8
G1 F2400 E8.73307
G1 X88.208 Y65.001 E8.76006
G1 X88.842 Y65.355 E8.79387
G1 X89.321 Y65.681 E8.82085
G1 X89.751 Y66.07 E8.84785
G1 X90.123 Y66.514 E8.87482
G1 X90.43 Y67.005 E8.90179
G1 X90.667 Y67.534 E8.92878
G1 X90.821 Y68.066 E8.95457
G1 X91.08 Y68.001 E8.967
G1 X91.651 Y67.9 E8.994
G1 X92.23 Y67.878 E9.02099
G1 X92.806 Y67.936 E9.04794
G1 X93.369 Y68.073 E9.07492
G1 X93.908 Y68.286 E9.10191
G1 X94.38 Y68.545 E9.12698
G1 X94.424 Y68.556 E9.12909
G1 X94.963 Y68.769 E9.15608
G1 X95.597 Y69.123 E9.18989
G1 X95.79 Y69.254 E9.20075
G1 X96.308 Y69.311 E9.22502
G1 X96.878 Y69.414 E9.25199
G1 X97.429 Y69.594 E9.27898
G1 X97.949 Y69.848 E9.30593
G1 X98.429 Y70.171 E9.33287
G1 X98.915 Y70.549 E9.36154
G1 X99.346 Y70.935 E9.38848
G1 X99.721 Y71.377 E9.41547
G1 X100.031 Y71.867 E9.44247
G1 X100.202 Y72.222 E9.46082
G1 X100.433 Y72.766 E9.48834
G1 X100.593 Y73.229 E9.51115
G1 X100.614 Y73.16 E9.5145
G1 X100.86 Y72.635 E9.5415
G1 X101.175 Y72.149 E9.56847
G1 X101.541 Y71.725 E9.59455
G1 X101.762 Y71.501 E9.6092
G1 X102.197 Y71.118 E9.63619
G1 X102.679 Y70.798 E9.66313
G1 X103.202 Y70.548 E9.69012
G1 X103.678 Y70.391 E9.71346
G1 X103.954 Y70.318 E9.72676
G1 X104.523 Y70.208 E9.75374
G1 X105.102 Y70.179 E9.78074
G1 X105.679 Y70.229 E9.8077
G1 X106.091 Y70.313 E9.82728
G1 X106.644 Y70.484 E9.85424
G1 X107.169 Y70.729 E9.88121
G1 X107.626 Y71.022 E9.90649
G1 X107.835 Y71.176 E9.91858
G1 X108.277 Y71.551 E9.94557
G1 X108.811 Y72.187 E9.98424
G1 X108.865 Y72.266 E9.9887
G1 X109.159 Y72.766 E10.0157
G1 X109.437 Y73.484 E10.05156
G1 X109.514 Y73.754 E10.06463
G1 X109.634 Y74.321 E10.09162
G1 X109.674 Y74.878 E10.11762
G1 X109.792 Y74.907 E10.12328
G1 X110.331 Y75.12 E10.15026
G1 X110.965 Y75.474 E10.18408
G1 X111.444 Y75.8 E10.21106
G1 X111.502 Y75.852 E10.21468
G1 X111.529 Y75.576 E10.2276
G1 X111.665 Y75.013 E10.25457
G1 X111.846 Y74.541 E10.2781
G1 X111.965 Y74.279 E10.2915
G1 X112.24 Y73.769 E10.31848
G1 X112.583 Y73.303 E10.34543
G1 X112.987 Y72.887 E10.37243
G1 X113.444 Y72.531 E10.3994
G1 X113.946 Y72.242 E10.42638
G1 X114.483 Y72.024 E10.45336
G1 X114.988 Y71.893 E10.47766
G1 X116.399 Y71.619 E10.54458
G1 X116.912 Y71.509 E10.56902
G1 X117.459 Y71.384 E10.59514
G1 X118.343 Y71.163 E10.63757
G1 X119.17 Y70.934 E10.67753
G1 X119.602 Y70.806 E10.69851
G1 X120.168 Y70.68 E10.72551
G1 X120.745 Y70.633 E10.75247
G1 X121.323 Y70.666 E10.77942
G1 X121.892 Y70.779 E10.80644
G1 X122.439 Y70.968 E10.83339
G1 X122.955 Y71.231 E10.86035
G1 X123.47 Y71.595 E10.88972
G1 X123.7 Y71.785 E10.90361
G1 X124.12 Y72.184 E10.93059
G1 X124.481 Y72.637 E10.95756
G1 X124.777 Y73.135 E10.98453
G1 X125.001 Y73.669 E11.0115
G1 X125.149 Y74.229 E11.03847
G1 X125.219 Y74.804 E11.06544
G1 X125.203 Y75.45 E11.09553
G1 X125.156 Y75.957 E11.11924
G1 X125.081 Y76.531 E11.1462
G1 X124.928 Y77.09 E11.17318
G1 X124.7 Y77.622 E11.20013
G1 X124.238 Y78.336 E11.23973
G1 X124.128 Y78.473 E11.24791
G1 X123.735 Y78.898 E11.27487
G1 X123.287 Y79.266 E11.30186
G1 X123.093 Y79.384 E11.31244
G1 X122.79 Y79.714 E11.3333
G1 X122.355 Y80.096 E11.36026
G1 X122.186 Y80.208 E11.3697
G1 X121.8 Y80.61 E11.39565
G1 X121.708 Y80.691 E11.40136
G1 X121.248 Y81.043 E11.42833
G1 X121.133 Y81.108 E11.43448
G1 X120.661 Y81.543 E11.46437
G1 X120.47 Y81.684 E11.47542
G1 X120.044 Y82.077 E11.50241
G1 X119.569 Y82.407 E11.52934
G1 X119.052 Y82.669 E11.55633
G1 X118.504 Y82.857 E11.58331
G1 X117.935 Y82.968 E11.6103
G1 X117.146 Y83.005 E11.64708
G1 X116.567 Y82.973 E11.67408
G1 X116.309 Y82.923 E11.68632
G1 X116.554 Y83.253 E11.70546
G1 X116.932 Y83.595 E11.72919
G1 X117.304 Y84.039 E11.75617
G1 X117.611 Y84.53 E11.78313
G1 X117.848 Y85.059 E11.81012
G1 X118.009 Y85.615 E11.83707
G1 X118.077 Y85.947 E11.85285
G1 X118.507 Y86.336 E11.87985
G1 X118.833 Y86.725 E11.90349
G1 X119.27 Y87.119 E11.93089
G1 X119.642 Y87.563 E11.95786
G1 X119.949 Y88.054 E11.98482
G1 X120.186 Y88.583 E12.01181
G1 X120.347 Y89.139 E12.03877
G1 X120.401 Y89.374 E12.04999
G1 X120.551 Y89.51 E12.05942
G1 X120.923 Y89.954 E12.08639
G1 X121.164 Y90.189 E12.10207
G1 X121.536 Y90.633 E12.12904
G1 X121.843 Y91.124 E12.156
