;FLAVOR:Marlin
;TIME:161
;Filament used: 0.0680564m
;Layer height: 0.2
;MINX:94.994
;MINY:94.998
;MINZ:0.2
;MAXX:115.007
;MAXY:115.002
;MAXZ:8
;Generated with Cura_SteamEngine 4.11.0
M140 S60
M105
M190 S60
M104 S200
M105
M109 S200
M82 ;absolute extrusion mode
G21 ;metric values
G90 ;absolute positioning
M82 ;set extruder to absolute mode
M107 ;start with the fan off
G28 X0 Y0 ;move X/Y to min endstops
G28 Z0 ;move Z to min endstops
G1 Z15.0 F100 ;move the platform down 15mm
G92 E0 ;zero the extruded length
G1 F200 E3 ;extrude 3mm of feed stock
G92 E0 ;zero the extruded length again
G1 F100
G0 Y20 F100
M117 Printing...
G5
G92 E0
G92 E0
G1 F2400 E-6
;LAYER_COUNT:40
;LAYER:0
M107
M204 S3000
M205 X10 Y10
G1 F600 Z0.275
G0 F3000 X97.828 Y98.03 Z0.275
M204 S1800
M205 X8 Y8
;TYPE:SKIRT
G1 F600 Z0.2
G1 F2400 E0
G1 X98.383 Y97.49 E0.03606
G1 X98.457 Y97.425 E0.04064
G1 X99.168 Y96.872 E0.08259
G1 X99.505 Y96.641 E0.10161
G1 X100.352 Y96.139 E0.14746
G1 X100.606 Y96.01 E0.16072
G1 X101.314 Y95.695 E0.19681
G1 X102.127 Y95.42 E0.23677
G1 X103.202 Y95.158 E0.28829
G1 X103.5 Y95.108 E0.30236
G1 X104.299 Y95.017 E0.33981
G1 X104.535 Y95.003 E0.35081
G1 X105.318 Y94.998 E0.38728
G1 X105.585 Y95.01 E0.39972
G1 X106.098 Y95.05 E0.42368
G1 X106.177 Y95.059 E0.42738
G1 X106.805 Y95.158 E0.45699
G1 X107.144 Y95.226 E0.47309
G1 X108.197 Y95.518 E0.52397
G1 X108.499 Y95.626 E0.5389
G1 X109.492 Y96.064 E0.58944
G1 X109.867 Y96.263 E0.60921
G1 X110.826 Y96.869 E0.66203
G1 X111.133 Y97.097 E0.67984
G1 X111.966 Y97.817 E0.73111
G1 X112.181 Y98.032 E0.74526
G1 X112.668 Y98.567 E0.77895
G1 X112.785 Y98.709 E0.78752
G1 X113.329 Y99.459 E0.83066
G1 X113.557 Y99.818 E0.85046
G1 X113.935 Y100.487 E0.88624
G1 X113.981 Y100.579 E0.89103
G1 X114.322 Y101.372 E0.93123
G1 X114.47 Y101.779 E0.95139
G1 X114.705 Y102.552 E0.98902
G1 X114.736 Y102.678 E0.99506
G1 X114.893 Y103.52 E1.03494
G1 X114.946 Y103.934 E1.05437
G1 X115.007 Y104.971 E1.10275
G1 X114.983 Y105.719 E1.13759
G1 X114.904 Y106.398 E1.16942
G1 X114.835 Y106.822 E1.18943
G1 X114.658 Y107.63 E1.22794
G1 X114.626 Y107.745 E1.2335
G1 X114.357 Y108.537 E1.27245
G1 X114.198 Y108.932 E1.29228
G1 X113.87 Y109.638 E1.32852
G1 X113.833 Y109.708 E1.33221
G1 X113.39 Y110.442 E1.37213
G1 X113.147 Y110.797 E1.39216
G1 X112.46 Y111.659 E1.44349
G1 X112.172 Y111.97 E1.46323
G1 X111.65 Y112.481 E1.49724
G1 X111.578 Y112.545 E1.50173
G1 X110.829 Y113.13 E1.54598
G1 X110.49 Y113.362 E1.56511
G1 X109.638 Y113.866 E1.6112
G1 X109.172 Y114.099 E1.63546
G1 X108.297 Y114.443 E1.67924
G1 X107.863 Y114.583 E1.70048
G1 X106.798 Y114.842 E1.75151
G1 X106.5 Y114.892 E1.76558
G1 X105.701 Y114.983 E1.80303
G1 X105.465 Y114.997 E1.81404
G1 X104.682 Y115.002 E1.8505
G1 X104.415 Y114.99 E1.86294
G1 X103.902 Y114.95 E1.8869
G1 X103.823 Y114.941 E1.89061
G1 X103.195 Y114.842 E1.92021
G1 X102.856 Y114.774 E1.93631
G1 X101.797 Y114.48 E1.98749
G1 X101.493 Y114.371 E2.00252
G1 X100.505 Y113.934 E2.05283
G1 X100.132 Y113.736 E2.07249
G1 X99.171 Y113.129 E2.12542
G1 X98.863 Y112.9 E2.14329
G1 X98.033 Y112.182 E2.19439
G1 X97.819 Y111.968 E2.20849
G1 X97.307 Y111.402 E2.24402
G1 X97.188 Y111.256 E2.25279
G1 X96.671 Y110.54 E2.29392
G1 X96.444 Y110.183 E2.31362
G1 X96.05 Y109.483 E2.35102
G1 X96.002 Y109.386 E2.35606
G1 X95.67 Y108.607 E2.39549
G1 X95.524 Y108.203 E2.41549
G1 X95.294 Y107.443 E2.45247
G1 X95.264 Y107.321 E2.45832
G1 X95.107 Y106.48 E2.49815
G1 X95.054 Y106.066 E2.51759
G1 X94.994 Y105.008 E2.56693
G1 X94.998 Y104.717 E2.58048
G1 X95.093 Y103.625 E2.63152
G1 X95.163 Y103.19 E2.65204
G1 X95.347 Y102.353 E2.69195
G1 X95.379 Y102.239 E2.69746
G1 X95.643 Y101.463 E2.73563
G1 X95.802 Y101.068 E2.75545
G1 X96.13 Y100.362 E2.7917
G1 X96.167 Y100.292 E2.79539
G1 X96.61 Y99.558 E2.83531
G1 X96.853 Y99.203 E2.85534
G1 X97.54 Y98.341 E2.90667
G1 X97.828 Y98.03 E2.92641
M204 S3000
M205 X10 Y10
G0 F3000 X98.239 Y98.411
M204 S1800
M205 X8 Y8
G1 F2400 X98.753 Y97.911 E2.9598
G1 X98.827 Y97.846 E2.96438
G1 X99.485 Y97.334 E3.0032
G1 X99.822 Y97.103 E3.02223
G1 X100.605 Y96.638 E3.06463
G1 X100.859 Y96.509 E3.0779
G1 X101.865 Y96.094 E3.12857
G1 X102.3 Y95.953 E3.14986
G1 X103.294 Y95.71 E3.19751
G1 X103.592 Y95.66 E3.21158
G1 X104.332 Y95.576 E3.24626
G1 X104.568 Y95.562 E3.25727
G1 X105.292 Y95.557 E3.29098
G1 X106.035 Y95.607 E3.32566
G1 X106.114 Y95.616 E3.32936
G1 X106.695 Y95.707 E3.35674
G1 X107.034 Y95.775 E3.37284
G1 X108.009 Y96.045 E3.41995
G1 X108.311 Y96.153 E3.43489
G1 X109.23 Y96.559 E3.48167
G1 X109.605 Y96.758 E3.50144
G1 X110.492 Y97.318 E3.55028
G1 X110.799 Y97.546 E3.56809
G1 X111.57 Y98.213 E3.61556
G1 X111.785 Y98.428 E3.62972
G1 X112.236 Y98.923 E3.6609
G1 X112.353 Y99.065 E3.66947
G1 X112.856 Y99.76 E3.70942
G1 X113.084 Y100.119 E3.72922
G1 X113.434 Y100.737 E3.76229
G1 X113.48 Y100.829 E3.76708
G1 X113.796 Y101.563 E3.80429
G1 X113.944 Y101.97 E3.82446
G1 X114.161 Y102.686 E3.85929
G1 X114.192 Y102.812 E3.86534
G1 X114.338 Y103.591 E3.90224
G1 X114.391 Y104.005 E3.92168
G1 X114.447 Y104.965 E3.96645
G1 X114.425 Y105.677 E3.99962
G1 X114.352 Y106.308 E4.0292
G1 X114.283 Y106.732 E4.0492
G1 X114.118 Y107.48 E4.08487
G1 X114.086 Y107.595 E4.09043
G1 X113.838 Y108.328 E4.12646
G1 X113.679 Y108.723 E4.14629
G1 X113.375 Y109.376 E4.17983
G1 X113.338 Y109.446 E4.18351
G1 X112.928 Y110.125 E4.22045
G1 X112.685 Y110.48 E4.24048
G1 X112.049 Y111.278 E4.288
G1 X111.761 Y111.589 E4.30773
G1 X111.278 Y112.062 E4.33921
G1 X111.206 Y112.126 E4.3437
G1 X110.513 Y112.668 E4.38466
G1 X110.174 Y112.9 E4.40379
G1 X109.385 Y113.366 E4.44646
G1 X108.883 Y113.615 E4.47255
G1 X108.125 Y113.91 E4.51043
G1 X107.691 Y114.05 E4.53166
G1 X106.706 Y114.29 E4.57887
G1 X106.408 Y114.34 E4.59294
G1 X105.668 Y114.424 E4.62762
G1 X105.432 Y114.438 E4.63863
G1 X104.708 Y114.443 E4.67234
G1 X103.965 Y114.393 E4.70702
G1 X103.886 Y114.384 E4.71072
G1 X103.305 Y114.293 E4.7381
G1 X102.966 Y114.225 E4.7542
G1 X101.986 Y113.953 E4.80156
G1 X101.682 Y113.844 E4.8166
G1 X100.768 Y113.44 E4.86313
G1 X100.395 Y113.242 E4.88279
G1 X99.505 Y112.679 E4.93183
G1 X99.197 Y112.45 E4.9497
G1 X98.429 Y111.786 E4.99698
G1 X98.215 Y111.572 E5.01107
G1 X97.741 Y111.048 E5.04397
G1 X97.622 Y110.902 E5.05274
G1 X97.144 Y110.24 E5.09076
G1 X96.917 Y109.883 E5.11046
G1 X96.552 Y109.235 E5.14509
G1 X96.504 Y109.138 E5.15013
G1 X96.196 Y108.417 E5.18664
G1 X96.05 Y108.013 E5.20664
G1 X95.837 Y107.309 E5.24089
G1 X95.807 Y107.187 E5.24674
G1 X95.662 Y106.409 E5.28359
G1 X95.609 Y105.995 E5.30303
G1 X95.554 Y105.015 E5.34873
G1 X95.558 Y104.724 E5.36228
G1 X95.645 Y103.714 E5.40949
G1 X95.715 Y103.279 E5.43
G1 X95.886 Y102.504 E5.46696
G1 X95.918 Y102.39 E5.47247
G1 X96.162 Y101.672 E5.50778
G1 X96.321 Y101.277 E5.52761
G1 X96.625 Y100.624 E5.56115
G1 X96.662 Y100.554 E5.56484
G1 X97.072 Y99.875 E5.60177
G1 X97.315 Y99.52 E5.6218
G1 X97.951 Y98.722 E5.66932
G1 X98.239 Y98.411 E5.68906
M204 S3000
M205 X10 Y10
G0 F3000 X98.65 Y98.791
M204 S1800
M205 X8 Y8
G1 F2400 X99.122 Y98.332 E5.71971
G1 X99.196 Y98.267 E5.7243
G1 X99.802 Y97.796 E5.76004
G1 X100.139 Y97.565 E5.77906
G1 X100.859 Y97.138 E5.81804
G1 X101.113 Y97.009 E5.83131
G1 X102.038 Y96.627 E5.87791
G1 X102.473 Y96.486 E5.8992
G1 X103.387 Y96.262 E5.94302
G1 X103.685 Y96.212 E5.95709
G1 X104.365 Y96.135 E5.98895
G1 X104.601 Y96.121 E5.99996
G1 X105.267 Y96.116 E6.03098
G1 X105.971 Y96.163 E6.06383
G1 X106.05 Y96.172 E6.06753
G1 X106.585 Y96.256 E6.09275
G1 X106.924 Y96.324 E6.10885
G1 X107.82 Y96.573 E6.15215
G1 X108.122 Y96.681 E6.16709
G1 X108.967 Y97.054 E6.2101
G1 X109.342 Y97.253 E6.22986
G1 X110.158 Y97.768 E6.27479
G1 X110.465 Y97.996 E6.2926
G1 X111.174 Y98.609 E6.33624
G1 X111.389 Y98.824 E6.3504
G1 X111.803 Y99.279 E6.37905
G1 X111.92 Y99.421 E6.38761
G1 X112.384 Y100.06 E6.42439
G1 X112.612 Y100.419 E6.44419
G1 X112.933 Y100.988 E6.47461
G1 X112.979 Y101.08 E6.4794
G1 X113.27 Y101.755 E6.51363
G1 X113.418 Y102.162 E6.53379
G1 X113.618 Y102.82 E6.56581
G1 X113.649 Y102.946 E6.57186
G1 X113.782 Y103.662 E6.60577
G1 X113.835 Y104.076 E6.6252
G1 X113.887 Y104.959 E6.66639
G1 X113.867 Y105.636 E6.69793
G1 X113.799 Y106.218 E6.72521
G1 X113.73 Y106.642 E6.74521
G1 X113.579 Y107.33 E6.77801
G1 X113.547 Y107.445 E6.78357
G1 X113.318 Y108.119 E6.81672
G1 X113.159 Y108.514 E6.83654
G1 X112.88 Y109.115 E6.8674
G1 X112.843 Y109.185 E6.87108
G1 X112.466 Y109.809 E6.90503
G1 X112.223 Y110.164 E6.92506
G1 X111.638 Y110.898 E6.96877
G1 X111.35 Y111.209 E6.98851
G1 X110.906 Y111.643 E7.01742
G1 X110.834 Y111.707 E7.0219
G1 X110.197 Y112.206 E7.05958
G1 X109.858 Y112.438 E7.07871
G1 X109.132 Y112.867 E7.11798
G1 X108.597 Y113.13 E7.14574
G1 X107.953 Y113.377 E7.17785
G1 X107.519 Y113.517 E7.19909
G1 X106.613 Y113.738 E7.24251
G1 X106.315 Y113.788 E7.25658
G1 X105.635 Y113.865 E7.28845
G1 X105.399 Y113.879 E7.29946
G1 X104.733 Y113.884 E7.33047
G1 X104.029 Y113.837 E7.36332
G1 X103.95 Y113.828 E7.36703
G1 X103.415 Y113.744 E7.39224
G1 X103.076 Y113.676 E7.40834
G1 X102.175 Y113.425 E7.45189
G1 X101.871 Y113.316 E7.46693
G1 X101.03 Y112.945 E7.50973
G1 X100.657 Y112.747 E7.5294
G1 X99.839 Y112.23 E7.57446
G1 X99.531 Y112.001 E7.59233
G1 X98.825 Y111.39 E7.6358
G1 X98.611 Y111.176 E7.6499
G1 X98.175 Y110.694 E7.68016
G1 X98.056 Y110.548 E7.68893
G1 X97.616 Y109.939 E7.72392
G1 X97.389 Y109.582 E7.74361
G1 X97.054 Y108.986 E7.77545
G1 X97.006 Y108.889 E7.78049
G1 X96.723 Y108.226 E7.81406
G1 X96.577 Y107.822 E7.83406
G1 X96.381 Y107.175 E7.86554
G1 X96.351 Y107.053 E7.87139
G1 X96.218 Y106.338 E7.90525
G1 X96.165 Y105.924 E7.92469
G1 X96.114 Y105.023 E7.96671
G1 X96.118 Y104.732 E7.98026
G1 X96.198 Y103.803 E8.02368
G1 X96.268 Y103.368 E8.0442
G1 X96.425 Y102.655 E8.07819
G1 X96.457 Y102.541 E8.0837
G1 X96.682 Y101.881 E8.11617
G1 X96.841 Y101.486 E8.136
G1 X97.12 Y100.885 E8.16685
G1 X97.157 Y100.815 E8.17054
G1 X97.534 Y100.191 E8.20449
G1 X97.777 Y99.836 E8.22452
G1 X98.362 Y99.102 E8.26823
G1 X98.65 Y98.791 E8.28796
M204 S3000
M205 X10 Y10
G0 F3000 X99.061 Y99.172
M204 S1800
M205 X8 Y8
G1 F2400 X99.492 Y98.752 E8.31598
G1 X99.566 Y98.687 E8.32057
G1 X100.118 Y98.258 E8.35312
G1 X100.455 Y98.027 E8.37215
G1 X101.113 Y97.637 E8.40777
G1 X101.367 Y97.508 E8.42103
G1 X102.21 Y97.16 E8.4635
G1 X102.645 Y97.019 E8.48479
G1 X103.48 Y96.815 E8.52482
G1 X103.778 Y96.765 E8.53889
G1 X104.398 Y96.694 E8.56794
G1 X104.634 Y96.68 E8.57895
G1 X105.242 Y96.676 E8.60726
G1 X105.908 Y96.72 E8.63834
G1 X106.475 Y96.805 E8.66504
G1 X106.814 Y96.873 E8.68114
G1 X107.632 Y97.1 E8.72067
G1 X107.934 Y97.208 E8.7356
G1 X108.705 Y97.548 E8.77484
G1 X109.08 Y97.747 E8.79461
G1 X109.824 Y98.218 E8.83561
G1 X110.131 Y98.446 E8.85342
G1 X110.779 Y99.004 E8.89324
G1 X110.994 Y99.219 E8.90739
G1 X111.371 Y99.635 E8.93354
G1 X111.488 Y99.777 E8.9421
G1 X111.911 Y100.36 E8.97564
G1 X112.139 Y100.719 E8.99545
G1 X112.432 Y101.238 E9.0232
G1 X112.478 Y101.33 E9.02799
G1 X112.743 Y101.946 E9.05921
G1 X112.891 Y102.353 E9.07938
G1 X113.074 Y102.954 E9.10863
G1 X113.105 Y103.08 E9.11467
G1 X113.227 Y103.733 E9.14561
G1 X113.28 Y104.147 E9.16504
G1 X113.327 Y104.953 E9.20264
G1 X113.308 Y105.594 E9.2325
G1 X113.246 Y106.128 E9.25753
G1 X113.177 Y106.552 E9.27753
G1 X113.039 Y107.18 E9.30747
G1 X113.007 Y107.295 E9.31303
G1 X112.799 Y107.91 E9.34326
G1 X112.64 Y108.305 E9.36309
G1 X112.385 Y108.853 E9.39123
G1 X112.348 Y108.923 E9.39492
G1 X112.004 Y109.493 E9.42592
G1 X111.761 Y109.848 E9.44595
G1 X111.227 Y110.517 E9.48581
G1 X110.939 Y110.828 E9.50555
G1 X110.534 Y111.225 E9.53196
G1 X110.462 Y111.289 E9.53644
G1 X109.88 Y111.743 E9.57081
G1 X109.541 Y111.975 E9.58994
G1 X108.88 Y112.367 E9.62572
G1 X108.313 Y112.643 E9.65509
G1 X107.781 Y112.844 E9.68157
G1 X107.347 Y112.984 E9.7028
G1 X106.52 Y113.185 E9.74243
G1 X106.222 Y113.235 E9.7565
G1 X105.602 Y113.306 E9.78556
G1 X105.366 Y113.32 E9.79657
G1 X104.758 Y113.324 E9.82488
G1 X104.092 Y113.28 E9.85596
G1 X103.525 Y113.195 E9.88266
G1 X103.186 Y113.127 E9.89876
G1 X102.364 Y112.898 E9.93849
G1 X102.06 Y112.789 E9.95353
G1 X101.293 Y112.45 E9.99258
G1 X100.92 Y112.252 E10.01224
G1 X100.174 Y111.781 E10.05332
G1 X99.866 Y111.552 E10.07119
G1 X99.22 Y110.995 E10.11091
G1 X99.006 Y110.781 E10.125
G1 X98.609 Y110.341 E10.1526
G1 X98.49 Y110.195 E10.16137
G1 X98.089 Y109.639 E10.19329
G1 X97.862 Y109.282 E10.21299
G1 X97.556 Y108.738 E10.24205
G1 X97.508 Y108.641 E10.24709
G1 X97.25 Y108.036 E10.27772
G1 X97.104 Y107.632 E10.29772
G1 X96.925 Y107.042 E10.32643
G1 X96.895 Y106.92 E10.33228
G1 X96.773 Y106.267 E10.36321
G1 X96.72 Y105.853 E10.38265
G1 X96.674 Y105.031 E10.42098
G1 X96.678 Y104.74 E10.43453
G1 X96.751 Y103.892 E10.47417
G1 X96.821 Y103.457 E10.49468
G1 X96.964 Y102.807 E10.52567
G1 X96.996 Y102.693 E10.53119
G1 X97.201 Y102.09 E10.56084
G1 X97.36 Y101.695 E10.58067
G1 X97.615 Y101.147 E10.60881
G1 X97.652 Y101.077 E10.6125
G1 X97.996 Y100.507 E10.6435
G1 X98.239 Y100.152 E10.66353
G1 X98.773 Y99.483 E10.70339
G1 X99.061 Y99.172 E10.72313
M204 S3000
M205 X10 Y10
G0 F3000 X99.472 Y99.552
M204 S1800
M205 X8 Y8
G1 F2400 X99.862 Y99.173 E10.74845
G1 X99.936 Y99.108 E10.75304
G1 X100.435 Y98.72 E10.78247
G1 X100.772 Y98.489 E10.8015
G1 X101.366 Y98.136 E10.83367
G1 X101.62 Y98.007 E10.84694
G1 X102.383 Y97.692 E10.88537
G1 X102.818 Y97.551 E10.90667
G1 X103.572 Y97.367 E10.94281
G1 X103.87 Y97.317 E10.95688
G1 X104.431 Y97.253 E10.98317
G1 X104.667 Y97.239 E10.99418
G1 X105.217 Y97.235 E11.01979
G1 X105.845 Y97.276 E11.04909
G1 X106.364 Y97.354 E11.07353
G1 X106.703 Y97.422 E11.08963
G1 X107.443 Y97.627 E11.12539
G1 X107.745 Y97.735 E11.14032
G1 X108.442 Y98.043 E11.1758
G1 X108.817 Y98.242 E11.19557
G1 X109.49 Y98.667 E11.23263
G1 X109.797 Y98.895 E11.25044
G1 X110.383 Y99.4 E11.28646
G1 X110.598 Y99.615 E11.30062
G1 X110.939 Y99.991 E11.32426
G1 X111.056 Y100.133 E11.33282
G1 X111.438 Y100.66 E11.36313
G1 X111.666 Y101.019 E11.38293
G1 X111.932 Y101.489 E11.40808
G1 X111.978 Y101.581 E11.41287
G1 X112.217 Y102.138 E11.44109
G1 X112.365 Y102.545 E11.46126
G1 X112.53 Y103.088 E11.48768
G1 X112.561 Y103.214 E11.49373
G1 X112.671 Y103.805 E11.52172
G1 X112.724 Y104.219 E11.54115
G1 X112.767 Y104.947 E11.57511
G1 X112.75 Y105.553 E11.60334
G1 X112.624 Y106.462 E11.64607
G1 X112.5 Y107.029 E11.6731
G1 X112.468 Y107.144 E11.67866
G1 X112.279 Y107.701 E11.70604
G1 X112.12 Y108.096 E11.72587
G1 X111.89 Y108.591 E11.75129
G1 X111.853 Y108.661 E11.75497
G1 X111.542 Y109.176 E11.78299
G1 X111.299 Y109.531 E11.80302
G1 X110.816 Y110.137 E11.8391
G1 X110.528 Y110.448 E11.85884
G1 X110.162 Y110.806 E11.88268
G1 X110.09 Y110.87 E11.88717
G1 X109.564 Y111.281 E11.91825
G1 X109.225 Y111.513 E11.93738
G1 X108.627 Y111.867 E11.96974
G1 X108.031 Y112.155 E12.00056
G1 X107.175 Y112.451 E12.04273
G1 X106.428 Y112.633 E12.07854
G1 X106.13 Y112.683 E12.09261
G1 X105.569 Y112.747 E12.1189
G1 X105.333 Y112.761 E12.12991
G1 X104.783 Y112.765 E12.15552
G1 X104.155 Y112.724 E12.18482
G1 X103.636 Y112.646 E12.20926
G1 X103.297 Y112.578 E12.22536
G1 X102.553 Y112.371 E12.26132
G1 X102.249 Y112.262 E12.27636
G1 X101.555 Y111.956 E12.31167
G1 X101.182 Y111.758 E12.33134
G1 X100.508 Y111.331 E12.36849
G1 X100.2 Y111.102 E12.38636
G1 X99.616 Y110.599 E12.42225
G1 X99.402 Y110.385 E12.43634
G1 X99.043 Y109.987 E12.4613
G1 X98.924 Y109.841 E12.47007
G1 X98.561 Y109.338 E12.49896
G1 X98.334 Y108.981 E12.51866
G1 X98.058 Y108.49 E12.54488
G1 X98.01 Y108.393 E12.54992
G1 X97.776 Y107.846 E12.57763
G1 X97.63 Y107.442 E12.59763
G1 X97.469 Y106.908 E12.6236
G1 X97.439 Y106.786 E12.62945
G1 X97.329 Y106.195 E12.65744
G1 X97.276 Y105.781 E12.67688
G1 X97.233 Y105.038 E12.71153
G1 X97.237 Y104.747 E12.72508
G1 X97.304 Y103.981 E12.76089
G1 X97.374 Y103.546 E12.7814
G1 X97.503 Y102.958 E12.80943
G1 X97.535 Y102.844 E12.81495
G1 X97.721 Y102.299 E12.84176
G1 X97.88 Y101.904 E12.86159
G1 X98.11 Y101.409 E12.88701
G1 X98.147 Y101.339 E12.89069
G1 X98.458 Y100.824 E12.91871
G1 X98.701 Y100.469 E12.93874
G1 X99.184 Y99.863 E12.97482
G1 X99.472 Y99.552 E12.99456
M204 S3000
M205 X10 Y10
G1 F2400 E6.99456
;MESH:stick001.stl
