;FLAVOR:Marlin
;TIME:1533
;Filament used: 1.04236m
;Layer height: 0.2
;MINX:59.347
;MINY:92.673
;MINZ:0.2
;MAXX:145.315
;MAXY:115.532
;MAXZ:20.2
;Generated with Cura_SteamEngine 4.11.0
M140 S60
M105
M190 S60
M104 S200
M105
M109 S200
M82 ;absolute extrusion mode
G21 ;metric values
G90 ;absolute positioning
M82 ;set extruder to absolute mode
M107 ;start with the fan off
G28 X0 Y0 ;move X/Y to min endstops
G28 Z0 ;move Z to min endstops
G1 Z15.0 F100 ;move the platform down 15mm
G92 E0 ;zero the extruded length
G1 F200 E3 ;extrude 3mm of feed stock
G92 E0 ;zero the extruded length again
G1 F100
G0 Y20 F100
M117 Printing...
G5
G92 E0
G92 E0
G1 F2400 E-6
;LAYER_COUNT:107
;LAYER:0
M107
M204 S3000
M205 X10 Y10
G1 F600 Z0.275
G0 F3000 X64.29 Y94.621 Z0.275
M204 S1800
M205 X8 Y8
;TYPE:SKIRT
G1 F600 Z0.2
G1 F2400 E0
G1 X64.845 Y94.294 E0.03
G1 X64.996 Y94.21 E0.03804
G1 X65.499 Y93.939 E0.06465
G1 X66.167 Y93.627 E0.09898
G1 X66.717 Y93.408 E0.12654
G1 X67.053 Y93.284 E0.14322
G1 X67.624 Y93.113 E0.17097
G1 X68.24 Y92.959 E0.20054
G1 X68.676 Y92.863 E0.22133
G1 X69.597 Y92.737 E0.26461
G1 X70.396 Y92.71 E0.30184
G1 X71.32 Y92.683 E0.34488
G1 X71.496 Y92.68 E0.35308
G1 X74.274 Y92.676 E0.48244
G1 X74.74 Y92.673 E0.50413
G1 X75.482 Y92.677 E0.53869
G1 X76.011 Y92.693 E0.56333
G1 X76.473 Y92.72 E0.58488
G1 X77.556 Y92.772 E0.63537
G1 X77.686 Y92.786 E0.64145
G1 X78.723 Y92.843 E0.68981
G1 X87.342 Y93.382 E1.09194
G1 X89.186 Y93.482 E1.17793
G1 X97.437 Y93.994 E1.56287
G1 X99.044 Y94.078 E1.6378
G1 X107.469 Y94.603 E2.03086
G1 X109.063 Y94.687 E2.10519
G1 X117.424 Y95.21 E2.49527
G1 X118.932 Y95.291 E2.56559
G1 X127.404 Y95.818 E2.96085
G1 X129.019 Y95.903 E3.03615
G1 X136.484 Y96.369 E3.38443
G1 X137.193 Y96.423 E3.41754
G1 X137.902 Y96.518 E3.45085
G1 X138.596 Y96.69 E3.48414
G1 X139.267 Y96.939 E3.51747
G1 X139.905 Y97.261 E3.55074
G1 X140.541 Y97.681 E3.58623
G1 X141.297 Y98.247 E3.63021
G1 X142.019 Y98.804 E3.67267
G1 X142.428 Y99.107 E3.69637
G1 X142.616 Y99.251 E3.7074
G1 X143.149 Y99.708 E3.74009
G1 X143.242 Y99.797 E3.74609
G1 X143.73 Y100.32 E3.77939
G1 X144.157 Y100.894 E3.81271
G1 X144.517 Y101.512 E3.84601
G1 X144.807 Y102.166 E3.87932
G1 X145.094 Y103.17 E3.92794
G1 X145.189 Y103.666 E3.95146
G1 X145.236 Y103.947 E3.96473
G1 X145.315 Y104.658 E3.99804
G1 X145.313 Y105.373 E4.03133
G1 X145.232 Y106.084 E4.06465
G1 X145.072 Y106.781 E4.09795
G1 X144.835 Y107.456 E4.13126
G1 X144.525 Y108.1 E4.16454
G1 X144.144 Y108.706 E4.19788
G1 X143.698 Y109.265 E4.23117
G1 X143.193 Y109.771 E4.26446
G1 X142.634 Y110.218 E4.29779
G1 X142.029 Y110.599 E4.33108
G1 X141.385 Y110.911 E4.3644
G1 X140.412 Y111.228 E4.41206
G1 X139.753 Y111.382 E4.44357
G1 X139.337 Y111.469 E4.46336
G1 X138.63 Y111.577 E4.49666
G1 X138.259 Y111.601 E4.51397
G1 X137.101 Y111.642 E4.56793
G1 X136.818 Y111.647 E4.58111
G1 X133.789 Y111.797 E4.72232
G1 X132.88 Y111.859 E4.76475
G1 X131.799 Y111.927 E4.81518
G1 X131.11 Y111.973 E4.84734
G1 X130.932 Y111.996 E4.85569
G1 X129.527 Y112.081 E4.92124
G1 X128.368 Y112.144 E4.97528
G1 X126.585 Y112.256 E5.05847
G1 X124.38 Y112.415 E5.16141
G1 X124.142 Y112.419 E5.1725
G1 X123.421 Y112.463 E5.20613
G1 X122.1 Y112.556 E5.2678
G1 X121.591 Y112.594 E5.29156
G1 X119.467 Y112.724 E5.39065
G1 X118.879 Y112.762 E5.41809
G1 X117.908 Y112.82 E5.46338
G1 X117.223 Y112.864 E5.49534
G1 X116.713 Y112.892 E5.51913
G1 X115.258 Y112.984 E5.58701
G1 X113.197 Y113.126 E5.68321
G1 X109.796 Y113.344 E5.8419
G1 X109.029 Y113.397 E5.8777
G1 X108.395 Y113.434 E5.90727
G1 X107.086 Y113.52 E5.96835
G1 X106.662 Y113.55 E5.98815
G1 X105.61 Y113.61 E6.03721
G1 X105.088 Y113.649 E6.06159
G1 X104.141 Y113.705 E6.10576
G1 X102.908 Y113.785 E6.16329
G1 X102.403 Y113.824 E6.18688
G1 X101.325 Y113.891 E6.23717
G1 X100.327 Y113.959 E6.28375
G1 X99.565 Y114.001 E6.31929
G1 X98.71 Y114.061 E6.3592
G1 X97.729 Y114.125 E6.40497
G1 X97.333 Y114.156 E6.42347
G1 X96.04 Y114.238 E6.4838
G1 X95.801 Y114.255 E6.49496
G1 X94.814 Y114.314 E6.541
G1 X93.251 Y114.417 E6.61393
G1 X92.956 Y114.433 E6.62769
G1 X91.454 Y114.53 E6.69778
G1 X91.082 Y114.56 E6.71515
G1 X88.507 Y114.72 E6.83529
G1 X87.328 Y114.801 E6.89032
G1 X85.413 Y114.924 E6.97967
G1 X85.007 Y114.946 E6.9986
G1 X84.206 Y115.001 E7.03599
G1 X79.294 Y115.317 E7.26518
G1 X77.903 Y115.414 E7.33011
G1 X76.853 Y115.476 E7.37909
G1 X76.075 Y115.526 E7.41539
G1 X75.375 Y115.532 E7.44799
G1 X73.053 Y115.471 E7.55615
G1 X71.406 Y115.463 E7.63284
G1 X70.66 Y115.466 E7.66758
G1 X69.963 Y115.458 E7.70003
G1 X69.249 Y115.409 E7.73336
G1 X68.545 Y115.282 E7.76667
G1 X67.838 Y115.069 E7.80105
G1 X67.083 Y114.78 E7.8387
G1 X66.041 Y114.383 E7.89062
G1 X65.322 Y114.056 E7.9274
G1 X65.051 Y113.912 E7.94169
G1 X64.587 Y113.64 E7.96673
G1 X64.064 Y113.278 E7.99635
G1 X63.609 Y112.937 E8.02283
G1 X63.063 Y112.475 E8.05613
G1 X62.43 Y111.851 E8.09752
G1 X61.959 Y111.322 E8.1305
G1 X61.638 Y110.91 E8.15482
G1 X61.398 Y110.584 E8.17367
G1 X61.003 Y109.978 E8.20735
G1 X60.699 Y109.443 E8.23601
G1 X60.564 Y109.191 E8.24932
G1 X60.255 Y108.526 E8.28346
G1 X60.017 Y107.917 E8.31391
G1 X59.919 Y107.644 E8.32741
G1 X59.714 Y106.951 E8.36107
G1 X59.595 Y106.439 E8.38554
G1 X59.53 Y106.128 E8.40034
G1 X59.419 Y105.372 E8.43592
G1 X59.374 Y104.853 E8.46017
G1 X59.347 Y104.416 E8.48056
G1 X59.353 Y103.611 E8.51805
G1 X59.373 Y103.329 E8.53121
G1 X59.485 Y102.507 E8.56984
G1 X59.538 Y102.256 E8.58179
G1 X59.696 Y101.55 E8.61547
G1 X59.895 Y100.639 E8.65889
G1 X60.087 Y99.95 E8.6922
G1 X60.453 Y99.086 E8.73589
G1 X60.645 Y98.724 E8.75497
G1 X60.961 Y98.168 E8.78475
G1 X61.263 Y97.687 E8.8112
G1 X61.522 Y97.325 E8.83192
G1 X61.837 Y96.911 E8.85615
G1 X62.332 Y96.334 E8.89155
G1 X62.699 Y95.955 E8.91611
G1 X63.173 Y95.49 E8.94703
G1 X63.712 Y95.021 E8.9803
G1 X64.29 Y94.621 E9.01303
M204 S3000
M205 X10 Y10
G0 F3000 X64.583 Y95.098
M204 S1800
M205 X8 Y8
G1 F2400 X65.124 Y94.779 E9.04227
G1 X65.765 Y94.432 E9.07621
G1 X66.375 Y94.147 E9.10757
G1 X66.925 Y93.928 E9.13513
G1 X67.239 Y93.813 E9.1507
G1 X67.76 Y93.656 E9.17604
G1 X68.376 Y93.502 E9.20561
G1 X68.791 Y93.411 E9.22539
G1 X69.632 Y93.296 E9.26491
G1 X70.423 Y93.268 E9.30177
G1 X71.336 Y93.242 E9.3443
G1 X71.497 Y93.24 E9.3518
G1 X74.278 Y93.236 E9.48129
G1 X74.736 Y93.233 E9.50262
G1 X75.478 Y93.237 E9.53717
G1 X75.991 Y93.253 E9.56107
G1 X76.531 Y93.284 E9.58626
G1 X77.529 Y93.332 E9.63278
G1 X77.643 Y93.344 E9.63812
G1 X78.688 Y93.401 E9.68685
G1 X87.361 Y93.945 E10.0915
G1 X89.152 Y94.041 E10.17501
G1 X97.401 Y94.553 E10.55986
G1 X99.009 Y94.637 E10.63484
G1 X107.424 Y95.161 E11.02743
G1 X109.028 Y95.246 E11.10223
G1 X117.358 Y95.767 E11.49086
G1 X118.898 Y95.85 E11.56268
G1 X127.365 Y96.377 E11.9577
G1 X128.984 Y96.462 E12.03319
G1 X136.442 Y96.928 E12.38114
G1 X137.151 Y96.982 E12.41425
G1 X137.828 Y97.074 E12.44607
G1 X138.489 Y97.244 E12.47785
G1 X139.127 Y97.49 E12.50969
G1 X139.731 Y97.809 E12.54149
G1 X140.206 Y98.129 E12.56816
G1 X140.956 Y98.691 E12.6118
G1 X141.712 Y99.274 E12.65626
G1 X142.275 Y99.696 E12.68902
G1 X142.762 Y100.113 E12.71887
G1 X142.855 Y100.202 E12.72487
G1 X143.32 Y100.702 E12.75666
G1 X143.723 Y101.254 E12.78849
G1 X144.06 Y101.848 E12.82029
G1 X144.324 Y102.478 E12.85209
G1 X144.544 Y103.279 E12.89077
G1 X144.684 Y104.04 E12.9268
G1 X144.757 Y104.719 E12.9586
G1 X144.75 Y105.402 E12.99041
G1 X144.664 Y106.08 E13.02223
G1 X144.499 Y106.743 E13.05404
G1 X144.257 Y107.382 E13.08586
G1 X143.943 Y107.989 E13.11768
G1 X143.56 Y108.554 E13.14947
G1 X143.114 Y109.072 E13.1813
G1 X142.61 Y109.533 E13.2131
G1 X142.055 Y109.932 E13.24493
G1 X141.458 Y110.264 E13.27674
G1 X140.827 Y110.524 E13.30852
G1 X140.282 Y110.683 E13.33495
G1 X139.638 Y110.834 E13.36575
G1 X139.222 Y110.921 E13.38554
G1 X138.239 Y111.041 E13.43165
G1 X137.09 Y111.082 E13.48519
G1 X136.812 Y111.087 E13.49814
G1 X133.722 Y111.24 E13.6422
G1 X132.845 Y111.3 E13.68313
G1 X131.774 Y111.368 E13.7331
G1 X131.268 Y111.402 E13.75671
G1 X130.899 Y111.437 E13.77397
G1 X129.494 Y111.522 E13.83952
G1 X128.335 Y111.585 E13.89356
G1 X126.589 Y111.695 E13.97503
G1 X124.339 Y111.857 E14.08007
G1 X124.106 Y111.86 E14.09092
G1 X123.386 Y111.905 E14.12451
G1 X122.041 Y111.999 E14.18729
G1 X121.557 Y112.035 E14.20989
G1 X119.43 Y112.165 E14.30912
G1 X118.845 Y112.203 E14.33641
G1 X117.874 Y112.261 E14.38171
G1 X117.135 Y112.308 E14.41619
G1 X116.726 Y112.331 E14.43526
G1 X115.18 Y112.428 E14.50739
G1 X113.166 Y112.567 E14.6014
G1 X112.996 Y112.576 E14.60932
G1 X112.026 Y112.641 E14.65459
G1 X109.758 Y112.785 E14.76041
G1 X108.995 Y112.838 E14.79603
G1 X108.361 Y112.875 E14.8256
G1 X107.062 Y112.961 E14.88622
G1 X106.63 Y112.991 E14.90638
G1 X105.592 Y113.051 E14.9548
G1 X105.055 Y113.09 E14.97987
G1 X104.074 Y113.148 E15.02563
G1 X102.898 Y113.224 E15.0805
G1 X102.368 Y113.265 E15.10525
G1 X101.255 Y113.334 E15.15718
G1 X100.296 Y113.4 E15.20194
G1 X99.564 Y113.441 E15.23608
G1 X98.674 Y113.503 E15.27762
G1 X97.588 Y113.574 E15.3283
G1 X97.299 Y113.597 E15.3418
G1 X96.024 Y113.677 E15.40128
G1 X95.768 Y113.696 E15.41324
G1 X94.773 Y113.755 E15.45965
G1 X93.221 Y113.858 E15.53207
G1 X92.922 Y113.874 E15.54602
G1 X91.469 Y113.968 E15.61382
G1 X91.047 Y114.001 E15.63353
G1 X88.472 Y114.161 E15.75366
G1 X87.292 Y114.242 E15.80874
G1 X85.383 Y114.365 E15.89781
G1 X84.937 Y114.389 E15.91861
G1 X84.17 Y114.442 E15.95441
G1 X79.236 Y114.759 E16.18463
G1 X77.87 Y114.855 E16.24839
G1 X76.82 Y114.917 E16.29737
G1 X76.052 Y114.966 E16.33321
G1 X75.382 Y114.973 E16.3644
G1 X73.07 Y114.911 E16.4721
G1 X71.406 Y114.903 E16.54958
G1 X70.666 Y114.906 E16.58404
G1 X69.969 Y114.898 E16.6165
G1 X69.287 Y114.85 E16.64833
G1 X68.616 Y114.723 E16.68013
G1 X68.031 Y114.543 E16.70863
G1 X67.283 Y114.257 E16.74592
G1 X66.241 Y113.86 E16.79785
G1 X65.585 Y113.561 E16.83141
G1 X64.89 Y113.169 E16.86857
G1 X64.39 Y112.823 E16.89688
G1 X63.946 Y112.491 E16.9227
G1 X63.426 Y112.047 E16.95454
G1 X62.827 Y111.456 E16.99372
G1 X62.398 Y110.973 E17.0238
G1 X62.089 Y110.578 E17.04715
G1 X61.849 Y110.252 E17.066
G1 X61.488 Y109.699 E17.09675
G1 X61.192 Y109.179 E17.12461
G1 X61.057 Y108.927 E17.13793
G1 X60.775 Y108.32 E17.16909
G1 X60.544 Y107.728 E17.19868
G1 X60.446 Y107.455 E17.21219
G1 X60.259 Y106.822 E17.24292
G1 X60.144 Y106.325 E17.26668
G1 X60.079 Y106.014 E17.28147
G1 X59.977 Y105.323 E17.314
G1 X59.932 Y104.804 E17.33825
G1 X59.906 Y104.385 E17.3578
G1 X59.912 Y103.651 E17.39198
G1 X59.932 Y103.369 E17.40514
G1 X60.034 Y102.619 E17.44039
G1 X60.084 Y102.378 E17.45185
G1 X60.252 Y101.635 E17.48732
G1 X60.443 Y100.759 E17.52907
G1 X60.627 Y100.101 E17.56088
G1 X60.951 Y99.341 E17.59935
G1 X61.132 Y99 E17.61733
G1 X61.448 Y98.444 E17.64711
G1 X61.723 Y98.006 E17.67119
G1 X61.967 Y97.664 E17.69075
G1 X62.282 Y97.25 E17.71498
G1 X62.735 Y96.723 E17.74734
G1 X63.102 Y96.344 E17.7719
G1 X63.563 Y95.891 E17.802
G1 X64.08 Y95.444 E17.83382
G1 X64.583 Y95.098 E17.86225
M204 S3000
M205 X10 Y10
G0 F3000 X64.875 Y95.576
M204 S1800
M205 X8 Y8
G1 F2400 X65.403 Y95.265 E17.89078
G1 X66.031 Y94.925 E17.92404
G1 X66.582 Y94.668 E17.95235
G1 X67.132 Y94.449 E17.97991
G1 X67.895 Y94.2 E18.01729
G1 X68.511 Y94.046 E18.04685
G1 X68.907 Y93.959 E18.06573
G1 X69.667 Y93.855 E18.10145
G1 X70.454 Y93.828 E18.13812
G1 X71.352 Y93.802 E18.17995
G1 X71.498 Y93.8 E18.18675
G1 X74.282 Y93.796 E18.31638
G1 X74.733 Y93.793 E18.33738
G1 X75.475 Y93.797 E18.37194
G1 X76.113 Y93.819 E18.40166
G1 X76.475 Y93.842 E18.41855
G1 X77.502 Y93.891 E18.46643
G1 X77.611 Y93.903 E18.47153
G1 X78.653 Y93.96 E18.52013
G1 X87.326 Y94.503 E18.92477
G1 X89.117 Y94.6 E19.00829
G1 X97.334 Y95.11 E19.39164
G1 X98.974 Y95.196 E19.46811
G1 X107.361 Y95.719 E19.8594
G1 X108.993 Y95.805 E19.9355
G1 X117.359 Y96.328 E20.32582
G1 X118.863 Y96.409 E20.39595
G1 X127.297 Y96.934 E20.78943
G1 X128.95 Y97.021 E20.86651
G1 X136.399 Y97.486 E21.21404
G1 X137.108 Y97.54 E21.24715
G1 X137.751 Y97.629 E21.27738
G1 X138.379 Y97.797 E21.30765
G1 X138.981 Y98.04 E21.33788
G1 X139.549 Y98.355 E21.36812
G1 X139.87 Y98.577 E21.3863
G1 X140.614 Y99.134 E21.42957
G1 X141.381 Y99.726 E21.47469
G1 X141.935 Y100.14 E21.50689
G1 X142.375 Y100.517 E21.53387
G1 X142.468 Y100.606 E21.53987
G1 X142.908 Y101.084 E21.57012
G1 X143.287 Y101.611 E21.60034
G1 X143.598 Y102.181 E21.63058
G1 X143.837 Y102.786 E21.66087
G1 X143.995 Y103.389 E21.6899
G1 X144.132 Y104.132 E21.72508
G1 X144.199 Y104.778 E21.75532
G1 X144.187 Y105.428 E21.78559
G1 X144.095 Y106.071 E21.81584
G1 X143.925 Y106.698 E21.84609
G1 X143.679 Y107.299 E21.87632
G1 X143.361 Y107.865 E21.90655
G1 X142.976 Y108.388 E21.93679
G1 X142.529 Y108.86 E21.96706
G1 X142.028 Y109.274 E21.99733
G1 X141.48 Y109.623 E22.02758
G1 X140.894 Y109.902 E22.0578
G1 X140.152 Y110.138 E22.09406
G1 X139.524 Y110.286 E22.1241
G1 X139.108 Y110.373 E22.14389
G1 X138.218 Y110.482 E22.18564
G1 X137.079 Y110.522 E22.23871
G1 X136.807 Y110.527 E22.25138
G1 X133.655 Y110.683 E22.39833
G1 X132.809 Y110.742 E22.43782
G1 X131.5 Y110.826 E22.4989
G1 X130.865 Y110.878 E22.52856
G1 X129.46 Y110.963 E22.59411
G1 X128.333 Y111.025 E22.64666
G1 X126.502 Y111.139 E22.73209
G1 X124.299 Y111.298 E22.83493
G1 X124.082 Y111.3 E22.84504
G1 X123.351 Y111.346 E22.87915
G1 X122.036 Y111.438 E22.94053
G1 X121.523 Y111.476 E22.96448
G1 X119.394 Y111.606 E23.0638
G1 X118.812 Y111.644 E23.09096
G1 X117.841 Y111.702 E23.13625
G1 X117.104 Y111.749 E23.17064
G1 X116.691 Y111.772 E23.1899
G1 X115.145 Y111.868 E23.26203
G1 X113.136 Y112.008 E23.3558
G1 X112.926 Y112.02 E23.3656
G1 X111.99 Y112.082 E23.40928
G1 X109.702 Y112.227 E23.51603
G1 X108.962 Y112.279 E23.55057
G1 X108.328 Y112.317 E23.58015
G1 X106.598 Y112.432 E23.66088
G1 X105.517 Y112.494 E23.7113
G1 X105.022 Y112.531 E23.73441
G1 X104.041 Y112.589 E23.78017
G1 X102.888 Y112.663 E23.83397
G1 X102.334 Y112.706 E23.85984
G1 X101.221 Y112.775 E23.91177
G1 X100.265 Y112.841 E23.95639
G1 X99.494 Y112.884 E23.99235
G1 X98.638 Y112.944 E24.0323
G1 X97.562 Y113.014 E24.08251
G1 X97.264 Y113.038 E24.09643
G1 X95.948 Y113.122 E24.15784
G1 X95.735 Y113.137 E24.16778
G1 X94.74 Y113.196 E24.21419
G1 X93.191 Y113.298 E24.28648
G1 X92.955 Y113.311 E24.29748
G1 X91.396 Y113.411 E24.37023
G1 X91.012 Y113.442 E24.38816
G1 X88.472 Y113.6 E24.50667
G1 X87.256 Y113.683 E24.56342
G1 X85.353 Y113.805 E24.65221
G1 X84.935 Y113.827 E24.6717
G1 X84.134 Y113.883 E24.70909
G1 X79.247 Y114.197 E24.93712
G1 X78.8 Y114.23 E24.95799
G1 X77.836 Y114.296 E25.00299
G1 X76.786 Y114.359 E25.05197
G1 X76.029 Y114.407 E25.08729
G1 X75.39 Y114.413 E25.11704
G1 X73.088 Y114.351 E25.22427
G1 X71.407 Y114.343 E25.30255
G1 X70.672 Y114.346 E25.33677
G1 X69.975 Y114.338 E25.36923
G1 X69.328 Y114.29 E25.39944
G1 X68.69 Y114.164 E25.42972
G1 X68.037 Y113.949 E25.46173
G1 X67.452 Y113.722 E25.49095
G1 X66.441 Y113.336 E25.54134
G1 X65.847 Y113.067 E25.57171
G1 X65.194 Y112.698 E25.60663
G1 X64.715 Y112.367 E25.63374
G1 X64.284 Y112.044 E25.65882
G1 X63.791 Y111.621 E25.68907
G1 X63.224 Y111.061 E25.72618
G1 X62.836 Y110.625 E25.75335
G1 X62.3 Y109.92 E25.79459
G1 X61.974 Y109.42 E25.82239
G1 X61.686 Y108.914 E25.8495
G1 X61.551 Y108.662 E25.86281
G1 X61.296 Y108.114 E25.89095
G1 X61.071 Y107.539 E25.9197
G1 X60.973 Y107.266 E25.93321
G1 X60.804 Y106.694 E25.96098
G1 X60.627 Y105.899 E25.99891
G1 X60.535 Y105.275 E26.02828
G1 X60.49 Y104.756 E26.05254
G1 X60.465 Y104.354 E26.07129
G1 X60.47 Y103.69 E26.10221
G1 X60.49 Y103.408 E26.11537
G1 X60.583 Y102.73 E26.14724
G1 X60.631 Y102.501 E26.15814
G1 X60.798 Y101.758 E26.1936
G1 X60.99 Y100.878 E26.23554
G1 X61.167 Y100.253 E26.26578
G1 X61.449 Y99.596 E26.29908
G1 X61.619 Y99.277 E26.31591
G1 X61.935 Y98.721 E26.34569
G1 X62.274 Y98.195 E26.37482
G1 X62.413 Y98.003 E26.38586
G1 X62.728 Y97.589 E26.41009
G1 X63.137 Y97.113 E26.43931
G1 X63.504 Y96.734 E26.46387
G1 X63.954 Y96.293 E26.49321
G1 X64.446 Y95.869 E26.52346
G1 X64.875 Y95.576 E26.54765
M204 S3000
M205 X10 Y10
G0 F3000 X74.433 Y99.355
M204 S1800
M205 X8 Y8
;TYPE:SUPPORT
G1 F1500 X75.418 Y99.346 E26.59351
G1 X77.82 Y99.498 E26.70558
G1 X77.942 Y99.487 E26.71129
