;FLAVOR:Marlin
;TIME:121
;Filament used: 0.0553964m
;Layer height: 0.2
;MINX:95.001
;MINY:95.001
;MINZ:0.2
;MAXX:114.999
;MAXY:114.999
;MAXZ:6
;Generated with Cura_SteamEngine 4.11.0
M140 S60
M105
M190 S60
M104 S200
M105
M109 S200
M82 ;absolute extrusion mode
G21 ;metric values
G90 ;absolute positioning
M82 ;set extruder to absolute mode
M107 ;start with the fan off
G28 X0 Y0 ;move X/Y to min endstops
G28 Z0 ;move Z to min endstops
G1 Z15.0 F100 ;move the platform down 15mm
G92 E0 ;zero the extruded length
G1 F200 E3 ;extrude 3mm of feed stock
G92 E0 ;zero the extruded length again
G1 F100
G0 Y20 F100
M117 Printing...
G5
G92 E0
G92 E0
G1 F2400 E-6
;LAYER_COUNT:30
;LAYER:0
M107
M204 S3000
M205 X10 Y10
G1 F600 Z0.275
G0 F3000 X97.916 Y97.94 Z0.275
M204 S1800
M205 X8 Y8
;TYPE:SKIRT
G1 F600 Z0.2
G1 F2400 E0
G1 X98.289 Y97.581 E0.02411
G1 X98.436 Y97.449 E0.03331
G1 X99.225 Y96.83 E0.08
G1 X99.495 Y96.646 E0.09522
G1 X100.367 Y96.134 E0.1423
G1 X100.671 Y95.982 E0.15813
G1 X101.668 Y95.57 E0.20836
G1 X102.03 Y95.45 E0.22612
G1 X102.544 Y95.3 E0.25105
G1 X102.666 Y95.269 E0.25691
G1 X103.624 Y95.09 E0.30229
G1 X104.348 Y95.018 E0.33617
G1 X104.453 Y95.012 E0.34107
G1 X105.005 Y95.001 E0.36678
G1 X105.373 Y95.007 E0.38392
G1 X106.367 Y95.089 E0.43036
G1 X106.66 Y95.133 E0.44415
G1 X107.747 Y95.38 E0.49606
G1 X108.378 Y95.588 E0.527
G1 X109.009 Y95.842 E0.55867
G1 X109.268 Y95.959 E0.5719
G1 X109.74 Y96.192 E0.59641
G1 X109.907 Y96.282 E0.60525
G1 X110.781 Y96.834 E0.65338
G1 X111.031 Y97.017 E0.66781
G1 X111.823 Y97.685 E0.71605
G1 X112.051 Y97.906 E0.73084
G1 X112.399 Y98.267 E0.75419
G1 X112.538 Y98.421 E0.76385
G1 X113.166 Y99.219 E0.81113
G1 X113.349 Y99.487 E0.82624
G1 X113.865 Y100.365 E0.87366
G1 X114.018 Y100.671 E0.88959
G1 X114.422 Y101.644 E0.93865
G1 X114.542 Y102.002 E0.95623
G1 X114.7 Y102.54 E0.98234
G1 X114.731 Y102.662 E0.9882
G1 X114.911 Y103.63 E1.03405
G1 X114.982 Y104.347 E1.0676
G1 X114.988 Y104.452 E1.0725
G1 X114.999 Y105.003 E1.09816
G1 X114.993 Y105.372 E1.11534
G1 X114.911 Y106.367 E1.16183
G1 X114.867 Y106.66 E1.17563
G1 X114.62 Y107.747 E1.22753
G1 X114.412 Y108.378 E1.25847
G1 X114.158 Y109.009 E1.29014
G1 X114.041 Y109.268 E1.30338
G1 X113.814 Y109.728 E1.32726
G1 X113.726 Y109.892 E1.33593
G1 X113.17 Y110.775 E1.38452
G1 X112.985 Y111.028 E1.39911
G1 X112.313 Y111.825 E1.44766
G1 X112.087 Y112.058 E1.46277
G1 X111.718 Y112.413 E1.48661
G1 X111.569 Y112.547 E1.49594
G1 X110.775 Y113.17 E1.54294
G1 X110.505 Y113.354 E1.55815
G1 X109.633 Y113.866 E1.60524
G1 X109.329 Y114.018 E1.62106
G1 X108.332 Y114.43 E1.6713
G1 X107.97 Y114.55 E1.68906
G1 X107.456 Y114.7 E1.71399
G1 X107.334 Y114.731 E1.71985
G1 X106.376 Y114.91 E1.76523
G1 X105.652 Y114.982 E1.79911
G1 X105.547 Y114.988 E1.80401
G1 X104.995 Y114.999 E1.82971
G1 X104.627 Y114.993 E1.84685
G1 X103.633 Y114.911 E1.89329
G1 X103.34 Y114.867 E1.90709
G1 X102.253 Y114.62 E1.959
G1 X101.622 Y114.412 E1.98993
G1 X100.991 Y114.158 E2.02161
G1 X100.732 Y114.041 E2.03484
G1 X100.26 Y113.808 E2.05935
G1 X100.093 Y113.718 E2.06818
G1 X99.219 Y113.166 E2.11632
G1 X98.969 Y112.983 E2.13074
G1 X98.174 Y112.312 E2.17919
G1 X97.938 Y112.083 E2.1945
G1 X97.58 Y111.71 E2.21857
G1 X97.448 Y111.563 E2.22777
G1 X96.825 Y110.769 E2.27477
G1 X96.642 Y110.5 E2.28992
G1 X96.134 Y109.633 E2.33671
G1 X95.982 Y109.329 E2.35253
G1 X95.57 Y108.332 E2.40276
G1 X95.45 Y107.97 E2.42052
G1 X95.3 Y107.456 E2.44546
G1 X95.269 Y107.334 E2.45132
G1 X95.09 Y106.376 E2.4967
G1 X95.018 Y105.656 E2.53039
G1 X95.012 Y105.552 E2.53524
G1 X95.001 Y104.997 E2.56109
G1 X95.007 Y104.628 E2.57827
G1 X95.089 Y103.633 E2.62476
G1 X95.133 Y103.34 E2.63856
G1 X95.38 Y102.253 E2.69046
G1 X95.588 Y101.622 E2.7214
G1 X95.842 Y100.991 E2.75307
G1 X95.959 Y100.732 E2.76631
G1 X96.186 Y100.272 E2.79019
G1 X96.274 Y100.108 E2.79886
G1 X96.83 Y99.225 E2.84745
G1 X97.015 Y98.972 E2.86204
G1 X97.688 Y98.175 E2.91062
G1 X97.916 Y97.94 E2.92586
M204 S3000
M205 X10 Y10
G0 F3000 X98.09 Y98.564
M204 S1800
M205 X8 Y8
G1 F2400 X98.663 Y97.997 E2.9634
G1 X98.81 Y97.865 E2.9726
G1 X99.54 Y97.293 E3.01578
G1 X99.81 Y97.109 E3.031
G1 X100.617 Y96.635 E3.07458
G1 X100.921 Y96.483 E3.0904
G1 X101.844 Y96.102 E3.1369
G1 X102.682 Y95.842 E3.17775
G1 X102.804 Y95.811 E3.18362
G1 X103.691 Y95.646 E3.22563
G1 X104.38 Y95.577 E3.25787
G1 X104.485 Y95.571 E3.26277
G1 X104.995 Y95.561 E3.28652
G1 X105.363 Y95.567 E3.30366
G1 X106.284 Y95.643 E3.34669
G1 X106.577 Y95.687 E3.36048
G1 X107.583 Y95.916 E3.40853
G1 X108.182 Y96.113 E3.43789
G1 X108.778 Y96.352 E3.46779
G1 X109.474 Y96.685 E3.50372
G1 X109.641 Y96.775 E3.51255
G1 X110.45 Y97.286 E3.55711
G1 X110.7 Y97.469 E3.57153
G1 X111.433 Y98.087 E3.61618
G1 X111.984 Y98.643 E3.65262
G1 X112.123 Y98.797 E3.66228
G1 X112.704 Y99.535 E3.70602
G1 X112.887 Y99.803 E3.72113
G1 X113.364 Y100.615 E3.76498
G1 X113.517 Y100.921 E3.78091
G1 X113.891 Y101.822 E3.82634
G1 X114.011 Y102.18 E3.84392
G1 X114.158 Y102.678 E3.8681
G1 X114.189 Y102.8 E3.87396
G1 X114.355 Y103.696 E3.91639
G1 X114.423 Y104.379 E3.94835
G1 X114.429 Y104.484 E3.95325
G1 X114.439 Y104.994 E3.977
G1 X114.433 Y105.363 E3.99419
G1 X114.357 Y106.284 E4.03722
G1 X114.313 Y106.577 E4.05101
G1 X114.084 Y107.583 E4.09906
G1 X113.887 Y108.182 E4.12842
G1 X113.648 Y108.778 E4.15832
G1 X113.321 Y109.463 E4.19366
G1 X113.233 Y109.627 E4.20233
G1 X112.718 Y110.444 E4.2473
G1 X112.533 Y110.697 E4.26189
G1 X111.911 Y111.435 E4.30683
G1 X111.343 Y111.997 E4.34404
G1 X111.194 Y112.131 E4.35337
G1 X110.46 Y112.707 E4.39682
G1 X110.19 Y112.891 E4.41203
G1 X109.383 Y113.365 E4.45561
G1 X109.079 Y113.517 E4.47144
G1 X108.156 Y113.898 E4.51793
G1 X107.318 Y114.158 E4.55879
G1 X107.196 Y114.189 E4.56465
G1 X106.309 Y114.354 E4.60666
G1 X105.62 Y114.423 E4.63891
G1 X105.515 Y114.429 E4.6438
G1 X105.005 Y114.439 E4.66756
G1 X104.637 Y114.433 E4.68469
G1 X103.716 Y114.357 E4.72772
G1 X103.423 Y114.313 E4.74152
G1 X102.417 Y114.084 E4.78956
G1 X101.818 Y113.887 E4.81892
G1 X101.222 Y113.648 E4.84883
G1 X100.526 Y113.315 E4.88475
G1 X100.359 Y113.225 E4.89359
G1 X99.55 Y112.714 E4.93814
G1 X99.3 Y112.531 E4.95257
G1 X98.564 Y111.91 E4.99741
G1 X97.996 Y111.336 E5.03501
G1 X97.864 Y111.189 E5.04421
G1 X97.288 Y110.454 E5.08769
G1 X97.105 Y110.185 E5.10284
G1 X96.635 Y109.383 E5.14613
G1 X96.483 Y109.079 E5.16195
G1 X96.102 Y108.156 E5.20845
G1 X95.842 Y107.318 E5.24931
G1 X95.811 Y107.196 E5.25517
G1 X95.646 Y106.309 E5.29718
G1 X95.578 Y105.624 E5.32923
G1 X95.572 Y105.52 E5.33408
G1 X95.561 Y105.006 E5.35802
G1 X95.567 Y104.637 E5.37521
G1 X95.643 Y103.716 E5.41824
G1 X95.687 Y103.423 E5.43203
G1 X95.916 Y102.417 E5.48007
G1 X96.113 Y101.818 E5.50944
G1 X96.352 Y101.222 E5.53934
G1 X96.679 Y100.537 E5.57468
G1 X96.767 Y100.373 E5.58335
G1 X97.282 Y99.556 E5.62832
G1 X97.467 Y99.303 E5.64291
G1 X98.09 Y98.564 E5.68792
M204 S3000
M205 X10 Y10
G0 F3000 X98.492 Y98.954
M204 S1800
M205 X8 Y8
G1 F2400 X99.037 Y98.414 E5.72364
G1 X99.184 Y98.282 E5.73284
G1 X99.856 Y97.755 E5.77261
G1 X100.126 Y97.571 E5.78782
G1 X100.868 Y97.136 E5.82787
G1 X101.172 Y96.984 E5.8437
G1 X102.02 Y96.633 E5.88644
G1 X102.82 Y96.385 E5.92544
G1 X102.942 Y96.354 E5.9313
G1 X103.757 Y96.202 E5.9699
G1 X104.412 Y96.136 E6.00056
G1 X104.986 Y96.121 E6.02729
G1 X105.354 Y96.127 E6.04443
G1 X106.2 Y96.197 E6.08396
G1 X106.493 Y96.241 E6.09776
G1 X107.419 Y96.451 E6.14197
G1 X107.985 Y96.637 E6.16971
G1 X108.548 Y96.863 E6.19796
G1 X109.208 Y97.178 E6.23201
G1 X109.375 Y97.268 E6.24085
G1 X110.119 Y97.738 E6.28182
G1 X110.369 Y97.921 E6.29625
G1 X111.043 Y98.49 E6.33732
G1 X111.568 Y99.018 E6.37199
G1 X111.707 Y99.172 E6.38165
G1 X112.241 Y99.851 E6.42188
G1 X112.424 Y100.119 E6.43699
G1 X112.863 Y100.866 E6.47733
G1 X113.016 Y101.172 E6.49326
G1 X113.36 Y102 E6.53501
G1 X113.615 Y102.816 E6.57482
G1 X113.646 Y102.938 E6.58068
G1 X113.799 Y103.762 E6.61971
G1 X113.864 Y104.411 E6.65008
G1 X113.879 Y104.985 E6.67682
G1 X113.873 Y105.354 E6.694
G1 X113.803 Y106.2 E6.73353
G1 X113.759 Y106.493 E6.74733
G1 X113.549 Y107.419 E6.79154
G1 X113.363 Y107.985 E6.81928
G1 X113.137 Y108.548 E6.84753
G1 X112.827 Y109.198 E6.88106
G1 X112.739 Y109.362 E6.88973
G1 X112.266 Y110.114 E6.9311
G1 X112.081 Y110.367 E6.94569
G1 X111.509 Y111.045 E6.987
G1 X110.969 Y111.581 E7.02242
G1 X110.82 Y111.715 E7.03175
G1 X110.144 Y112.245 E7.07175
G1 X109.874 Y112.429 E7.08697
G1 X109.132 Y112.864 E7.12702
G1 X108.828 Y113.016 E7.14284
G1 X107.98 Y113.367 E7.18558
G1 X107.18 Y113.615 E7.22458
G1 X107.058 Y113.646 E7.23044
G1 X106.243 Y113.798 E7.26905
G1 X105.588 Y113.864 E7.2997
G1 X105.014 Y113.879 E7.32644
G1 X104.646 Y113.873 E7.34357
G1 X103.8 Y113.803 E7.3831
G1 X103.507 Y113.759 E7.3969
G1 X102.581 Y113.549 E7.44111
G1 X102.015 Y113.363 E7.46885
G1 X101.452 Y113.137 E7.4971
G1 X100.792 Y112.822 E7.53116
G1 X100.625 Y112.732 E7.53999
G1 X99.881 Y112.262 E7.58097
G1 X99.631 Y112.079 E7.59539
G1 X98.954 Y111.508 E7.63663
G1 X98.413 Y110.962 E7.67242
G1 X98.281 Y110.815 E7.68162
G1 X97.751 Y110.139 E7.72162
G1 X97.568 Y109.87 E7.73677
G1 X97.136 Y109.132 E7.77659
G1 X96.984 Y108.828 E7.79242
G1 X96.633 Y107.98 E7.83515
G1 X96.385 Y107.18 E7.87415
G1 X96.354 Y107.058 E7.88001
G1 X96.202 Y106.243 E7.91862
G1 X96.137 Y105.592 E7.94908
G1 X96.121 Y105.015 E7.97596
G1 X96.127 Y104.646 E7.99314
G1 X96.197 Y103.8 E8.03267
G1 X96.241 Y103.507 E8.04647
G1 X96.451 Y102.581 E8.09068
G1 X96.637 Y102.015 E8.11842
G1 X96.863 Y101.452 E8.14667
G1 X97.173 Y100.802 E8.18021
G1 X97.261 Y100.638 E8.18887
G1 X97.734 Y99.886 E8.23024
G1 X97.919 Y99.633 E8.24483
G1 X98.492 Y98.954 E8.2862
M204 S3000
M205 X10 Y10
G0 F3000 X98.894 Y99.344
M204 S1800
M205 X8 Y8
G1 F2400 X99.411 Y98.831 E8.32012
G1 X99.558 Y98.699 E8.32932
G1 X100.171 Y98.218 E8.3656
G1 X100.441 Y98.034 E8.38081
G1 X101.118 Y97.637 E8.41736
G1 X101.422 Y97.485 E8.43318
G1 X102.196 Y97.165 E8.47218
G1 X102.958 Y96.928 E8.50934
G1 X103.08 Y96.897 E8.5152
G1 X103.824 Y96.758 E8.55045
G1 X104.444 Y96.696 E8.57946
G1 X104.977 Y96.681 E8.60429
G1 X105.345 Y96.687 E8.62143
G1 X106.117 Y96.751 E8.6575
G1 X106.41 Y96.795 E8.67129
G1 X107.255 Y96.986 E8.71163
G1 X107.789 Y97.162 E8.73781
G1 X108.317 Y97.373 E8.76429
G1 X108.943 Y97.671 E8.79657
G1 X109.11 Y97.761 E8.80541
G1 X109.788 Y98.19 E8.84277
G1 X110.038 Y98.373 E8.85719
G1 X110.654 Y98.892 E8.8947
G1 X111.152 Y99.393 E8.92759
G1 X111.291 Y99.547 E8.93725
G1 X111.779 Y100.167 E8.97399
G1 X111.962 Y100.435 E8.9891
G1 X112.362 Y101.116 E9.02588
G1 X112.515 Y101.422 E9.04181
G1 X112.829 Y102.178 E9.07993
G1 X113.072 Y102.954 E9.11779
G1 X113.103 Y103.076 E9.12365
G1 X113.243 Y103.828 E9.15927
G1 X113.304 Y104.443 E9.18805
G1 X113.319 Y104.976 E9.21288
G1 X113.313 Y105.345 E9.23006
G1 X113.249 Y106.117 E9.26613
G1 X113.205 Y106.41 E9.27993
G1 X113.014 Y107.255 E9.32027
G1 X112.838 Y107.789 E9.34645
G1 X112.627 Y108.317 E9.37293
G1 X112.334 Y108.933 E9.40469
G1 X112.246 Y109.097 E9.41336
G1 X111.814 Y109.783 E9.45111
G1 X111.629 Y110.036 E9.4657
G1 X111.107 Y110.655 E9.5034
G1 X110.594 Y111.164 E9.53705
G1 X110.445 Y111.298 E9.54639
G1 X109.829 Y111.782 E9.58286
G1 X109.559 Y111.966 E9.59808
G1 X108.882 Y112.363 E9.63462
G1 X108.578 Y112.515 E9.65045
G1 X107.804 Y112.835 E9.68945
G1 X107.042 Y113.072 E9.72661
G1 X106.92 Y113.103 E9.73247
G1 X106.176 Y113.242 E9.76771
G1 X105.556 Y113.304 E9.79672
G1 X105.023 Y113.319 E9.82155
G1 X104.655 Y113.313 E9.83869
G1 X103.883 Y113.249 E9.87476
G1 X103.59 Y113.205 E9.88856
G1 X102.745 Y113.014 E9.9289
G1 X102.211 Y112.838 E9.95508
G1 X101.683 Y112.627 E9.98155
G1 X101.057 Y112.329 E10.01384
G1 X100.89 Y112.239 E10.02267
G1 X100.212 Y111.81 E10.06003
G1 X99.962 Y111.627 E10.07446
G1 X99.344 Y111.106 E10.1121
G1 X98.83 Y110.588 E10.14608
G1 X98.698 Y110.441 E10.15528
G1 X98.214 Y109.824 E10.19179
G1 X98.031 Y109.555 E10.20694
G1 X97.637 Y108.882 E10.24325
G1 X97.485 Y108.578 E10.25908
G1 X97.165 Y107.804 E10.29808
G1 X96.928 Y107.042 E10.33524
G1 X96.897 Y106.92 E10.3411
G1 X96.758 Y106.176 E10.37634
G1 X96.696 Y105.559 E10.40522
G1 X96.681 Y105.024 E10.43014
G1 X96.687 Y104.655 E10.44732
G1 X96.751 Y103.883 E10.48339
G1 X96.795 Y103.59 E10.49719
G1 X96.986 Y102.745 E10.53753
G1 X97.162 Y102.211 E10.56371
G1 X97.373 Y101.683 E10.59019
G1 X97.666 Y101.067 E10.62195
G1 X97.754 Y100.903 E10.63062
G1 X98.186 Y100.217 E10.66837
G1 X98.371 Y99.964 E10.68296
G1 X98.894 Y99.344 E10.72073
M204 S3000
M205 X10 Y10
G0 F3000 X99.295 Y99.734
M204 S1800
M205 X8 Y8
G1 F2400 X99.785 Y99.247 E10.7529
G1 X99.932 Y99.115 E10.7621
G1 X100.487 Y98.681 E10.7949
G1 X100.757 Y98.497 E10.81012
G1 X101.369 Y98.137 E10.84318
G1 X101.673 Y97.985 E10.85901
G1 X102.373 Y97.696 E10.89427
G1 X103.096 Y97.471 E10.92953
G1 X103.218 Y97.44 E10.93539
G1 X103.891 Y97.314 E10.96727
G1 X104.476 Y97.255 E10.99465
G1 X105.336 Y97.247 E11.0347
G1 X106.034 Y97.305 E11.06731
G1 X106.327 Y97.349 E11.08111
G1 X107.09 Y97.522 E11.11754
G1 X107.593 Y97.686 E11.14217
G1 X108.087 Y97.883 E11.16694
G1 X108.677 Y98.164 E11.19737
G1 X108.844 Y98.254 E11.2062
G1 X109.458 Y98.641 E11.24
G1 X109.708 Y98.824 E11.25442
G1 X110.264 Y99.294 E11.28832
G1 X110.737 Y99.768 E11.3195
G1 X110.876 Y99.922 E11.32916
G1 X111.316 Y100.483 E11.36236
G1 X111.499 Y100.751 E11.37747
G1 X111.862 Y101.367 E11.41077
G1 X112.015 Y101.673 E11.4267
G1 X112.298 Y102.356 E11.46112
G1 X112.529 Y103.092 E11.49704
G1 X112.56 Y103.214 E11.5029
G1 X112.686 Y103.894 E11.53511
G1 X112.745 Y104.475 E11.5623
G1 X112.753 Y105.336 E11.60239
G1 X112.695 Y106.034 E11.63501
G1 X112.651 Y106.327 E11.6488
G1 X112.478 Y107.09 E11.68523
G1 X112.314 Y107.593 E11.70987
G1 X112.117 Y108.087 E11.73463
G1 X111.841 Y108.668 E11.76458
G1 X111.753 Y108.832 E11.77325
G1 X111.362 Y109.453 E11.80742
G1 X111.177 Y109.706 E11.82202
G1 X110.705 Y110.265 E11.85608
G1 X110.22 Y110.748 E11.88795
G1 X110.071 Y110.882 E11.89729
G1 X109.513 Y111.319 E11.93029
G1 X109.243 Y111.503 E11.9455
G1 X108.631 Y111.863 E11.97856
G1 X108.327 Y112.015 E11.99439
G1 X107.627 Y112.304 E12.02965
G1 X106.904 Y112.529 E12.06491
G1 X106.782 Y112.56 E12.07077
G1 X106.109 Y112.686 E12.10266
G1 X105.524 Y112.745 E12.13003
G1 X104.664 Y112.753 E12.17008
G1 X103.966 Y112.695 E12.2027
G1 X103.673 Y112.651 E12.21649
G1 X102.91 Y112.478 E12.25292
G1 X102.407 Y112.314 E12.27756
G1 X101.913 Y112.117 E12.30232
G1 X101.323 Y111.836 E12.33275
G1 X101.156 Y111.746 E12.34158
G1 X100.542 Y111.359 E12.37538
G1 X100.292 Y111.176 E12.38981
G1 X99.734 Y110.704 E12.42384
G1 X99.246 Y110.214 E12.45604
G1 X99.114 Y110.067 E12.46524
G1 X98.677 Y109.509 E12.49824
G1 X98.494 Y109.24 E12.51339
G1 X98.137 Y108.631 E12.54626
G1 X97.985 Y108.327 E12.56209
G1 X97.696 Y107.627 E12.59735
G1 X97.471 Y106.904 E12.63261
G1 X97.44 Y106.782 E12.63847
G1 X97.314 Y106.109 E12.67035
G1 X97.255 Y105.527 E12.69759
G1 X97.247 Y104.664 E12.73778
G1 X97.305 Y103.966 E12.77039
G1 X97.349 Y103.673 E12.78419
G1 X97.522 Y102.91 E12.82062
G1 X97.686 Y102.407 E12.84526
G1 X97.883 Y101.913 E12.87002
G1 X98.159 Y101.332 E12.89997
G1 X98.247 Y101.168 E12.90864
G1 X98.638 Y100.547 E12.94281
G1 X98.823 Y100.294 E12.9574
G1 X99.295 Y99.734 E12.99151
M204 S3000
M205 X10 Y10
G1 F2400 E6.99151
;MESH:stick.stl
G0 F3000 X102.742 Y102.794
G0 X103.886 Y103.8
G0 X105.234 Y106.066
M204 S1800
M205 X8 Y8
;TYPE:WALL-INNER
G1 F2400 E12.99151
G1 F1500 X104.898 Y106.088 E13.00718
G1 X104.499 Y105.973 E13.02652
G1 X104.153 Y105.692 E13.04728
G1 X103.947 Y105.294 E13.06814
G1 X103.911 Y105.086 E13.07797
G1 X103.933 Y104.763 E13.09305
G1 X104.106 Y104.37 E13.11304
G1 X104.416 Y104.077 E13.1329
G1 X104.719 Y103.946 E13.14828
G1 X104.912 Y103.912 E13.1574
G1 X105.241 Y103.935 E13.17276
G1 X105.421 Y103.992 E13.18155
G1 X105.705 Y104.166 E13.19706
G1 X105.962 Y104.483 E13.21606
G1 X106.069 Y104.79 E13.2312
G1 X106.086 Y105.08 E13.24473
G1 X106.022 Y105.386 E13.25928
G1 X105.799 Y105.747 E13.27904
G1 X105.435 Y106.003 E13.29976
G1 X105.234 Y106.066 E13.30957
M204 S3000
M205 X10 Y10
G0 F3000 X105.336 Y106.621
M204 S1800
M205 X8 Y8
G1 F1500 X104.867 Y106.651 E13.33145
