;FLAVOR:Marlin
;TIME:505
;Filament used: 0.4076m
;Layer height: 0.2
;MINX:72.387
;MINY:75.25
;MINZ:0.2
;MAXX:139.583
;MAXY:182.576
;MAXZ:3.4
;Generated with Cura_SteamEngine 4.11.0
M140 S60
M105
M190 S60
M104 S200
M105
M109 S200
M82 ;absolute extrusion mode
G21 ;metric values
G90 ;absolute positioning
M82 ;set extruder to absolute mode
M107 ;start with the fan off
G28 X0 Y0 ;move X/Y to min endstops
G28 Z0 ;move Z to min endstops
G1 Z15.0 F100 ;move the platform down 15mm
G92 E0 ;zero the extruded length
G1 F200 E3 ;extrude 3mm of feed stock
G92 E0 ;zero the extruded length again
G1 F100
G0 Y20 F100
M117 Printing...
G5
G92 E0
G92 E0
G1 F2400 E-6
;LAYER_COUNT:17
;LAYER:0
M107
M204 S3000
M205 X10 Y10
G1 F600 Z0.275
G0 F3000 X76.491 Y111.282 Z0.275
M204 S1800
M205 X8 Y8
;TYPE:SKIRT
G1 F600 Z0.2
G1 F2400 E0
G1 X77.007 Y111.017 E0.02701
G1 X77.553 Y110.826 E0.05395
G1 X78.121 Y110.711 E0.08093
G1 X78.7 Y110.676 E0.10794
G1 X79.277 Y110.721 E0.13489
G1 X79.843 Y110.845 E0.16187
G1 X80.386 Y111.045 E0.18881
G1 X80.751 Y111.231 E0.20789
G1 X83.09 Y112.57 E0.33339
G1 X83.645 Y112.936 E0.36434
G1 X84.098 Y113.297 E0.39132
G1 X84.496 Y113.718 E0.41829
G1 X84.833 Y114.189 E0.44526
G1 X85.102 Y114.702 E0.47223
G1 X85.298 Y115.248 E0.49925
G1 X85.416 Y115.815 E0.52621
G1 X85.456 Y116.393 E0.55319
G1 X85.416 Y116.971 E0.58017
G1 X85.254 Y117.676 E0.61385
G1 X85.038 Y118.294 E0.64434
G1 X85.176 Y118.415 E0.65288
G1 X85.584 Y118.826 E0.67985
G1 X85.7 Y118.979 E0.68879
G1 X86.19 Y119.34 E0.71713
G1 X86.36 Y119.48 E0.72739
G1 X86.792 Y119.667 E0.7493
G1 X87.307 Y119.933 E0.77629
G1 X87.734 Y120.247 E0.80098
G1 X88.434 Y120.53 E0.83613
G1 X88.949 Y120.796 E0.86312
G1 X89.54 Y121.231 E0.89729
G1 X89.998 Y121.634 E0.9257
G1 X90.406 Y122.046 E0.9527
G1 X90.599 Y122.3 E0.96755
G1 X91.122 Y122.52 E0.99397
G1 X91.637 Y122.786 E1.02096
G1 X92.228 Y123.221 E1.05513
G1 X92.686 Y123.624 E1.08354
G1 X92.921 Y123.862 E1.09912
G1 X93.085 Y123.878 E1.10679
G1 X93.648 Y124.015 E1.13377
G1 X94.187 Y124.228 E1.16076
G1 X94.821 Y124.582 E1.19457
G1 X95.128 Y124.791 E1.21186
G1 X95.64 Y125.035 E1.23827
G1 X95.967 Y125.226 E1.2559
G1 X96.446 Y125.552 E1.28288
G1 X96.876 Y125.941 E1.30988
G1 X97.248 Y126.385 E1.33686
G1 X97.378 Y126.593 E1.34828
G1 X97.621 Y126.652 E1.35992
G1 X98.16 Y126.865 E1.38691
G1 X98.794 Y127.219 E1.42072
G1 X99.274 Y127.546 E1.44777
G1 X99.892 Y127.832 E1.47947
G1 X100.219 Y128.023 E1.49711
G1 X100.698 Y128.349 E1.52409
G1 X101.128 Y128.738 E1.55109
G1 X101.5 Y129.182 E1.57806
G1 X101.694 Y129.488 E1.59493
G1 X102.174 Y129.811 E1.62187
G1 X102.66 Y130.189 E1.65054
G1 X103.091 Y130.575 E1.67748
G1 X103.409 Y130.801 E1.69565
G1 X103.903 Y131.186 E1.72481
G1 X104.001 Y131.234 E1.72989
G1 X104.483 Y131.558 E1.75693
G1 X104.969 Y131.936 E1.7856
G1 X105.138 Y132.088 E1.79619
G1 X105.597 Y132.396 E1.82193
G1 X106.083 Y132.774 E1.8506
G1 X106.411 Y133.068 E1.87111
G1 X106.678 Y133.247 E1.88607
G1 X107.164 Y133.625 E1.91474
G1 X107.595 Y134.011 E1.94169
G1 X107.955 Y134.435 E1.96759
G1 X108.5 Y134.613 E1.99428
G1 X108.765 Y134.743 E2.00803
G1 X109.147 Y134.722 E2.02584
G1 X109.765 Y134.722 E2.05462
G1 X110.343 Y134.762 E2.0816
G1 X110.91 Y134.881 E2.10857
G1 X111.455 Y135.077 E2.13554
G1 X111.968 Y135.346 E2.16251
G1 X112.237 Y135.526 E2.17759
G1 X112.737 Y135.89 E2.20638
G1 X113.181 Y136.263 E2.23339
G1 X113.569 Y136.693 E2.26035
G1 X113.894 Y137.172 E2.28731
G1 X114.099 Y137.587 E2.30886
G1 X114.432 Y137.956 E2.33201
G1 X114.66 Y138.292 E2.35091
G1 X115.137 Y138.581 E2.37688
G1 X115.637 Y138.945 E2.40568
G1 X116.081 Y139.318 E2.43268
G1 X116.265 Y139.492 E2.44447
G1 X116.765 Y139.856 E2.47327
G1 X117.106 Y140.143 E2.49403
G1 X117.213 Y140.181 E2.49931
G1 X117.726 Y140.45 E2.52629
G1 X117.995 Y140.63 E2.54136
G1 X118.495 Y140.994 E2.57016
G1 X118.939 Y141.367 E2.59716
G1 X119.327 Y141.797 E2.62413
G1 X119.479 Y142.021 E2.63673
G1 X120.031 Y142.196 E2.6637
G1 X120.554 Y142.445 E2.69067
G1 X121.038 Y142.763 E2.71763
G1 X121.473 Y143.146 E2.74462
G1 X121.89 Y143.636 E2.77458
G1 X122.084 Y143.903 E2.78995
G1 X122.373 Y144.041 E2.80486
G1 X122.857 Y144.36 E2.83185
G1 X123.312 Y144.78 E2.86069
G1 X123.355 Y144.796 E2.86282
G1 X124.113 Y145.177 E2.90233
G1 X124.94 Y145.704 E2.94799
G1 X125.406 Y146.048 E2.97496
G1 X125.82 Y146.453 E3.00193
G1 X126.175 Y146.912 E3.02895
G1 X126.463 Y147.414 E3.0559
G1 X126.679 Y147.952 E3.08289
G1 X126.819 Y148.514 E3.10986
G1 X126.883 Y149.246 E3.14408
G1 X126.883 Y150.421 E3.19879
G1 X126.843 Y150.999 E3.22577
G1 X126.724 Y151.566 E3.25274
G1 X126.528 Y152.111 E3.27971
G1 X126.259 Y152.624 E3.30669
G1 X125.922 Y153.095 E3.33365
G1 X125.523 Y153.515 E3.36063
G1 X125.07 Y153.877 E3.38763
G1 X124.572 Y154.172 E3.41458
G1 X123.98 Y154.416 E3.4444
G1 X122.862 Y154.779 E3.49913
G1 X122.3 Y154.919 E3.5261
G1 X121.724 Y154.981 E3.55308
G1 X121.145 Y154.963 E3.58005
G1 X120.574 Y154.865 E3.60703
G1 X120.022 Y154.69 E3.63399
G1 X119.499 Y154.441 E3.66096
G1 X119.015 Y154.122 E3.68796
G1 X118.606 Y153.766 E3.7132
G1 X118.447 Y153.691 E3.72139
G1 X117.941 Y153.408 E3.74839
G1 X117.489 Y153.066 E3.77478
G1 X117.163 Y152.915 E3.79151
G1 X116.676 Y152.601 E3.81849
G1 X116.237 Y152.223 E3.84547
G1 X115.854 Y151.789 E3.87242
G1 X115.637 Y151.461 E3.89073
G1 X115.536 Y151.42 E3.89581
G1 X115.033 Y151.131 E3.92282
G1 X114.576 Y150.776 E3.94976
G1 X114.171 Y150.361 E3.97677
G1 X113.905 Y149.999 E3.99768
G1 X113.76 Y149.969 E4.00458
G1 X113.215 Y149.773 E4.03155
G1 X112.702 Y149.504 E4.05852
G1 X112.433 Y149.324 E4.07359
G1 X111.933 Y148.96 E4.10239
G1 X111.592 Y148.673 E4.12314
G1 X111.485 Y148.635 E4.12843
G1 X110.972 Y148.366 E4.1554
G1 X110.703 Y148.186 E4.17047
G1 X110.203 Y147.822 E4.19927
G1 X109.759 Y147.449 E4.22627
G1 X109.575 Y147.275 E4.23807
G1 X109.075 Y146.911 E4.26686
G1 X108.414 Y146.501 E4.30308
G1 X107.914 Y146.137 E4.33188
G1 X107.47 Y145.764 E4.35888
G1 X107.171 Y145.432 E4.37969
G1 X106.639 Y145.342 E4.40481
G1 X106.087 Y145.167 E4.43178
G1 X105.982 Y145.117 E4.43719
G1 X105.534 Y145.117 E4.45805
G1 X104.956 Y145.077 E4.48503
G1 X104.389 Y144.958 E4.51201
G1 X103.844 Y144.762 E4.53898
G1 X103.331 Y144.493 E4.56595
G1 X103.062 Y144.313 E4.58102
G1 X102.562 Y143.949 E4.60982
G1 X102.118 Y143.576 E4.63682
G1 X101.73 Y143.146 E4.66379
G1 X101.405 Y142.667 E4.69074
G1 X101.148 Y142.147 E4.71775
G1 X100.949 Y141.573 E4.74604
G1 X100.645 Y141.129 E4.7711
G1 X100.34 Y140.855 E4.79019
G1 X100.073 Y140.676 E4.80516
G1 X99.587 Y140.298 E4.83383
G1 X99.418 Y140.146 E4.84441
G1 X98.959 Y139.838 E4.87015
G1 X98.465 Y139.453 E4.89931
G1 X98.367 Y139.405 E4.90439
G1 X97.885 Y139.081 E4.93144
G1 X97.399 Y138.703 E4.96011
G1 X96.968 Y138.317 E4.98705
G1 X96.65 Y138.091 E5.00521
G1 X96.164 Y137.713 E5.03388
G1 X95.733 Y137.327 E5.06082
G1 X95.504 Y137.057 E5.07731
G1 X94.782 Y136.73 E5.11422
G1 X94.455 Y136.539 E5.13185
G1 X93.975 Y136.212 E5.15889
G1 X93.357 Y135.926 E5.1906
G1 X93.03 Y135.735 E5.20824
G1 X92.551 Y135.409 E5.23522
G1 X92.121 Y135.02 E5.26222
G1 X91.749 Y134.576 E5.28919
G1 X91.619 Y134.368 E5.30061
G1 X91.376 Y134.309 E5.31225
G1 X90.837 Y134.096 E5.33924
G1 X90.203 Y133.742 E5.37305
G1 X89.896 Y133.533 E5.39034
G1 X89.384 Y133.289 E5.41675
G1 X89.057 Y133.098 E5.43439
G1 X88.578 Y132.772 E5.46137
G1 X88.148 Y132.383 E5.48837
G1 X87.776 Y131.939 E5.51534
G1 X87.469 Y131.448 E5.5423
G1 X87.27 Y131.004 E5.56496
G1 X86.818 Y130.671 E5.5911
G1 X86.226 Y130.427 E5.62092
G1 X85.711 Y130.161 E5.64791
G1 X85.12 Y129.726 E5.68208
G1 X84.662 Y129.323 E5.71049
G1 X84.254 Y128.911 E5.73749
G1 X84.126 Y128.742 E5.74736
G1 X83.594 Y128.519 E5.77422
G1 X83.079 Y128.253 E5.80121
G1 X82.488 Y127.818 E5.83538
G1 X82.318 Y127.678 E5.84563
G1 X81.886 Y127.491 E5.86755
G1 X81.371 Y127.225 E5.89454
G1 X80.78 Y126.79 E5.92871
G1 X80.322 Y126.387 E5.95712
G1 X79.914 Y125.975 E5.98412
G1 X79.8 Y125.825 E5.99289
G1 X79.31 Y125.464 E6.02123
G1 X78.852 Y125.061 E6.04964
G1 X78.444 Y124.649 E6.07664
G1 X78.126 Y124.229 E6.10117
G1 X77.815 Y123.76 E6.12737
G1 X77.529 Y123.256 E6.15436
G1 X77.315 Y122.718 E6.18132
G1 X77.141 Y121.905 E6.22003
G1 X77.121 Y121.726 E6.22842
G1 X77.097 Y121.148 E6.25535
G1 X77.152 Y120.571 E6.28234
G1 X77.286 Y120.007 E6.30934
G1 X77.324 Y119.91 E6.31419
G1 X75.658 Y118.501 E6.41579
G1 X75.243 Y118.098 E6.44272
G1 X74.887 Y117.641 E6.4697
G1 X74.597 Y117.139 E6.49669
G1 X74.379 Y116.602 E6.52368
G1 X74.237 Y116.041 E6.55063
G1 X74.173 Y115.465 E6.57761
G1 X74.19 Y114.886 E6.60459
G1 X74.286 Y114.315 E6.63155
G1 X74.459 Y113.762 E6.65853
G1 X74.707 Y113.238 E6.68552
G1 X74.935 Y112.878 E6.70536
G1 X75.229 Y112.46 E6.72916
G1 X75.594 Y112.01 E6.75614
G1 X76.017 Y111.615 E6.78309
G1 X76.491 Y111.282 E6.81006
M204 S3000
M205 X10 Y10
G0 F3000 X76.878 Y111.705
M204 S1800
M205 X8 Y8
G1 F2400 X77.366 Y111.475 E6.83518
G1 X77.882 Y111.321 E6.86026
G1 X78.416 Y111.244 E6.88538
G1 X78.955 Y111.248 E6.91048
G1 X79.488 Y111.331 E6.9356
G1 X80.003 Y111.491 E6.96071
G1 X80.472 Y111.717 E6.98495
G1 X82.811 Y113.056 E7.11045
G1 X83.327 Y113.396 E7.13922
G1 X83.746 Y113.735 E7.16432
G1 X84.111 Y114.132 E7.18943
G1 X84.413 Y114.579 E7.21455
G1 X84.646 Y115.065 E7.23965
G1 X84.805 Y115.581 E7.26479
G1 X84.886 Y116.114 E7.28989
G1 X84.886 Y116.653 E7.31499
G1 X84.808 Y117.187 E7.34012
G1 X84.594 Y117.899 E7.37474
G1 X84.392 Y118.399 E7.39985
G1 X84.37 Y118.452 E7.40252
G1 X84.807 Y118.836 E7.42961
G1 X85.184 Y119.221 E7.4547
G1 X85.34 Y119.403 E7.46586
G1 X85.821 Y119.76 E7.49375
G1 X86.047 Y119.959 E7.50778
G1 X86.57 Y120.181 E7.53423
G1 X87.048 Y120.431 E7.55935
G1 X87.464 Y120.74 E7.58348
G1 X88.212 Y121.044 E7.62108
G1 X88.69 Y121.294 E7.64619
G1 X89.171 Y121.651 E7.67409
G1 X89.629 Y122.054 E7.70249
G1 X90.006 Y122.44 E7.72762
G1 X90.248 Y122.762 E7.74637
G1 X90.9 Y123.034 E7.77927
G1 X91.378 Y123.284 E7.80439
G1 X91.859 Y123.641 E7.83228
G1 X92.317 Y124.044 E7.86069
G1 X92.66 Y124.395 E7.88354
G1 X93.1 Y124.451 E7.90419
G1 X93.619 Y124.597 E7.9293
G1 X94.212 Y124.875 E7.95979
G1 X94.852 Y125.282 E7.99511
G1 X95.358 Y125.519 E8.02113
G1 X95.685 Y125.71 E8.03876
G1 X96.129 Y126.016 E8.06387
G1 X96.523 Y126.384 E8.08897
G1 X96.859 Y126.806 E8.11409
G1 X97.017 Y127.081 E8.12886
G1 X97.073 Y127.088 E8.13149
G1 X97.592 Y127.234 E8.15659
G1 X98.185 Y127.512 E8.18709
G1 X98.512 Y127.703 E8.20472
G1 X98.956 Y128.009 E8.22983
G1 X99.61 Y128.316 E8.26347
G1 X99.937 Y128.507 E8.28111
G1 X100.381 Y128.813 E8.30622
G1 X100.775 Y129.181 E8.33132
G1 X101.111 Y129.603 E8.35644
G1 X101.292 Y129.918 E8.37336
G1 X101.83 Y130.253 E8.40287
G1 X102.316 Y130.631 E8.43154
G1 X102.716 Y130.992 E8.45663
G1 X103.065 Y131.243 E8.47664
G1 X103.551 Y131.621 E8.50531
G1 X104.139 Y132 E8.53789
G1 X104.625 Y132.378 E8.56656
G1 X105.253 Y132.838 E8.6028
G1 X105.739 Y133.216 E8.63147
G1 X106.334 Y133.689 E8.66687
G1 X106.82 Y134.067 E8.69554
G1 X107.22 Y134.428 E8.72063
G1 X107.562 Y134.845 E8.74574
G1 X107.616 Y134.942 E8.75091
G1 X107.848 Y134.985 E8.76189
G1 X108.358 Y135.161 E8.78702
G1 X108.675 Y135.326 E8.80366
G1 X109.147 Y135.282 E8.82573
G1 X109.765 Y135.282 E8.85451
G1 X110.303 Y135.322 E8.87963
G1 X110.829 Y135.441 E8.90474
G1 X111.331 Y135.636 E8.92982
G1 X111.907 Y135.979 E8.96103
G1 X112.407 Y136.343 E8.98983
G1 X112.819 Y136.692 E9.01497
G1 X113.174 Y137.098 E9.04009
G1 X113.465 Y137.552 E9.0652
G1 X113.613 Y137.896 E9.08263
G1 X113.682 Y137.955 E9.08686
G1 X114.037 Y138.361 E9.11197
G1 X114.259 Y138.708 E9.13115
G1 X114.807 Y139.034 E9.16085
G1 X115.307 Y139.398 E9.18964
G1 X115.719 Y139.747 E9.21479
G1 X115.935 Y139.945 E9.22843
G1 X116.435 Y140.309 E9.25723
G1 X116.821 Y140.636 E9.28079
G1 X117.089 Y140.74 E9.29417
G1 X117.665 Y141.083 E9.32539
G1 X118.165 Y141.447 E9.35419
G1 X118.577 Y141.796 E9.37933
G1 X118.932 Y142.202 E9.40444
G1 X119.143 Y142.531 E9.42264
G1 X119.491 Y142.603 E9.43919
G1 X119.997 Y142.789 E9.46429
G1 X120.47 Y143.048 E9.4894
G1 X120.9 Y143.374 E9.51453
G1 X121.437 Y143.965 E9.55171
G1 X121.716 Y144.349 E9.57381
G1 X121.816 Y144.386 E9.57878
G1 X122.289 Y144.645 E9.60389
G1 X122.718 Y144.971 E9.62898
G1 X123.014 Y145.265 E9.6484
G1 X123.156 Y145.319 E9.65548
G1 X123.812 Y145.649 E9.68967
G1 X124.639 Y146.176 E9.73533
G1 X125.071 Y146.499 E9.76045
G1 X125.451 Y146.882 E9.78557
G1 X125.77 Y147.317 E9.81069
G1 X126.021 Y147.794 E9.83579
G1 X126.199 Y148.303 E9.8609
G1 X126.299 Y148.833 E9.88601
G1 X126.323 Y149.246 E9.90528
G1 X126.323 Y150.421 E9.95999
G1 X126.283 Y150.959 E9.98511
G1 X126.164 Y151.485 E10.01022
G1 X125.969 Y151.987 E10.0353
G1 X125.701 Y152.456 E10.06045
G1 X125.368 Y152.879 E10.08552
G1 X124.975 Y153.249 E10.11065
G1 X124.532 Y153.556 E10.13575
G1 X123.807 Y153.883 E10.17278
G1 X122.689 Y154.246 E10.22752
G1 X122.165 Y154.374 E10.25263
G1 X121.628 Y154.423 E10.27774
G1 X121.09 Y154.393 E10.30283
G1 X120.562 Y154.283 E10.32795
G1 X120.056 Y154.096 E10.35307
G1 X119.583 Y153.837 E10.37818
G1 X119.054 Y153.419 E10.40957
G1 X118.927 Y153.298 E10.41774
G1 X118.685 Y153.184 E10.4302
G1 X118.216 Y152.919 E10.45528
G1 X117.802 Y152.595 E10.47976
G1 X117.4 Y152.406 E10.50044
G1 X116.952 Y152.107 E10.52552
G1 X116.552 Y151.745 E10.55064
G1 X116.21 Y151.328 E10.57576
G1 X116.022 Y151.012 E10.59288
G1 X115.747 Y150.9 E10.6067
G1 X115.284 Y150.624 E10.6318
G1 X114.866 Y150.282 E10.65695
G1 X114.504 Y149.883 E10.68204
G1 X114.248 Y149.501 E10.70345
G1 X113.841 Y149.409 E10.72288
G1 X113.339 Y149.214 E10.74796
G1 X112.763 Y148.871 E10.77917
G1 X112.263 Y148.507 E10.80797
G1 X111.877 Y148.18 E10.83153
G1 X111.609 Y148.076 E10.84491
G1 X111.033 Y147.733 E10.87613
G1 X110.533 Y147.369 E10.90493
G1 X110.121 Y147.02 E10.93007
G1 X109.905 Y146.822 E10.94371
G1 X109.405 Y146.458 E10.97251
G1 X109.32 Y146.391 E10.97755
G1 X108.744 Y146.048 E11.00877
G1 X108.244 Y145.684 E11.03757
G1 X107.832 Y145.335 E11.06271
G1 X107.477 Y144.929 E11.08782
G1 X107.449 Y144.885 E11.09025
G1 X107.155 Y144.869 E11.10396
G1 X106.627 Y144.76 E11.12907
G1 X106.121 Y144.574 E11.15417
G1 X106.09 Y144.557 E11.15581
G1 X105.534 Y144.557 E11.1817
G1 X104.996 Y144.517 E11.20682
G1 X104.47 Y144.398 E11.23194
G1 X103.968 Y144.203 E11.25701
G1 X103.392 Y143.86 E11.28823
G1 X102.892 Y143.496 E11.31703
G1 X102.48 Y143.147 E11.34217
G1 X102.125 Y142.741 E11.36728
G1 X101.834 Y142.287 E11.39239
G1 X101.573 Y141.679 E11.4232
G1 X101.448 Y141.296 E11.44196
G1 X101.268 Y141.076 E11.4552
G1 X101.103 Y140.777 E11.4711
G1 X100.725 Y140.448 E11.49443
G1 X100.417 Y140.234 E11.5119
G1 X99.931 Y139.856 E11.54057
G1 X99.303 Y139.396 E11.57682
G1 X98.817 Y139.018 E11.60548
G1 X98.229 Y138.639 E11.63806
G1 X97.743 Y138.261 E11.66673
G1 X97.343 Y137.9 E11.69182
G1 X96.994 Y137.649 E11.71184
G1 X96.508 Y137.271 E11.7405
G1 X96.108 Y136.91 E11.76559
G1 X95.832 Y136.573 E11.78588
G1 X95.657 Y136.524 E11.79434
G1 X95.064 Y136.246 E11.82484
G1 X94.737 Y136.055 E11.84247
G1 X94.293 Y135.749 E11.86758
G1 X93.639 Y135.442 E11.90122
G1 X93.312 Y135.251 E11.91885
G1 X92.868 Y134.945 E11.94396
G1 X92.474 Y134.577 E11.96907
G1 X92.138 Y134.155 E11.99418
G1 X91.98 Y133.88 E12.00895
G1 X91.924 Y133.873 E12.01158
G1 X91.405 Y133.727 E12.03669
G1 X90.812 Y133.449 E12.06718
G1 X90.172 Y133.042 E12.1025
G1 X89.666 Y132.805 E12.12852
G1 X89.339 Y132.614 E12.14615
G1 X88.895 Y132.308 E12.17126
G1 X88.501 Y131.94 E12.19636
G1 X88.165 Y131.518 E12.22148
G1 X87.896 Y131.051 E12.24658
G1 X87.735 Y130.643 E12.267
G1 X87.668 Y130.608 E12.27052
G1 X87.187 Y130.251 E12.29841
G1 X86.448 Y129.913 E12.33625
G1 X85.97 Y129.663 E12.36137
G1 X85.489 Y129.306 E12.38926
G1 X85.031 Y128.903 E12.41767
G1 X84.654 Y128.517 E12.44279
G1 X84.476 Y128.28 E12.45659
G1 X83.816 Y128.005 E12.48989
G1 X83.338 Y127.755 E12.51501
G1 X82.857 Y127.398 E12.5429
G1 X82.631 Y127.199 E12.55692
G1 X82.108 Y126.977 E12.58338
G1 X81.63 Y126.727 E12.60849
G1 X81.149 Y126.37 E12.63639
G1 X80.691 Y125.967 E12.66479
G1 X80.314 Y125.581 E12.68992
G1 X80.16 Y125.401 E12.70095
G1 X79.679 Y125.044 E12.72884
G1 X79.221 Y124.641 E12.75725
G1 X78.844 Y124.255 E12.78237
G1 X78.592 Y123.92 E12.80189
