;FLAVOR:Marlin
;TIME:6690
;Filament used: 3.85358m
;Layer height: 0.2
;MINX:58.598
;MINY:94.6
;MINZ:0.2
;MAXX:151.402
;MAXY:115.4
;MAXZ:38.2
;Generated with Cura_SteamEngine 4.11.0
M140 S60
M105
M190 S60
M104 S200
M105
M109 S200
M82 ;absolute extrusion mode
G21 ;metric values
G90 ;absolute positioning
M82 ;set extruder to absolute mode
M107 ;start with the fan off
G28 X0 Y0 ;move X/Y to min endstops
G28 Z0 ;move Z to min endstops
G1 Z15.0 F100 ;move the platform down 15mm
G92 E0 ;zero the extruded length
G1 F200 E3 ;extrude 3mm of feed stock
G92 E0 ;zero the extruded length again
G1 F100
G0 Y20 F100
M117 Printing...
G5
G92 E0
G92 E0
G1 F2400 E-6
;LAYER_COUNT:200
;LAYER:0
M107
M204 S3000
M205 X10 Y10
G1 F600 Z0.275
G0 F3000 X61.668 Y95.551 Z0.275
M204 S1800
M205 X8 Y8
;TYPE:SKIRT
G1 F600 Z0.2
G1 F2400 E0
G1 X62.298 Y95.212 E0.03331
G1 X62.962 Y94.946 E0.06662
G1 X63.651 Y94.755 E0.09991
G1 X64.358 Y94.642 E0.13325
G1 X65.15 Y94.603 E0.17017
G1 X65.33 Y94.6 E0.17856
G1 X144.293 Y94.6 E3.85541
G1 X145.083 Y94.611 E3.8922
G1 X145.796 Y94.661 E3.92548
G1 X146.5 Y94.79 E3.9588
G1 X147.184 Y94.998 E3.99209
G1 X147.841 Y95.28 E4.02539
G1 X148.463 Y95.634 E4.05871
G1 X149.041 Y96.055 E4.09201
G1 X149.569 Y96.538 E4.12533
G1 X150.039 Y97.076 E4.15859
G1 X150.447 Y97.664 E4.19192
G1 X150.786 Y98.294 E4.22523
G1 X151.053 Y98.957 E4.25851
G1 X151.244 Y99.647 E4.29185
G1 X151.357 Y100.353 E4.32514
G1 X151.397 Y101.15 E4.3623
G1 X151.4 Y101.322 E4.37031
G1 X151.402 Y103.012 E4.44901
G1 X151.4 Y104.051 E4.49739
G1 X151.399 Y108.352 E4.69766
G1 X151.389 Y109.079 E4.73151
G1 X151.34 Y109.793 E4.76484
G1 X151.211 Y110.496 E4.79812
G1 X151.004 Y111.181 E4.83144
G1 X150.722 Y111.838 E4.86473
G1 X150.368 Y112.46 E4.89806
G1 X149.948 Y113.038 E4.93133
G1 X149.465 Y113.566 E4.96465
G1 X148.927 Y114.037 E4.99794
G1 X148.339 Y114.445 E5.03127
G1 X147.709 Y114.785 E5.0646
G1 X147.046 Y115.052 E5.09788
G1 X146.357 Y115.243 E5.13118
G1 X145.651 Y115.357 E5.16448
G1 X144.85 Y115.397 E5.20182
G1 X144.67 Y115.4 E5.2102
G1 X65.624 Y115.399 E8.89092
G1 X64.926 Y115.39 E8.92342
G1 X64.213 Y115.341 E8.9567
G1 X63.509 Y115.213 E8.99002
G1 X62.824 Y115.007 E9.02333
G1 X62.167 Y114.725 E9.05662
G1 X61.545 Y114.372 E9.08992
G1 X60.966 Y113.952 E9.12323
G1 X60.437 Y113.47 E9.15655
G1 X59.966 Y112.932 E9.18985
G1 X59.558 Y112.345 E9.22313
G1 X59.218 Y111.715 E9.25647
G1 X58.95 Y111.052 E9.28977
G1 X58.758 Y110.363 E9.32307
G1 X58.644 Y109.657 E9.35637
G1 X58.602 Y108.831 E9.39488
G1 X58.6 Y108.666 E9.40257
G1 X58.598 Y106.988 E9.4807
G1 X58.6 Y105.949 E9.52908
G1 X58.601 Y101.578 E9.73262
G1 X58.611 Y100.913 E9.76358
G1 X58.661 Y100.199 E9.79691
G1 X58.791 Y99.496 E9.8302
G1 X58.999 Y98.812 E9.86349
G1 X59.282 Y98.155 E9.8968
G1 X59.636 Y97.533 E9.93013
G1 X60.058 Y96.955 E9.96345
G1 X60.541 Y96.428 E9.99674
G1 X61.08 Y95.958 E10.03004
G1 X61.668 Y95.551 E10.06334
M204 S3000
M205 X10 Y10
G0 F3000 X62.199 Y95.89
M204 S1800
M205 X8 Y8
G1 F2400 X62.816 Y95.597 E10.09514
G1 X63.463 Y95.378 E10.12695
G1 X64.131 Y95.236 E10.15875
G1 X64.846 Y95.171 E10.19218
G1 X65.33 Y95.16 E10.21472
G1 X144.293 Y95.16 E13.89157
G1 X145.075 Y95.171 E13.92799
G1 X145.756 Y95.22 E13.95978
G1 X146.427 Y95.349 E13.99159
G1 X147.078 Y95.556 E14.0234
G1 X147.701 Y95.837 E14.05523
G1 X148.287 Y96.189 E14.08706
G1 X148.827 Y96.607 E14.11886
G1 X149.315 Y97.085 E14.15066
G1 X149.744 Y97.617 E14.18249
G1 X150.108 Y98.195 E14.21429
G1 X150.402 Y98.812 E14.24612
G1 X150.621 Y99.459 E14.27792
G1 X150.764 Y100.127 E14.30973
G1 X150.829 Y100.846 E14.34335
G1 X150.84 Y101.323 E14.36557
G1 X150.842 Y103.011 E14.44417
G1 X150.84 Y104.05 E14.49255
G1 X150.839 Y108.344 E14.6925
G1 X150.829 Y109.071 E14.72635
G1 X150.78 Y109.753 E14.75819
G1 X150.652 Y110.424 E14.79
G1 X150.445 Y111.075 E14.82181
G1 X150.165 Y111.698 E14.85361
G1 X149.813 Y112.284 E14.88544
G1 X149.396 Y112.825 E14.91725
G1 X148.918 Y113.313 E14.94906
G1 X148.386 Y113.742 E14.98088
G1 X147.808 Y114.106 E15.01269
G1 X147.191 Y114.4 E15.04451
G1 X146.544 Y114.62 E15.07633
G1 X145.876 Y114.763 E15.10814
G1 X145.154 Y114.829 E15.1419
G1 X144.67 Y114.84 E15.16444
G1 X65.632 Y114.84 E18.84478
G1 X64.934 Y114.831 E18.87729
G1 X64.252 Y114.782 E18.90913
G1 X63.581 Y114.654 E18.94093
G1 X62.93 Y114.448 E18.97273
G1 X62.306 Y114.168 E19.00458
G1 X61.72 Y113.817 E19.03638
G1 X61.179 Y113.4 E19.06819
G1 X60.69 Y112.922 E19.10003
G1 X60.261 Y112.391 E19.13182
G1 X59.896 Y111.813 E19.16365
G1 X59.602 Y111.197 E19.19543
G1 X59.381 Y110.55 E19.22727
G1 X59.237 Y109.882 E19.25909
G1 X59.171 Y109.149 E19.29336
G1 X59.16 Y108.665 E19.3159
G1 X59.158 Y106.989 E19.39394
G1 X59.16 Y105.95 E19.44232
G1 X59.161 Y101.586 E19.64553
G1 X59.171 Y100.921 E19.6765
G1 X59.221 Y100.24 E19.70829
G1 X59.35 Y99.569 E19.74011
G1 X59.557 Y98.918 E19.77192
G1 X59.839 Y98.295 E19.80376
G1 X60.191 Y97.71 E19.83555
G1 X60.609 Y97.17 E19.86735
G1 X61.088 Y96.682 E19.89919
G1 X61.62 Y96.254 E19.93098
G1 X62.199 Y95.89 E19.96283
M204 S3000
M205 X10 Y10
G0 F3000 X62.157 Y96.566
M204 S1800
M205 X8 Y8
G1 F2400 X62.724 Y96.25 E19.99306
G1 X63.326 Y96.005 E20.02332
G1 X63.953 Y95.836 E20.05356
G1 X64.862 Y95.731 E20.09617
G1 X65.33 Y95.72 E20.11796
G1 X144.293 Y95.72 E23.79481
G1 X145.067 Y95.731 E23.83086
G1 X145.714 Y95.78 E23.86107
G1 X146.351 Y95.908 E23.89132
G1 X146.967 Y96.114 E23.92157
G1 X147.554 Y96.394 E23.95185
G1 X148.101 Y96.743 E23.98207
G1 X148.602 Y97.157 E24.01233
G1 X149.047 Y97.63 E24.04257
G1 X149.432 Y98.154 E24.07285
G1 X149.749 Y98.721 E24.10309
G1 X149.994 Y99.322 E24.13331
G1 X150.163 Y99.949 E24.16355
G1 X150.269 Y100.862 E24.20635
G1 X150.28 Y101.324 E24.22787
G1 X150.282 Y103.01 E24.30638
G1 X150.28 Y104.049 E24.35476
G1 X150.28 Y108.337 E24.55442
G1 X150.27 Y109.064 E24.58828
G1 X150.221 Y109.711 E24.61849
G1 X150.093 Y110.348 E24.64875
G1 X149.887 Y110.965 E24.67904
G1 X149.608 Y111.551 E24.70926
G1 X149.259 Y112.099 E24.73951
G1 X148.845 Y112.599 E24.76974
G1 X148.372 Y113.045 E24.80001
G1 X147.849 Y113.43 E24.83025
G1 X147.282 Y113.748 E24.86052
G1 X146.681 Y113.993 E24.89074
G1 X146.054 Y114.163 E24.92099
G1 X145.138 Y114.269 E24.96393
G1 X144.67 Y114.28 E24.98573
G1 X65.639 Y114.28 E28.66574
G1 X64.941 Y114.271 E28.69825
G1 X64.293 Y114.222 E28.72851
G1 X63.656 Y114.095 E28.75875
G1 X63.04 Y113.89 E28.78898
G1 X62.453 Y113.611 E28.81924
G1 X61.905 Y113.262 E28.8495
G1 X61.404 Y112.849 E28.87973
G1 X60.957 Y112.377 E28.91
G1 X60.572 Y111.854 E28.94024
G1 X60.254 Y111.287 E28.97051
G1 X60.008 Y110.686 E29.00075
G1 X59.838 Y110.059 E29.031
G1 X59.731 Y109.134 E29.07436
G1 X59.72 Y108.664 E29.09625
G1 X59.718 Y106.99 E29.1742
G1 X59.72 Y105.951 E29.22258
G1 X59.721 Y101.595 E29.42541
G1 X59.731 Y100.93 E29.45638
G1 X59.78 Y100.282 E29.48664
G1 X59.909 Y99.645 E29.5169
G1 X60.115 Y99.029 E29.54715
G1 X60.395 Y98.443 E29.57739
G1 X60.745 Y97.896 E29.60763
G1 X61.16 Y97.396 E29.63789
G1 X61.633 Y96.95 E29.66816
G1 X62.157 Y96.566 E29.69841
M204 S3000
M205 X10 Y10
G1 F2400 E23.69841
G0 F3000 X64.339 Y103.11
G0 X65.28 Y103.98
M204 S1800
M205 X8 Y8
;TYPE:SUPPORT
G1 F2400 E29.69841
G1 F1500 X144.72 Y103.98 E33.39747
G1 X144.72 Y106.02 E33.49246
G1 X65.28 Y106.02 E37.19152
G1 X65.28 Y103.98 E37.28651
M204 S3000
M205 X10 Y10
G0 F3000 X68.478 Y104.199
M204 S1800
M205 X8 Y8
G1 F1500 X71.249 Y105.798 E37.43548
M204 S3000
M205 X10 Y10
G0 F3000 X72 Y105.8
M204 S1800
M205 X8 Y8
G1 F1500 X72 Y104.2 E37.50998
M204 S3000
M205 X10 Y10
G0 F3000 X72.748 Y105.8
M204 S1800
M205 X8 Y8
G1 F1500 X75.521 Y104.199 E37.65908
M204 S3000
M205 X10 Y10
G0 F3000 X80 Y104.2
M204 S1800
M205 X8 Y8
G1 F1500 X80 Y105.8 E37.73358
M204 S3000
M205 X10 Y10
G0 F3000 X84.478 Y104.199
M204 S1800
M205 X8 Y8
G1 F1500 X87.249 Y105.799 E37.88258
M204 S3000
M205 X10 Y10
G0 F3000 X88 Y105.8
M204 S1800
M205 X8 Y8
G1 F1500 X88 Y104.2 E37.95708
M204 S3000
M205 X10 Y10
G0 F3000 X88.749 Y105.799
M204 S1800
M205 X8 Y8
G1 F1500 X91.521 Y104.199 E38.10611
M204 S3000
M205 X10 Y10
G0 F3000 X96 Y104.2
M204 S1800
M205 X8 Y8
G1 F1500 X96 Y105.8 E38.18062
M204 S3000
M205 X10 Y10
G0 F3000 X100.477 Y104.199
M204 S1800
M205 X8 Y8
G1 F1500 X103.249 Y105.799 E38.32965
M204 S3000
M205 X10 Y10
G0 F3000 X104 Y105.8
M204 S1800
M205 X8 Y8
G1 F1500 X104 Y104.2 E38.40415
M204 S3000
M205 X10 Y10
G0 F3000 X104.748 Y105.8
M204 S1800
M205 X8 Y8
G1 F1500 X107.521 Y104.199 E38.55325
M204 S3000
M205 X10 Y10
G0 F3000 X112 Y104.2
M204 S1800
M205 X8 Y8
G1 F1500 X112 Y105.8 E38.62775
M204 S3000
M205 X10 Y10
G0 F3000 X116.478 Y104.199
M204 S1800
M205 X8 Y8
G1 F1500 X119.248 Y105.798 E38.77668
M204 S3000
M205 X10 Y10
G0 F3000 X120 Y105.8
M204 S1800
M205 X8 Y8
G1 F1500 X120 Y104.2 E38.85119
M204 S3000
M205 X10 Y10
G0 F3000 X120.748 Y105.8
M204 S1800
M205 X8 Y8
G1 F1500 X123.521 Y104.199 E39.00029
M204 S3000
M205 X10 Y10
G0 F3000 X128 Y104.2
M204 S1800
M205 X8 Y8
G1 F1500 X128 Y105.8 E39.07479
M204 S3000
M205 X10 Y10
G0 F3000 X132.478 Y104.199
M204 S1800
M205 X8 Y8
G1 F1500 X135.249 Y105.799 E39.22378
M204 S3000
M205 X10 Y10
G0 F3000 X136 Y105.8
M204 S1800
M205 X8 Y8
G1 F1500 X136 Y104.2 E39.29828
M204 S3000
M205 X10 Y10
G0 F3000 X136.748 Y105.8
M204 S1800
M205 X8 Y8
G1 F1500 X139.521 Y104.199 E39.44738
M204 S3000
M205 X10 Y10
G0 F3000 X144 Y104.2
M204 S1800
M205 X8 Y8
G1 F1500 X144 Y105.8 E39.52189
M204 S3000
M205 X10 Y10
G1 F2400 E33.52189
;MESH:brush001.stl
G0 F3000 X144 Y107.86
G1 F2400 E39.52189
G0 F3000 X144.16 Y108.16
M204 S1800
M205 X8 Y8
;TYPE:WALL-INNER
G1 F1500 X65.84 Y108.16 E43.16879
G1 X65.84 Y107.84 E43.18369
G1 X144.16 Y107.84 E45.26764
G1 X144.16 Y108.16 E45.28254
M204 S3000
M205 X10 Y10
G0 F3000 X144.72 Y108.72
M204 S1800
M205 X8 Y8
;TYPE:WALL-OUTER
G1 F1500 X65.28 Y108.72 E48.9816
G1 X65.28 Y107.28 E49.04865
G1 X144.72 Y107.28 E52.74771
G1 X144.72 Y108.72 E52.81476
M204 S3000
M205 X10 Y10
G0 F3000 X144.52 Y108.72
G1 F2400 E46.81476
G0 F3000 X144.09 Y108.09
G0 X144.09 Y106.335
G0 X144.09 Y103.665
G0 X144.09 Y102.14
G1 F2400 E52.81476
G0 F3000 X144.16 Y102.16
M204 S1800
M205 X8 Y8
;TYPE:WALL-INNER
G1 F1500 X65.84 Y102.16 E56.46167
G1 X65.84 Y101.84 E56.47657
G1 X144.16 Y101.84 E58.56052
G1 X144.16 Y102.16 E58.57542
M204 S3000
M205 X10 Y10
G0 F3000 X144.72 Y102.72
M204 S1800
M205 X8 Y8
;TYPE:WALL-OUTER
G1 F1500 X65.28 Y102.72 E62.27448
G1 X65.28 Y101.28 E62.34153
G1 X144.72 Y101.28 E66.04059
G1 X144.72 Y102.72 E66.10764
M204 S3000
M205 X10 Y10
G0 F3000 X144.52 Y102.72
G1 F2400 E60.10764
;MESH:NONMESH
G0 F600 X144.52 Y102.72 Z0.4
G0 F3000 X144.09 Y102.09
G0 X65.854 Y102.146
G0 X65.2 Y103.9
;TIME_ELAPSED:58.799978
;LAYER:1
M106 S127.5
M204 S1800
M205 X8 Y8
;TYPE:SUPPORT
G1 F2400 E66.10764
G1 F1650 X144.8 Y103.9 E68.75515
G1 X144.8 Y106.1 E68.82832
G1 X65.2 Y106.1 E71.47583
G1 X65.2 Y103.9 E71.549
M204 S3000
M205 X10 Y10
G0 F4500 X68.202 Y104.039
M204 S1800
M205 X8 Y8
G1 F1650 X71.527 Y105.959 E71.6767
M204 S3000
M205 X10 Y10
G0 F4500 X72 Y105.96
M204 S1800
M205 X8 Y8
G1 F1650 X72 Y104.04 E71.74056
M204 S3000
M205 X10 Y10
G0 F4500 X72.471 Y105.96
M204 S1800
M205 X8 Y8
G1 F1650 X75.797 Y104.039 E71.86831
M204 S3000
M205 X10 Y10
G0 F4500 X80 Y104.04
M204 S1800
M205 X8 Y8
G1 F1650 X80 Y105.96 E71.93217
M204 S3000
M205 X10 Y10
G0 F4500 X84.202 Y104.039
M204 S1800
M205 X8 Y8
G1 F1650 X87.527 Y105.959 E72.05988
M204 S3000
M205 X10 Y10
G0 F4500 X88 Y105.96
M204 S1800
M205 X8 Y8
G1 F1650 X88 Y104.04 E72.12374
M204 S3000
M205 X10 Y10
G0 F4500 X88.471 Y105.96
M204 S1800
M205 X8 Y8
G1 F1650 X91.798 Y104.039 E72.25151
M204 S3000
M205 X10 Y10
G0 F4500 X96 Y104.04
M204 S1800
M205 X8 Y8
G1 F1650 X96 Y105.96 E72.31537
M204 S3000
M205 X10 Y10
G0 F4500 X100.202 Y104.04
M204 S1800
M205 X8 Y8
G1 F1650 X103.527 Y105.959 E72.44306
M204 S3000
M205 X10 Y10
G0 F4500 X104 Y105.96
M204 S1800
M205 X8 Y8
G1 F1650 X104 Y104.04 E72.50692
M204 S3000
M205 X10 Y10
G0 F4500 X104.471 Y105.96
M204 S1800
M205 X8 Y8
G1 F1650 X107.798 Y104.039 E72.6347
M204 S3000
M205 X10 Y10
G0 F4500 X112 Y104.04
M204 S1800
M205 X8 Y8
G1 F1650 X112 Y105.96 E72.69856
M204 S3000
M205 X10 Y10
G0 F4500 X116.202 Y104.039
M204 S1800
M205 X8 Y8
G1 F1650 X119.527 Y105.959 E72.82626
M204 S3000
M205 X10 Y10
G0 F4500 X120 Y105.96
M204 S1800
M205 X8 Y8
G1 F1650 X120 Y104.04 E72.89012
M204 S3000
M205 X10 Y10
G0 F4500 X120.471 Y105.96
M204 S1800
M205 X8 Y8
G1 F1650 X123.798 Y104.039 E73.0179
M204 S3000
M205 X10 Y10
G0 F4500 X128 Y104.04
M204 S1800
M205 X8 Y8
G1 F1650 X128 Y105.96 E73.08176
M204 S3000
M205 X10 Y10
G0 F4500 X132.202 Y104.04
M204 S1800
M205 X8 Y8
G1 F1650 X135.527 Y105.959 E73.20944
M204 S3000
M205 X10 Y10
G0 F4500 X136 Y105.96
M204 S1800
M205 X8 Y8
G1 F1650 X136 Y104.04 E73.2733
M204 S3000
M205 X10 Y10
G0 F4500 X136.47 Y105.96
M204 S1800
M205 X8 Y8
G1 F1650 X139.798 Y104.039 E73.40111
M204 S3000
M205 X10 Y10
G0 F4500 X144 Y104.04
M204 S1800
M205 X8 Y8
G1 F1650 X144 Y105.96 E73.46497
M204 S3000
M205 X10 Y10
G1 F2400 E67.46497
;MESH:brush001.stl
G0 F4500 X144 Y107.62
G1 F2400 E73.46497
G0 F4500 X144.4 Y108.4
M204 S1800
M205 X8 Y8
;TYPE:WALL-INNER
G1 F2250 X65.6 Y108.4 E76.08587
G1 X65.6 Y107.6 E76.11247
G1 X144.4 Y107.6 E78.73337
G1 X144.4 Y108.4 E78.75998
M204 S3000
M205 X10 Y10
G0 F4500 X144.8 Y108.8
M204 S1800
M205 X8 Y8
;TYPE:WALL-OUTER
G1 F2250 X65.2 Y108.8 E81.40749
G1 X65.2 Y107.2 E81.4607
G1 X144.8 Y107.2 E84.10821
G1 X144.8 Y108.8 E84.16143
M204 S3000
M205 X10 Y10
G0 F4500 X144.6 Y108.8
G0 X144.146 Y108.148
M204 S1800
M205 X8 Y8
;TYPE:SKIN
G1 F1350 X144.005 Y108.007 E84.16824
G1 X138.073 Y107.999 E84.37082
G1 X66.231 Y107.999 E86.82424
G1 X65.832 Y107.832 E86.83901
M204 S3000
M205 X10 Y10
G0 F4500 X66 Y108
G1 F2400 E80.83901
G0 F4500 X144.33 Y107.62
G0 X144.33 Y106.335
G0 X144.33 Y103.665
G0 X144.33 Y102.38
G1 F2400 E86.83901
G0 F4500 X144.4 Y102.4
M204 S1800
M205 X8 Y8
;TYPE:WALL-INNER
G1 F2250 X65.6 Y102.4 E89.45991
G1 X65.6 Y101.6 E89.48652
G1 X144.4 Y101.6 E92.10742
G1 X144.4 Y102.4 E92.13403
M204 S3000
M205 X10 Y10
G0 F4500 X144.8 Y102.8
M204 S1800
M205 X8 Y8
;TYPE:WALL-OUTER
G1 F2250 X65.2 Y102.8 E94.78153
G1 X65.2 Y101.2 E94.83475
G1 X144.8 Y101.2 E97.48226
G1 X144.8 Y102.8 E97.53547
M204 S3000
M205 X10 Y10
G0 F4500 X144.6 Y102.8
G0 X144.177 Y102.178
M204 S1800
M205 X8 Y8
;TYPE:SKIN
G1 F1350 X144.035 Y102.036 E97.54232
G1 X142.375 Y101.999 E97.59893
G1 X66.009 Y101.999 E100.20251
G1 X65.863 Y101.862 E100.20933
M204 S3000
M205 X10 Y10
G0 F4500 X66 Y102
G1 F2400 E94.20933
;MESH:NONMESH
G0 F600 X66 Y102 Z0.6
G0 F4500 X65.2 Y103.9
;TIME_ELAPSED:95.028281
;LAYER:2
M106 S255
M204 S1800
M205 X8 Y8
;TYPE:SUPPORT
G1 F2400 E100.20933
G1 F1800 X144.8 Y103.9 E102.85684
G1 X144.8 Y106.1 E102.93001
G1 X65.2 Y106.1 E105.57752
G1 X65.2 Y103.9 E105.65069
M204 S3000
M205 X10 Y10
G0 F6000 X68.202 Y104.039
M204 S1800
M205 X8 Y8
G1 F1800 X71.527 Y105.959 E105.7784
M204 S3000
M205 X10 Y10
G0 F6000 X72 Y105.96
M204 S1800
M205 X8 Y8
G1 F1800 X72 Y104.04 E105.84225
M204 S3000
M205 X10 Y10
G0 F6000 X72.471 Y105.96
M204 S1800
M205 X8 Y8
G1 F1800 X75.797 Y104.039 E105.97
M204 S3000
M205 X10 Y10
G0 F6000 X80 Y104.04
M204 S1800
M205 X8 Y8
G1 F1800 X80 Y105.96 E106.03386
M204 S3000
M205 X10 Y10
G0 F6000 X84.202 Y104.039
M204 S1800
M205 X8 Y8
G1 F1800 X87.527 Y105.959 E106.16157
M204 S3000
M205 X10 Y10
G0 F6000 X88 Y105.96
M204 S1800
M205 X8 Y8
G1 F1800 X88 Y104.04 E106.22543
M204 S3000
M205 X10 Y10
G0 F6000 X88.471 Y105.96
M204 S1800
M205 X8 Y8
G1 F1800 X91.798 Y104.039 E106.3532
M204 S3000
M205 X10 Y10
G0 F6000 X96 Y104.04
M204 S1800
M205 X8 Y8
G1 F1800 X96 Y105.96 E106.41706
M204 S3000
M205 X10 Y10
G0 F6000 X100.202 Y104.04
M204 S1800
M205 X8 Y8
G1 F1800 X103.527 Y105.959 E106.54475
M204 S3000
M205 X10 Y10
G0 F6000 X104 Y105.96
M204 S1800
M205 X8 Y8
G1 F1800 X104 Y104.04 E106.60861
M204 S3000
M205 X10 Y10
G0 F6000 X104.471 Y105.96
M204 S1800
M205 X8 Y8
G1 F1800 X107.798 Y104.039 E106.73639
M204 S3000
M205 X10 Y10
G0 F6000 X112 Y104.04
M204 S1800
M205 X8 Y8
G1 F1800 X112 Y105.96 E106.80025
M204 S3000
M205 X10 Y10
G0 F6000 X116.202 Y104.039
M204 S1800
M205 X8 Y8
G1 F1800 X119.527 Y105.959 E106.92795
M204 S3000
M205 X10 Y10
G0 F6000 X120 Y105.96
M204 S1800
M205 X8 Y8
