;FLAVOR:Marlin
;TIME:4231
;Filament used: 2.84735m
;Layer height: 0.2
;MINX:75.752
;MINY:78.826
;MINZ:0.2
;MAXX:133.43
;MAXY:132.038
;MAXZ:72
;Generated with Cura_SteamEngine 4.11.0
M140 S60
M105
M190 S60
M104 S200
M105
M109 S200
M82 ;absolute extrusion mode
G21 ;metric values
G90 ;absolute positioning
M82 ;set extruder to absolute mode
M107 ;start with the fan off
G28 X0 Y0 ;move X/Y to min endstops
G28 Z0 ;move Z to min endstops
G1 Z15.0 F100 ;move the platform down 15mm
G92 E0 ;zero the extruded length
G1 F200 E3 ;extrude 3mm of feed stock
G92 E0 ;zero the extruded length again
G1 F100
G0 Y20 F100
M117 Printing...
G5
G92 E0
G92 E0
G1 F2400 E-6
;LAYER_COUNT:364
;LAYER:0
M107
M204 S3000
M205 X10 Y10
G1 F600 Z0.275
G0 F3000 X87.194 Y87.03 Z0.275
M204 S1800
M205 X8 Y8
;TYPE:SKIRT
G1 F600 Z0.2
G1 F2400 E0
G1 X87.631 Y86.65 E0.02697
G1 X88.116 Y86.333 E0.05395
G1 X88.64 Y86.086 E0.08092
G1 X89.193 Y85.914 E0.10789
G1 X89.765 Y85.819 E0.13489
G1 X90.164 Y85.8 E0.15349
G1 X108.786 Y85.8 E1.0206
G1 X108.779 Y85.74 E1.02342
G1 X108.788 Y85.161 E1.05038
G1 X108.878 Y84.588 E1.07739
G1 X108.98 Y84.218 E1.09526
G1 X109.447 Y82.786 E1.1654
G1 X109.664 Y82.249 E1.19237
G1 X109.953 Y81.747 E1.21934
G1 X110.308 Y81.289 E1.24632
G1 X110.723 Y80.885 E1.27329
G1 X110.968 Y80.692 E1.28781
G1 X112.427 Y79.63 E1.37184
G1 X112.918 Y79.323 E1.39881
G1 X113.447 Y79.085 E1.42582
G1 X114.003 Y78.923 E1.45278
G1 X114.576 Y78.838 E1.47976
G1 X114.899 Y78.826 E1.49481
G1 X116.701 Y78.826 E1.57872
G1 X117.279 Y78.866 E1.60569
G1 X117.846 Y78.985 E1.63267
G1 X118.391 Y79.181 E1.65964
G1 X118.904 Y79.45 E1.68661
G1 X119.173 Y79.63 E1.70168
G1 X120.632 Y80.692 E1.78571
G1 X121.075 Y81.065 E1.81268
G1 X121.464 Y81.495 E1.83968
G1 X121.789 Y81.974 E1.86663
G1 X122.046 Y82.493 E1.8936
G1 X122.153 Y82.786 E1.90812
G1 X122.62 Y84.218 E1.97826
G1 X122.761 Y84.78 E2.00524
G1 X122.824 Y85.356 E2.03222
G1 X122.806 Y85.935 E2.0592
G1 X122.71 Y86.506 E2.08616
G1 X122.603 Y86.845 E2.10271
G1 X122.97 Y87.194 E2.12629
G1 X123.35 Y87.631 E2.15326
G1 X123.667 Y88.116 E2.18024
G1 X123.914 Y88.64 E2.20721
G1 X124.086 Y89.193 E2.23418
G1 X124.094 Y89.242 E2.23649
G1 X124.48 Y89.205 E2.25455
G1 X125.916 Y89.205 E2.32141
G1 X126.494 Y89.245 E2.34839
G1 X127.061 Y89.364 E2.37537
G1 X127.606 Y89.56 E2.40234
G1 X128.119 Y89.829 E2.42931
G1 X128.388 Y90.009 E2.44438
G1 X130.196 Y91.325 E2.54851
G1 X130.639 Y91.698 E2.57548
G1 X131.028 Y92.128 E2.60248
G1 X131.353 Y92.607 E2.62943
G1 X131.61 Y93.126 E2.6564
G1 X131.718 Y93.422 E2.67107
G1 X132.408 Y95.543 E2.77493
G1 X132.549 Y96.105 E2.80191
G1 X132.611 Y96.681 E2.82888
G1 X132.593 Y97.26 E2.85586
G1 X132.496 Y97.831 E2.88282
G1 X132.408 Y98.141 E2.89783
G1 X131.718 Y100.262 E3.00169
G1 X131.501 Y100.8 E3.0287
G1 X131.41 Y100.959 E3.03723
G1 X131.766 Y101.353 E3.06196
G1 X132.092 Y101.833 E3.08897
G1 X132.348 Y102.352 E3.11592
G1 X132.455 Y102.645 E3.13045
G1 X133.226 Y105.012 E3.24636
G1 X133.367 Y105.574 E3.27334
G1 X133.43 Y106.15 E3.30032
G1 X133.412 Y106.729 E3.3273
G1 X133.315 Y107.3 E3.35427
G1 X133.226 Y107.614 E3.36946
G1 X132.455 Y109.981 E3.48538
G1 X132.239 Y110.518 E3.51233
G1 X131.95 Y111.02 E3.5393
G1 X131.594 Y111.478 E3.56632
G1 X131.18 Y111.882 E3.59325
G1 X130.934 Y112.075 E3.60781
G1 X128.918 Y113.543 E3.72394
G1 X128.428 Y113.851 E3.75088
G1 X127.899 Y114.089 E3.7779
G1 X127.343 Y114.251 E3.80486
G1 X126.77 Y114.335 E3.83183
G1 X126.446 Y114.348 E3.84693
G1 X124.48 Y114.348 E3.93847
G1 X124.2 Y114.329 E3.95154
G1 X124.2 Y119.836 E4.20797
G1 X124.16 Y120.414 E4.23495
G1 X124.041 Y120.981 E4.26192
G1 X123.845 Y121.526 E4.28889
G1 X123.576 Y122.039 E4.31587
G1 X123.239 Y122.51 E4.34283
G1 X122.806 Y122.97 E4.37225
G1 X122.369 Y123.35 E4.39922
G1 X121.884 Y123.667 E4.42619
G1 X121.36 Y123.914 E4.45317
G1 X120.807 Y124.086 E4.48014
G1 X120.235 Y124.181 E4.50714
G1 X119.836 Y124.2 E4.52574
G1 X115.131 Y124.2 E4.74482
G1 X115.138 Y124.26 E4.74763
G1 X115.129 Y124.839 E4.7746
G1 X115.039 Y125.412 E4.80161
G1 X114.937 Y125.783 E4.81952
G1 X114.433 Y127.328 E4.89519
G1 X114.216 Y127.865 E4.92216
G1 X113.927 Y128.367 E4.94914
G1 X113.571 Y128.824 E4.97611
G1 X113.156 Y129.228 E5.00308
G1 X112.91 Y129.422 E5.01767
G1 X111.355 Y130.553 E5.1072
G1 X110.865 Y130.86 E5.13413
G1 X110.336 Y131.097 E5.16112
G1 X109.78 Y131.26 E5.1881
G1 X109.207 Y131.344 E5.21506
G1 X108.885 Y131.356 E5.23007
G1 X106.965 Y131.356 E5.31947
G1 X106.429 Y131.319 E5.34449
G1 X105.989 Y131.447 E5.36583
G1 X105.416 Y131.532 E5.3928
G1 X105.093 Y131.544 E5.40785
G1 X103.356 Y131.544 E5.48873
G1 X102.829 Y131.78 E5.51562
G1 X102.273 Y131.942 E5.54259
G1 X101.7 Y132.026 E5.56955
G1 X101.379 Y132.038 E5.58451
G1 X99.275 Y132.038 E5.68248
G1 X98.697 Y131.998 E5.70946
G1 X98.13 Y131.879 E5.73644
G1 X97.585 Y131.683 E5.76341
G1 X97.534 Y131.656 E5.76609
G1 X95.753 Y131.656 E5.84902
G1 X95.175 Y131.616 E5.876
G1 X94.604 Y131.495 E5.90318
G1 X93.838 Y131.573 E5.93903
G1 X91.906 Y131.573 E6.02899
G1 X91.328 Y131.533 E6.05597
G1 X90.761 Y131.414 E6.08295
G1 X90.216 Y131.218 E6.10992
G1 X89.703 Y130.949 E6.13689
G1 X89.434 Y130.768 E6.15199
G1 X87.871 Y129.63 E6.24202
G1 X87.427 Y129.258 E6.26899
G1 X87.039 Y128.828 E6.29596
G1 X86.714 Y128.349 E6.32291
G1 X86.457 Y127.829 E6.34992
G1 X86.349 Y127.535 E6.3645
G1 X85.769 Y125.753 E6.45177
G1 X85.628 Y125.191 E6.47875
G1 X85.589 Y124.829 E6.4957
G1 X84.629 Y124.829 E6.5404
G1 X84.051 Y124.789 E6.56738
G1 X83.484 Y124.67 E6.59436
G1 X82.939 Y124.474 E6.62132
G1 X82.426 Y124.205 E6.6483
G1 X82.158 Y124.025 E6.66333
G1 X80.586 Y122.881 E6.75386
G1 X80.142 Y122.509 E6.78083
G1 X79.754 Y122.079 E6.8078
G1 X79.428 Y121.599 E6.83482
G1 X79.172 Y121.08 E6.86177
G1 X79.064 Y120.786 E6.87635
G1 X78.601 Y119.365 E6.94594
G1 X78.328 Y119.166 E6.96167
G1 X77.884 Y118.794 E6.98864
G1 X77.495 Y118.364 E7.01564
G1 X77.17 Y117.884 E7.04264
G1 X76.914 Y117.365 E7.06958
G1 X76.805 Y117.07 E7.08423
G1 X75.955 Y114.458 E7.21213
G1 X75.814 Y113.896 E7.23911
G1 X75.752 Y113.32 E7.26609
G1 X75.77 Y112.741 E7.29306
G1 X75.867 Y112.17 E7.32003
G1 X75.955 Y111.858 E7.33512
G1 X76.805 Y109.246 E7.46303
G1 X77.022 Y108.709 E7.49
G1 X77.311 Y108.207 E7.51697
G1 X77.666 Y107.749 E7.54395
G1 X78.08 Y107.345 E7.57089
G1 X78.327 Y107.151 E7.58551
G1 X80.553 Y105.53 E7.71374
G1 X81.043 Y105.222 E7.74068
G1 X81.572 Y104.984 E7.7677
G1 X82.128 Y104.822 E7.79466
G1 X82.701 Y104.738 E7.82163
G1 X83.025 Y104.725 E7.83673
G1 X85.52 Y104.725 E7.9529
G1 X85.8 Y104.744 E7.96597
G1 X85.8 Y90.164 E8.64488
G1 X85.84 Y89.586 E8.67186
G1 X85.959 Y89.019 E8.69883
G1 X86.155 Y88.474 E8.7258
G1 X86.424 Y87.961 E8.75278
G1 X86.761 Y87.49 E8.77974
G1 X87.194 Y87.03 E8.80916
M204 S3000
M205 X10 Y10
G0 F3000 X87.59 Y87.426
M204 S1800
M205 X8 Y8
G1 F2400 X87.999 Y87.074 E8.83429
G1 X88.455 Y86.786 E8.8594
G1 X88.948 Y86.569 E8.88448
G1 X89.468 Y86.427 E8.90958
G1 X90.164 Y86.36 E8.94214
G1 X109.432 Y86.36 E9.83934
G1 X109.347 Y85.84 E9.86387
G1 X109.34 Y85.301 E9.88897
G1 X109.412 Y84.766 E9.91411
G1 X109.512 Y84.391 E9.93218
G1 X109.979 Y82.959 E10.00232
G1 X110.184 Y82.461 E10.02739
G1 X110.46 Y81.997 E10.05253
G1 X110.802 Y81.58 E10.07765
G1 X111.298 Y81.145 E10.10837
G1 X112.757 Y80.083 E10.19239
G1 X113.215 Y79.799 E10.21749
G1 X113.71 Y79.586 E10.24258
G1 X114.232 Y79.448 E10.26772
G1 X114.899 Y79.386 E10.29891
G1 X116.701 Y79.386 E10.38282
G1 X117.239 Y79.426 E10.40794
G1 X117.765 Y79.545 E10.43306
G1 X118.267 Y79.74 E10.45813
G1 X118.843 Y80.083 E10.48935
G1 X120.302 Y81.145 E10.57338
G1 X120.713 Y81.494 E10.59848
G1 X121.069 Y81.9 E10.62363
G1 X121.36 Y82.353 E10.6487
G1 X121.621 Y82.959 E10.67942
G1 X122.088 Y84.391 E10.74956
G1 X122.216 Y84.915 E10.77468
G1 X122.266 Y85.452 E10.79979
G1 X122.236 Y85.99 E10.82488
G1 X122.127 Y86.519 E10.85003
G1 X121.941 Y87.025 E10.87513
G1 X121.935 Y87.035 E10.87568
G1 X122.41 Y87.426 E10.90432
G1 X122.574 Y87.59 E10.91512
G1 X122.926 Y87.999 E10.94025
G1 X123.214 Y88.455 E10.96536
G1 X123.431 Y88.948 E10.99044
G1 X123.573 Y89.468 E11.01554
G1 X123.628 Y89.866 E11.03425
G1 X124.16 Y89.779 E11.05935
G1 X124.48 Y89.765 E11.07427
G1 X125.916 Y89.765 E11.14114
G1 X126.454 Y89.805 E11.16626
G1 X126.98 Y89.924 E11.19137
G1 X127.482 Y90.119 E11.21644
G1 X128.058 Y90.462 E11.24766
G1 X129.866 Y91.778 E11.35179
G1 X130.277 Y92.127 E11.3769
G1 X130.633 Y92.533 E11.40204
G1 X130.924 Y92.986 E11.42711
G1 X131.185 Y93.595 E11.45796
G1 X131.875 Y95.716 E11.56182
G1 X132.004 Y96.24 E11.58695
G1 X132.053 Y96.777 E11.61206
G1 X132.023 Y97.315 E11.63715
G1 X131.875 Y97.968 E11.66832
G1 X131.185 Y100.089 E11.77218
G1 X130.981 Y100.588 E11.79728
G1 X130.705 Y101.051 E11.82238
G1 X130.687 Y101.073 E11.82371
G1 X131.016 Y101.352 E11.84379
G1 X131.371 Y101.758 E11.86891
G1 X131.662 Y102.212 E11.89402
G1 X131.923 Y102.819 E11.92478
G1 X132.694 Y105.186 E12.0407
G1 X132.823 Y105.709 E12.06578
G1 X132.872 Y106.246 E12.09089
G1 X132.842 Y106.785 E12.11603
G1 X132.694 Y107.44 E12.1473
G1 X131.923 Y109.807 E12.26321
G1 X131.718 Y110.306 E12.28833
G1 X131.442 Y110.77 E12.31347
G1 X131.101 Y111.187 E12.33856
G1 X130.605 Y111.623 E12.36931
G1 X128.589 Y113.091 E12.48543
G1 X128.13 Y113.375 E12.51056
G1 X127.635 Y113.588 E12.53566
G1 X127.114 Y113.726 E12.56075
G1 X126.446 Y113.788 E12.59199
G1 X124.48 Y113.788 E12.68354
G1 X123.942 Y113.748 E12.70866
G1 X123.64 Y113.68 E12.72307
G1 X123.64 Y119.836 E13.00972
G1 X123.6 Y120.374 E13.03484
G1 X123.481 Y120.9 E13.05995
G1 X123.286 Y121.402 E13.08503
G1 X123.018 Y121.871 E13.11018
G1 X122.574 Y122.41 E13.1427
G1 X122.41 Y122.574 E13.1535
G1 X122.001 Y122.926 E13.17863
G1 X121.545 Y123.214 E13.20374
G1 X121.052 Y123.431 E13.22882
G1 X120.532 Y123.573 E13.25392
G1 X119.836 Y123.64 E13.28648
G1 X114.485 Y123.64 E13.53564
G1 X114.57 Y124.16 E13.56018
G1 X114.577 Y124.699 E13.58528
G1 X114.505 Y125.234 E13.61042
G1 X114.405 Y125.609 E13.62849
G1 X113.901 Y127.154 E13.70416
G1 X113.696 Y127.653 E13.72928
G1 X113.42 Y128.116 E13.75438
G1 X113.078 Y128.533 E13.77949
G1 X112.581 Y128.969 E13.81028
G1 X111.026 Y130.1 E13.89981
G1 X110.568 Y130.384 E13.92491
G1 X110.072 Y130.597 E13.95004
G1 X109.551 Y130.735 E13.97514
G1 X108.885 Y130.796 E14.00628
G1 X106.965 Y130.796 E14.09568
G1 X106.427 Y130.756 E14.1208
G1 X106.281 Y130.785 E14.12773
G1 X105.76 Y130.922 E14.15282
G1 X105.093 Y130.984 E14.18401
G1 X103.194 Y130.984 E14.27244
G1 X103.061 Y131.066 E14.27971
G1 X102.566 Y131.279 E14.3048
G1 X102.044 Y131.417 E14.32995
G1 X101.379 Y131.478 E14.36104
G1 X99.275 Y131.478 E14.45901
G1 X98.737 Y131.438 E14.48413
G1 X98.211 Y131.319 E14.50924
G1 X97.709 Y131.124 E14.53432
G1 X97.662 Y131.096 E14.53687
G1 X95.753 Y131.096 E14.62576
G1 X95.215 Y131.056 E14.65088
G1 X94.689 Y130.937 E14.67599
G1 X94.506 Y130.951 E14.68454
G1 X93.838 Y131.013 E14.71578
G1 X91.906 Y131.013 E14.80574
G1 X91.368 Y130.973 E14.83086
G1 X90.842 Y130.854 E14.85597
G1 X90.34 Y130.659 E14.88105
G1 X89.763 Y130.316 E14.9123
G1 X88.2 Y129.178 E15.00233
G1 X87.789 Y128.829 E15.02744
G1 X87.434 Y128.423 E15.05255
G1 X87.143 Y127.969 E15.07766
G1 X86.882 Y127.362 E15.10843
G1 X86.302 Y125.58 E15.19569
G1 X86.173 Y125.056 E15.22082
G1 X86.124 Y124.519 E15.24593
G1 X86.14 Y124.223 E15.25973
G1 X85.601 Y124.269 E15.28492
G1 X84.629 Y124.269 E15.33018
G1 X84.091 Y124.229 E15.3553
G1 X83.565 Y124.11 E15.38041
G1 X83.063 Y123.915 E15.40549
G1 X82.487 Y123.572 E15.4367
G1 X80.915 Y122.428 E15.52723
G1 X80.504 Y122.079 E15.55234
G1 X80.149 Y121.674 E15.57742
G1 X79.857 Y121.22 E15.60255
G1 X79.596 Y120.612 E15.63336
G1 X79.077 Y119.019 E15.71138
G1 X78.657 Y118.713 E15.73558
G1 X78.246 Y118.364 E15.76068
G1 X77.891 Y117.959 E15.78576
G1 X77.599 Y117.505 E15.81089
G1 X77.338 Y116.896 E15.84175
G1 X76.488 Y114.284 E15.96965
G1 X76.359 Y113.761 E15.99473
G1 X76.31 Y113.224 E16.01984
G1 X76.34 Y112.685 E16.04498
G1 X76.488 Y112.032 E16.07616
G1 X77.338 Y109.42 E16.20406
G1 X77.542 Y108.921 E16.22916
G1 X77.818 Y108.457 E16.2543
G1 X78.159 Y108.04 E16.27939
G1 X78.656 Y107.604 E16.31017
G1 X80.882 Y105.983 E16.43839
G1 X81.34 Y105.698 E16.46351
G1 X81.836 Y105.485 E16.48865
G1 X82.357 Y105.347 E16.51374
G1 X83.025 Y105.285 E16.54498
G1 X85.52 Y105.285 E16.66116
G1 X86.058 Y105.325 E16.68628
G1 X86.36 Y105.393 E16.70069
G1 X86.36 Y90.164 E17.40982
G1 X86.4 Y89.626 E17.43494
G1 X86.519 Y89.1 E17.46005
G1 X86.714 Y88.598 E17.48513
G1 X86.982 Y88.129 E17.51028
G1 X87.426 Y87.59 E17.5428
G1 X87.59 Y87.426 E17.5536
M204 S3000
M205 X10 Y10
G0 F3000 X87.986 Y87.822
M204 S1800
M205 X8 Y8
G1 F2400 X88.364 Y87.501 E17.57669
G1 X88.788 Y87.244 E17.59978
G1 X89.249 Y87.059 E17.62291
G1 X89.732 Y86.95 E17.64596
G1 X90.164 Y86.92 E17.66613
G1 X110.236 Y86.92 E18.60076
G1 X110.014 Y86.375 E18.62817
G1 X109.915 Y85.888 E18.65131
G1 X109.896 Y85.393 E18.67437
G1 X109.956 Y84.901 E18.69745
G1 X110.045 Y84.565 E18.71364
G1 X110.512 Y83.133 E18.78377
G1 X110.703 Y82.675 E18.80688
G1 X110.965 Y82.254 E18.82997
G1 X111.292 Y81.881 E18.85307
G1 X111.627 Y81.598 E18.87349
G1 X113.086 Y80.536 E18.95752
G1 X113.51 Y80.277 E18.98065
G1 X113.969 Y80.09 E19.00373
G1 X114.452 Y79.979 E19.02681
G1 X114.899 Y79.946 E19.04768
G1 X116.701 Y79.946 E19.13159
G1 X117.195 Y79.986 E19.15467
G1 X117.677 Y80.105 E19.17778
G1 X118.133 Y80.299 E19.20086
G1 X118.514 Y80.536 E19.22175
G1 X119.973 Y81.598 E19.30578
G1 X120.349 Y81.921 E19.32886
G1 X120.668 Y82.3 E19.35193
G1 X120.923 Y82.726 E19.37505
G1 X121.088 Y83.133 E19.3955
G1 X121.555 Y84.565 E19.46563
G1 X121.671 Y85.047 E19.48872
G1 X121.707 Y85.542 E19.51183
G1 X121.663 Y86.036 E19.53492
G1 X121.541 Y86.517 E19.55803
G1 X121.343 Y86.972 E19.58113
G1 X121.175 Y87.233 E19.59559
G1 X121.687 Y87.538 E19.62334
G1 X122.178 Y87.986 E19.65429
G1 X122.499 Y88.364 E19.67738
G1 X122.756 Y88.788 E19.70047
G1 X122.941 Y89.249 E19.7236
G1 X123.05 Y89.732 E19.74665
G1 X123.08 Y90.164 E19.76682
G1 X123.08 Y90.668 E19.79028
G1 X123.625 Y90.446 E19.81769
G1 X124.112 Y90.347 E19.84083
G1 X124.48 Y90.325 E19.85799
G1 X125.916 Y90.325 E19.92486
G1 X126.41 Y90.365 E19.94794
G1 X126.892 Y90.484 E19.97106
G1 X127.348 Y90.678 E19.99413
G1 X127.729 Y90.915 E20.01502
G1 X129.537 Y92.231 E20.11915
G1 X129.913 Y92.554 E20.14223
G1 X130.232 Y92.933 E20.1653
G1 X130.487 Y93.359 E20.18842
G1 X130.653 Y93.768 E20.20897
G1 X131.343 Y95.889 E20.31283
G1 X131.458 Y96.372 E20.33595
G1 X131.494 Y96.866 E20.35901
G1 X131.45 Y97.36 E20.38211
G1 X131.343 Y97.795 E20.40297
G1 X130.653 Y99.916 E20.50682
G1 X130.462 Y100.374 E20.52993
G1 X130.2 Y100.795 E20.55302
G1 X129.876 Y101.166 E20.57596
G1 X130.651 Y101.779 E20.62197
G1 X130.971 Y102.159 E20.6451
G1 X131.225 Y102.585 E20.66819
G1 X131.391 Y102.992 E20.68866
G1 X132.162 Y105.359 E20.80458
G1 X132.277 Y105.842 E20.8277
G1 X132.313 Y106.336 E20.85076
G1 X132.269 Y106.83 E20.87385
G1 X132.162 Y107.267 E20.8948
G1 X131.391 Y109.634 E21.01072
G1 X131.199 Y110.092 E21.03385
G1 X130.937 Y110.513 E21.05694
G1 X130.611 Y110.886 E21.08
G1 X130.275 Y111.17 E21.10049
G1 X128.259 Y112.638 E21.21661
G1 X127.836 Y112.897 E21.23971
G1 X127.377 Y113.084 E21.26279
G1 X126.893 Y113.195 E21.28591
G1 X126.446 Y113.228 E21.30678
G1 X124.48 Y113.228 E21.39833
G1 X123.986 Y113.188 E21.4214
G1 X123.504 Y113.069 E21.44452
G1 X123.08 Y112.889 E21.46597
G1 X123.08 Y119.836 E21.78945
G1 X123.04 Y120.33 E21.81253
G1 X122.921 Y120.812 E21.83565
G1 X122.727 Y121.268 E21.85872
G1 X122.462 Y121.687 E21.88181
G1 X122.014 Y122.178 E21.91276
G1 X121.636 Y122.499 E21.93585
G1 X121.212 Y122.756 E21.95894
G1 X120.751 Y122.941 E21.98207
G1 X120.268 Y123.05 E22.00512
G1 X119.836 Y123.08 E22.02529
G1 X113.681 Y123.08 E22.31189
G1 X113.903 Y123.625 E22.33929
G1 X114.002 Y124.112 E22.36243
G1 X114.021 Y124.607 E22.3855
G1 X113.961 Y125.099 E22.40858
G1 X113.872 Y125.435 E22.42476
G1 X113.368 Y126.98 E22.50043
G1 X113.177 Y127.438 E22.52354
G1 X112.915 Y127.859 E22.54663
G1 X112.588 Y128.232 E22.56973
G1 X112.252 Y128.516 E22.59021
G1 X110.697 Y129.647 E22.67975
G1 X110.273 Y129.905 E22.70286
G1 X109.814 Y130.093 E22.72596
G1 X109.331 Y130.204 E22.74903
