;FLAVOR:Marlin
;TIME:3411
;Filament used: 3.15056m
;Layer height: 0.2
;MINX:46.672
;MINY:73.542
;MINZ:0.2
;MAXX:163.94
;MAXY:136.249
;MAXZ:6
;Generated with Cura_SteamEngine 4.11.0
M140 S60
M105
M190 S60
M104 S200
M105
M109 S200
M82 ;absolute extrusion mode
G21 ;metric values
G90 ;absolute positioning
M82 ;set extruder to absolute mode
M107 ;start with the fan off
G28 X0 Y0 ;move X/Y to min endstops
G28 Z0 ;move Z to min endstops
G1 Z15.0 F100 ;move the platform down 15mm
G92 E0 ;zero the extruded length
G1 F200 E3 ;extrude 3mm of feed stock
G92 E0 ;zero the extruded length again
G1 F100
G0 Y20 F100
M117 Printing...
G5
G92 E0
G92 E0
G1 F2400 E-6
;LAYER_COUNT:30
;LAYER:0
M107
M204 S3000
M205 X10 Y10
G1 F600 Z0.275
G0 F3000 X54.881 Y88.163 Z0.275
M204 S1800
M205 X8 Y8
;TYPE:SKIRT
G1 F600 Z0.2
G1 F2400 E0
G1 X55.382 Y87.89 E0.02657
G1 X55.835 Y87.661 E0.0502
G1 X56.211 Y87.486 E0.06951
G1 X57.015 Y87.143 E0.11022
G1 X57.482 Y86.959 E0.13359
G1 X58.102 Y86.749 E0.16407
G1 X58.363 Y86.671 E0.17675
G1 X58.858 Y86.534 E0.20067
G1 X59.244 Y86.44 E0.21917
G1 X60.102 Y86.259 E0.26
G1 X60.911 Y86.124 E0.29819
G1 X61.793 Y86.02 E0.33955
G1 X63.825 Y85.794 E0.43475
G1 X66.46 Y85.426 E0.55864
G1 X69.073 Y84.985 E0.68203
G1 X71.683 Y84.47 E0.8059
G1 X74.221 Y83.891 E0.92712
G1 X76.825 Y83.221 E1.05232
G1 X79.365 Y82.49 E1.1754
G1 X81.85 Y81.699 E1.29683
G1 X84.381 Y80.813 E1.4217
G1 X86.838 Y79.874 E1.54417
G1 X89.283 Y78.861 E1.66741
G1 X91.709 Y77.772 E1.79123
G1 X94.102 Y76.617 E1.91496
G1 X95.75 Y75.753 E2.0016
G1 X96.956 Y75.143 E2.06454
G1 X97.594 Y74.853 E2.09717
G1 X97.856 Y74.746 E2.11035
G1 X98.352 Y74.555 E2.1351
G1 X98.778 Y74.406 E2.15611
G1 X99.446 Y74.196 E2.18872
G1 X100.044 Y74.028 E2.21764
G1 X100.616 Y73.893 E2.24501
G1 X101.359 Y73.756 E2.28019
G1 X101.769 Y73.697 E2.29947
G1 X102.732 Y73.591 E2.34459
G1 X103.358 Y73.553 E2.37379
G1 X104.303 Y73.542 E2.4178
G1 X104.988 Y73.567 E2.44971
G1 X105.841 Y73.641 E2.48958
G1 X106.753 Y73.758 E2.5324
G1 X107.368 Y73.875 E2.56155
G1 X107.904 Y73.994 E2.58711
G1 X108.658 Y74.197 E2.62347
G1 X109.317 Y74.408 E2.65569
G1 X109.686 Y74.542 E2.67397
G1 X111.311 Y75.19 E2.75543
G1 X113.123 Y75.928 E2.84654
G1 X115.637 Y76.87 E2.97155
G1 X118.079 Y77.708 E3.09177
G1 X120.664 Y78.513 E3.21784
G1 X123.186 Y79.22 E3.3398
G1 X125.751 Y79.863 E3.46293
G1 X128.372 Y80.442 E3.58792
G1 X130.925 Y80.928 E3.70893
G1 X133.564 Y81.355 E3.83341
G1 X136.189 Y81.704 E3.95672
G1 X138.79 Y81.976 E4.07849
G1 X141.457 Y82.179 E4.20304
G1 X144.098 Y82.304 E4.32615
G1 X146.739 Y82.354 E4.44915
G1 X147.621 Y82.346 E4.49022
G1 X147.759 Y82.353 E4.49666
G1 X149.079 Y82.347 E4.55812
G1 X149.668 Y82.361 E4.58556
G1 X149.91 Y82.375 E4.59684
G1 X150.496 Y82.419 E4.62421
G1 X151.244 Y82.511 E4.6593
G1 X151.467 Y82.547 E4.66982
G1 X152.02 Y82.646 E4.69598
G1 X152.801 Y82.828 E4.73332
G1 X153.031 Y82.892 E4.74444
G1 X153.579 Y83.054 E4.77104
G1 X154.095 Y83.227 E4.79639
G1 X154.577 Y83.411 E4.82041
G1 X155.099 Y83.63 E4.84677
G1 X155.625 Y83.876 E4.87381
G1 X155.998 Y84.07 E4.89338
G1 X156.477 Y84.332 E4.91881
G1 X157.056 Y84.681 E4.95029
G1 X157.293 Y84.837 E4.9635
G1 X157.789 Y85.179 E4.99155
G1 X158.426 Y85.669 E5.02897
G1 X158.59 Y85.806 E5.03892
G1 X159.027 Y86.182 E5.06577
G1 X159.396 Y86.523 E5.08916
G1 X159.767 Y86.902 E5.11386
G1 X160.153 Y87.314 E5.14015
G1 X160.595 Y87.829 E5.17175
G1 X160.759 Y88.037 E5.18408
G1 X161.124 Y88.519 E5.21224
G1 X161.573 Y89.178 E5.24937
G1 X161.711 Y89.399 E5.2615
G1 X162.014 Y89.907 E5.28904
G1 X162.365 Y90.567 E5.32385
G1 X162.46 Y90.766 E5.33412
G1 X162.705 Y91.297 E5.36135
G1 X162.92 Y91.811 E5.38729
G1 X163.062 Y92.198 E5.40649
G1 X163.255 Y92.765 E5.43438
G1 X163.403 Y93.262 E5.45852
G1 X163.529 Y93.769 E5.48285
G1 X163.648 Y94.297 E5.50805
G1 X163.758 Y94.896 E5.53641
G1 X163.813 Y95.295 E5.55517
G1 X163.878 Y95.856 E5.58146
G1 X163.93 Y96.681 E5.61996
G1 X163.936 Y96.904 E5.63034
G1 X163.94 Y97.461 E5.65628
G1 X163.912 Y98.187 E5.69011
G1 X163.89 Y98.463 E5.703
G1 X163.833 Y99.033 E5.72968
G1 X163.788 Y99.385 E5.7462
G1 X163.589 Y100.658 E5.8062
G1 X163.452 Y101.475 E5.84477
G1 X163.085 Y104.111 E5.9687
G1 X162.8 Y106.693 E6.08966
G1 X162.581 Y109.369 E6.21468
G1 X162.44 Y111.996 E6.33718
G1 X162.374 Y114.642 E6.46043
G1 X162.396 Y118.563 E6.64301
G1 X162.367 Y119.288 E6.67679
G1 X162.347 Y119.542 E6.68866
G1 X162.289 Y120.131 E6.71622
G1 X162.22 Y120.639 E6.74009
G1 X162.124 Y121.16 E6.76476
G1 X162.013 Y121.696 E6.79025
G1 X161.814 Y122.461 E6.82705
G1 X161.747 Y122.681 E6.83776
G1 X161.577 Y123.209 E6.86359
G1 X161.344 Y123.834 E6.89465
G1 X161.197 Y124.182 E6.91224
G1 X160.967 Y124.698 E6.93855
G1 X160.631 Y125.363 E6.97324
G1 X160.503 Y125.593 E6.9855
G1 X160.21 Y126.096 E7.0126
G1 X159.913 Y126.567 E7.03853
G1 X159.676 Y126.909 E7.0579
G1 X159.34 Y127.369 E7.08443
G1 X159.027 Y127.766 E7.10797
G1 X158.64 Y128.213 E7.1355
G1 X158.07 Y128.826 E7.17448
G1 X157.608 Y129.267 E7.20422
G1 X157.164 Y129.663 E7.23192
G1 X156.53 Y130.173 E7.26981
G1 X156.336 Y130.317 E7.28106
G1 X155.9 Y130.628 E7.306
G1 X155.467 Y130.913 E7.33013
G1 X154.995 Y131.195 E7.35574
G1 X154.516 Y131.465 E7.38134
G1 X153.887 Y131.782 E7.41414
G1 X153.64 Y131.895 E7.42679
G1 X153.102 Y132.126 E7.45405
G1 X152.473 Y132.365 E7.48538
G1 X152.107 Y132.486 E7.50333
G1 X151.576 Y132.65 E7.52921
G1 X150.821 Y132.843 E7.5655
G1 X150.581 Y132.895 E7.57693
G1 X150.07 Y132.995 E7.60118
G1 X149.287 Y133.109 E7.63802
G1 X149.034 Y133.136 E7.64987
G1 X148.51 Y133.182 E7.67436
G1 X147.832 Y133.214 E7.70597
G1 X147.425 Y133.214 E7.72492
G1 X146.874 Y133.202 E7.75058
G1 X146.196 Y133.159 E7.78221
G1 X145.844 Y133.12 E7.79871
G1 X144.061 Y132.892 E7.88241
G1 X141.378 Y132.587 E8.00814
G1 X138.75 Y132.365 E8.13095
G1 X136.103 Y132.215 E8.2544
G1 X133.431 Y132.14 E8.37887
G1 X130.789 Y132.14 E8.50189
G1 X128.177 Y132.215 E8.62357
G1 X125.507 Y132.366 E8.74809
G1 X122.874 Y132.59 E8.87114
G1 X120.243 Y132.89 E8.99444
G1 X117.639 Y133.261 E9.11692
G1 X114.993 Y133.716 E9.24194
G1 X112.426 Y134.23 E9.36384
G1 X109.882 Y134.818 E9.48542
G1 X106.389 Y135.745 E9.6537
G1 X105.72 Y135.9 E9.68568
G1 X105.098 Y136.018 E9.71516
G1 X104.44 Y136.117 E9.74614
G1 X103.805 Y136.185 E9.77588
G1 X102.979 Y136.238 E9.81442
G1 X102.067 Y136.249 E9.85689
G1 X101.527 Y136.238 E9.88204
G1 X101.013 Y136.205 E9.90602
G1 X100.348 Y136.138 E9.93715
G1 X99.67 Y136.04 E9.96905
G1 X98.968 Y135.907 E10.00231
G1 X98.171 Y135.719 E10.04044
G1 X97.298 Y135.466 E10.08277
G1 X96.786 Y135.299 E10.10785
G1 X96.009 Y134.993 E10.14673
G1 X95.518 Y134.778 E10.17169
G1 X95.166 Y134.609 E10.18987
G1 X94.392 Y134.207 E10.23048
G1 X93.761 Y133.84 E10.26447
G1 X92.988 Y133.338 E10.30739
G1 X92.516 Y133.013 E10.33408
G1 X90.262 Y131.48 E10.46101
G1 X88.066 Y130.078 E10.58232
G1 X85.769 Y128.701 E10.70703
G1 X83.449 Y127.396 E10.83097
G1 X81.129 Y126.178 E10.95299
G1 X78.733 Y125.004 E11.07723
G1 X76.333 Y123.913 E11.19999
G1 X73.901 Y122.887 E11.3229
G1 X71.394 Y121.912 E11.44815
G1 X68.944 Y121.042 E11.56921
G1 X66.395 Y120.215 E11.69399
G1 X63.865 Y119.471 E11.81679
G1 X61.31 Y118.799 E11.93981
G1 X59.071 Y118.271 E12.04692
G1 X58.489 Y118.112 E12.07502
G1 X57.756 Y117.878 E12.11085
G1 X57.367 Y117.736 E12.13013
G1 X56.558 Y117.411 E12.17072
G1 X55.917 Y117.117 E12.20356
G1 X55.106 Y116.695 E12.24613
G1 X54.469 Y116.324 E12.28046
G1 X53.764 Y115.865 E12.31963
G1 X53.066 Y115.369 E12.3595
G1 X52.603 Y114.996 E12.38719
G1 X52.215 Y114.661 E12.41106
G1 X51.923 Y114.392 E12.42954
G1 X51.286 Y113.769 E12.47103
G1 X50.793 Y113.239 E12.50474
G1 X50.109 Y112.419 E12.55446
G1 X49.794 Y111.996 E12.57902
G1 X49.29 Y111.261 E12.62052
G1 X48.861 Y110.575 E12.65819
G1 X48.545 Y109.996 E12.68891
G1 X48.318 Y109.541 E12.71258
G1 X48.162 Y109.205 E12.72983
G1 X47.835 Y108.442 E12.76849
G1 X47.648 Y107.971 E12.79208
G1 X47.425 Y107.315 E12.82435
G1 X47.348 Y107.057 E12.83688
G1 X47.208 Y106.55 E12.86138
G1 X47.116 Y106.172 E12.87949
G1 X46.94 Y105.341 E12.91904
G1 X46.848 Y104.836 E12.94295
G1 X46.761 Y104.162 E12.97459
G1 X46.699 Y103.423 E13.00912
G1 X46.681 Y103.001 E13.02879
G1 X46.672 Y102.09 E13.07121
G1 X46.697 Y101.411 E13.10285
G1 X46.776 Y100.506 E13.14515
G1 X46.873 Y99.8 E13.17833
G1 X47.035 Y98.936 E13.21927
G1 X47.228 Y98.097 E13.25935
G1 X47.392 Y97.542 E13.2863
G1 X47.559 Y97.038 E13.31103
G1 X47.691 Y96.675 E13.32901
G1 X47.998 Y95.907 E13.36752
G1 X48.211 Y95.415 E13.39249
G1 X48.5 Y94.829 E13.42291
G1 X48.637 Y94.574 E13.43639
G1 X48.894 Y94.123 E13.46056
G1 X49.09 Y93.802 E13.47808
G1 X49.559 Y93.081 E13.51813
G1 X49.968 Y92.515 E13.55064
G1 X50.566 Y91.769 E13.59516
G1 X51.036 Y91.239 E13.62815
G1 X51.714 Y90.548 E13.67322
G1 X52.172 Y90.124 E13.70229
G1 X52.981 Y89.448 E13.75138
G1 X53.43 Y89.111 E13.77752
G1 X54.152 Y88.616 E13.81828
G1 X54.881 Y88.163 E13.85825
M204 S3000
M205 X10 Y10
G0 F3000 X55.152 Y88.653
M204 S1800
M205 X8 Y8
G1 F2400 X55.634 Y88.39 E13.88381
G1 X56.087 Y88.161 E13.90745
G1 X56.43 Y88.001 E13.92507
G1 X57.234 Y87.658 E13.96578
G1 X57.98 Y87.377 E14.00289
G1 X58.512 Y87.211 E14.02884
G1 X59.007 Y87.074 E14.05276
G1 X59.36 Y86.988 E14.06968
G1 X60.218 Y86.807 E14.11051
G1 X60.976 Y86.68 E14.1463
G1 X61.855 Y86.577 E14.18751
G1 X63.895 Y86.35 E14.28308
G1 X66.562 Y85.978 E14.40847
G1 X69.159 Y85.539 E14.53112
G1 X71.779 Y85.022 E14.65547
G1 X74.383 Y84.429 E14.77982
G1 X76.942 Y83.77 E14.90287
G1 X79.513 Y83.03 E15.02745
G1 X82.06 Y82.219 E15.15191
G1 X84.589 Y81.334 E15.27668
G1 X87.014 Y80.407 E15.39756
G1 X89.519 Y79.369 E15.52382
G1 X91.95 Y78.278 E15.6479
G1 X94.343 Y77.123 E15.77163
G1 X96.002 Y76.253 E15.85885
G1 X97.209 Y75.643 E15.92183
G1 X97.818 Y75.366 E15.95298
G1 X98.057 Y75.268 E15.96501
G1 X98.553 Y75.077 E15.98976
G1 X98.946 Y74.94 E16.00914
G1 X99.614 Y74.73 E16.04174
G1 X100.191 Y74.568 E16.06965
G1 X100.738 Y74.44 E16.09581
G1 X101.456 Y74.307 E16.12981
G1 X101.83 Y74.254 E16.1474
G1 X102.793 Y74.148 E16.19251
G1 X103.364 Y74.113 E16.21915
G1 X104.309 Y74.102 E16.26316
G1 X104.94 Y74.125 E16.29256
G1 X105.793 Y74.199 E16.33243
G1 X106.651 Y74.308 E16.3727
G1 X107.247 Y74.422 E16.40095
G1 X107.783 Y74.541 E16.42652
G1 X108.505 Y74.735 E16.46133
G1 X109.142 Y74.94 E16.49249
G1 X109.479 Y75.062 E16.50918
G1 X111.1 Y75.709 E16.59045
G1 X112.924 Y76.452 E16.68216
G1 X115.404 Y77.381 E16.80548
G1 X117.949 Y78.254 E16.93076
G1 X120.481 Y79.043 E17.05425
G1 X123.043 Y79.761 E17.17815
G1 X125.638 Y80.411 E17.30271
G1 X128.244 Y80.988 E17.427
G1 X130.841 Y81.482 E17.55009
G1 X133.475 Y81.908 E17.67434
G1 X136.126 Y82.261 E17.79887
G1 X138.759 Y82.536 E17.92214
G1 X141.424 Y82.738 E18.04659
G1 X144.061 Y82.863 E18.16952
G1 X146.733 Y82.914 E18.29396
G1 X147.626 Y82.906 E18.33554
G1 X147.758 Y82.913 E18.3417
G1 X149.081 Y82.907 E18.4033
G1 X149.639 Y82.92 E18.42929
G1 X149.868 Y82.933 E18.43997
G1 X150.454 Y82.977 E18.46734
G1 X151.165 Y83.066 E18.5007
G1 X151.368 Y83.098 E18.51027
G1 X151.921 Y83.197 E18.53643
G1 X152.662 Y83.371 E18.57187
G1 X152.873 Y83.429 E18.58206
G1 X153.421 Y83.591 E18.60867
G1 X153.908 Y83.755 E18.6326
G1 X154.36 Y83.928 E18.65513
G1 X154.882 Y84.147 E18.68149
G1 X155.37 Y84.375 E18.70657
G1 X155.729 Y84.561 E18.7254
G1 X156.208 Y84.823 E18.75082
G1 X156.759 Y85.156 E18.7808
G1 X156.975 Y85.298 E18.79284
G1 X157.471 Y85.64 E18.82089
G1 X158.075 Y86.105 E18.85639
G1 X158.225 Y86.23 E18.86548
G1 X158.662 Y86.606 E18.89232
G1 X159.096 Y87.015 E18.92009
G1 X159.359 Y87.285 E18.93764
G1 X159.745 Y87.697 E18.96393
G1 X160.163 Y88.185 E18.99385
G1 X160.313 Y88.375 E19.00512
G1 X160.678 Y88.857 E19.03328
G1 X161.104 Y89.484 E19.06857
G1 X161.23 Y89.685 E19.07962
G1 X161.533 Y90.193 E19.10716
G1 X161.864 Y90.819 E19.14014
G1 X161.952 Y91 E19.14951
G1 X162.197 Y91.531 E19.17674
G1 X162.399 Y92.018 E19.20129
G1 X162.531 Y92.378 E19.21914
G1 X162.724 Y92.945 E19.24703
G1 X162.891 Y93.519 E19.27487
G1 X162.983 Y93.892 E19.29276
G1 X163.102 Y94.42 E19.31796
G1 X163.205 Y94.986 E19.34475
G1 X163.257 Y95.36 E19.36233
G1 X163.322 Y95.921 E19.38863
G1 X163.371 Y96.705 E19.4252
G1 X163.376 Y96.908 E19.43466
G1 X163.38 Y97.465 E19.4606
G1 X163.353 Y98.155 E19.49275
G1 X163.333 Y98.407 E19.50452
G1 X163.276 Y98.977 E19.5312
G1 X163.235 Y99.298 E19.54626
G1 X163.036 Y100.565 E19.60598
G1 X162.899 Y101.379 E19.64442
G1 X162.533 Y104.006 E19.76793
G1 X162.237 Y106.691 E19.89371
G1 X162.024 Y109.291 E20.01518
G1 X161.88 Y111.998 E20.14141
G1 X161.813 Y114.631 E20.26405
G1 X161.836 Y118.567 E20.44733
G1 X161.808 Y119.256 E20.47944
G1 X161.79 Y119.487 E20.49023
G1 X161.732 Y120.076 E20.51779
G1 X161.645 Y120.675 E20.54597
G1 X161.576 Y121.046 E20.56354
G1 X161.465 Y121.582 E20.58903
G1 X161.275 Y122.308 E20.62398
G1 X161.214 Y122.51 E20.6338
G1 X161.044 Y123.038 E20.65963
G1 X160.828 Y123.617 E20.68841
G1 X160.685 Y123.954 E20.70545
G1 X160.455 Y124.47 E20.73176
G1 X160.136 Y125.101 E20.76468
G1 X160.019 Y125.311 E20.77588
G1 X159.726 Y125.814 E20.80298
G1 X159.444 Y126.261 E20.82759
G1 X159.224 Y126.579 E20.8456
G1 X158.888 Y127.039 E20.87212
G1 X158.495 Y127.528 E20.90133
G1 X157.892 Y128.203 E20.94348
G1 X157.515 Y128.587 E20.96854
G1 X157.235 Y128.849 E20.98639
G1 X156.791 Y129.245 E21.0141
G1 X156.188 Y129.73 E21.05013
G1 X156.01 Y129.861 E21.06042
G1 X155.574 Y130.172 E21.08536
G1 X155.053 Y130.51 E21.11428
G1 X154.72 Y130.707 E21.13229
G1 X154.241 Y130.977 E21.1579
G1 X153.645 Y131.278 E21.18899
G1 X153.419 Y131.38 E21.20053
G1 X152.881 Y131.611 E21.2278
G1 X152.294 Y131.834 E21.25704
G1 X151.941 Y131.951 E21.27435
G1 X151.41 Y132.115 E21.30023
G1 X150.692 Y132.298 E21.33473
G1 X150.474 Y132.345 E21.34512
G1 X149.963 Y132.445 E21.36936
G1 X149.216 Y132.554 E21.40451
G1 X148.985 Y132.579 E21.41533
G1 X148.461 Y132.625 E21.43983
G1 X147.827 Y132.654 E21.46938
G1 X147.437 Y132.655 E21.48754
G1 X146.886 Y132.643 E21.5132
G1 X146.254 Y132.602 E21.54269
G1 X145.915 Y132.565 E21.55857
G1 X144.126 Y132.336 E21.64255
G1 X141.416 Y132.029 E21.76955
G1 X138.794 Y131.806 E21.89208
G1 X136.115 Y131.655 E22.01703
G1 X133.447 Y131.58 E22.14131
G1 X130.808 Y131.58 E22.26419
G1 X128.131 Y131.657 E22.38889
G1 X125.46 Y131.808 E22.51347
G1 X122.801 Y132.034 E22.63773
G1 X120.205 Y132.33 E22.75939
G1 X117.534 Y132.711 E22.88502
G1 X114.897 Y133.164 E23.00961
G1 X112.294 Y133.686 E23.13323
G1 X109.762 Y134.27 E23.25423
G1 X106.245 Y135.204 E23.42367
G1 X105.614 Y135.35 E23.45383
G1 X105.006 Y135.465 E23.48264
G1 X104.381 Y135.56 E23.51208
G1 X103.746 Y135.628 E23.54182
G1 X102.972 Y135.678 E23.57793
G1 X102.06 Y135.689 E23.6204
G1 X101.543 Y135.679 E23.64448
G1 X100.591 Y135.602 E23.68895
G1 X99.774 Y135.49 E23.72735
G1 X99.072 Y135.357 E23.76062
G1 X98.326 Y135.181 E23.79631
G1 X97.453 Y134.928 E23.83863
G1 X96.968 Y134.769 E23.8624
G1 X96.221 Y134.475 E23.89978
G1 X95.746 Y134.266 E23.92395
G1 X95.424 Y134.112 E23.94057
G1 X94.65 Y133.71 E23.98118
G1 X94.066 Y133.371 E24.01262
G1 X93.293 Y132.869 E24.05554
G1 X92.851 Y132.563 E24.08057
G1 X90.575 Y131.016 E24.20871
G1 X88.336 Y129.586 E24.33242
G1 X86.029 Y128.203 E24.45767
G1 X83.733 Y126.912 E24.58032
G1 X81.4 Y125.687 E24.70302
G1 X78.974 Y124.499 E24.8288
G1 X76.548 Y123.396 E24.9529
G1 X74.114 Y122.369 E25.07591
G1 X71.588 Y121.386 E25.20212
G1 X69.116 Y120.508 E25.32427
G1 X66.581 Y119.686 E25.44837
G1 X64.03 Y118.936 E25.57218
G1 X61.426 Y118.251 E25.69756
G1 X59.208 Y117.728 E25.80367
G1 X58.641 Y117.573 E25.83104
G1 X57.931 Y117.345 E25.86576
G1 X57.576 Y117.216 E25.88335
G1 X56.767 Y116.891 E25.92395
G1 X56.175 Y116.621 E25.95424
G1 X55.364 Y116.199 E25.99681
G1 X54.775 Y115.855 E26.02858
G1 X54.07 Y115.396 E26.06775
G1 X53.413 Y114.929 E26.10528
G1 X52.969 Y114.572 E26.13181
G1 X52.581 Y114.237 E26.15568
G1 X52.315 Y113.992 E26.17252
G1 X51.678 Y113.369 E26.21401
G1 X51.222 Y112.88 E26.24514
G1 X50.643 Y112.188 E26.28716
G1 X50.256 Y111.68 E26.31689
G1 X49.752 Y110.945 E26.35839
G1 X49.349 Y110.301 E26.39376
G1 X49.046 Y109.746 E26.42321
G1 X48.819 Y109.291 E26.44689
G1 X48.677 Y108.984 E26.46264
G1 X48.35 Y108.221 E26.50129
