;FLAVOR:Marlin
;TIME:480
;Filament used: 0.420595m
;Layer height: 0.2
;MINX:61.384
;MINY:81.816
;MINZ:0.2
;MAXX:149.21
;MAXY:116.007
;MAXZ:10.4
;Generated with Cura_SteamEngine 4.11.0
M140 S60
M105
M190 S60
M104 S200
M105
M109 S200
M82 ;absolute extrusion mode
G21 ;metric values
G90 ;absolute positioning
M82 ;set extruder to absolute mode
M107 ;start with the fan off
G28 X0 Y0 ;move X/Y to min endstops
G28 Z0 ;move Z to min endstops
G1 Z15.0 F100 ;move the platform down 15mm
G92 E0 ;zero the extruded length
G1 F200 E3 ;extrude 3mm of feed stock
G92 E0 ;zero the extruded length again
G1 F100
G0 Y20 F100
M117 Printing...
G5
G92 E0
G92 E0
G1 F2400 E-6
;LAYER_COUNT:52
;LAYER:0
M107
M204 S3000
M205 X10 Y10
G1 F600 Z0.275
G0 F3000 X64.976 Y101.028 Z0.275
M204 S1800
M205 X8 Y8
;TYPE:SKIRT
G1 F600 Z0.2
G1 F2400 E0
G1 X65.609 Y100.696 E0.03328
G1 X66.276 Y100.436 E0.06662
G1 X67.143 Y100.219 E0.10823
G1 X67.685 Y100.128 E0.13383
G1 X69.229 Y99.92 E0.20637
G1 X69.307 Y99.904 E0.21008
G1 X71.015 Y99.673 E0.29033
G1 X73.648 Y99.238 E0.4146
G1 X76.251 Y98.733 E0.53807
G1 X78.836 Y98.156 E0.6614
G1 X80.634 Y97.709 E0.74767
G1 X140.912 Y82.091 E3.64715
G1 X141.293 Y81.998 E3.66541
G1 X141.997 Y81.867 E3.69875
G1 X142.71 Y81.816 E3.73204
G1 X143.425 Y81.844 E3.76536
G1 X144.132 Y81.953 E3.79867
G1 X144.822 Y82.139 E3.83194
G1 X145.488 Y82.402 E3.86528
G1 X146.12 Y82.737 E3.89859
G1 X146.71 Y83.14 E3.93186
G1 X147.252 Y83.607 E3.96518
G1 X147.739 Y84.131 E3.99849
G1 X148.164 Y84.707 E4.03182
G1 X148.522 Y85.326 E4.06511
G1 X148.808 Y85.981 E4.09839
G1 X149.02 Y86.664 E4.13169
G1 X149.155 Y87.367 E4.16503
G1 X149.21 Y88.08 E4.19833
G1 X149.185 Y88.795 E4.23164
G1 X149.08 Y89.502 E4.26492
G1 X148.897 Y90.194 E4.29825
G1 X148.639 Y90.861 E4.33155
G1 X148.307 Y91.494 E4.36484
G1 X147.907 Y92.087 E4.39814
G1 X147.443 Y92.632 E4.43147
G1 X146.921 Y93.121 E4.46478
G1 X146.348 Y93.549 E4.49808
G1 X145.731 Y93.91 E4.53137
G1 X145.077 Y94.2 E4.56468
G1 X144.162 Y94.49 E4.60937
G1 X118.714 Y101.657 E5.84044
G1 X116.135 Y102.422 E5.9657
G1 X113.611 Y103.251 E6.0894
G1 X111.111 Y104.15 E6.21311
G1 X108.641 Y105.117 E6.33663
G1 X106.204 Y106.152 E6.45991
G1 X103.813 Y107.25 E6.58243
G1 X101.456 Y108.412 E6.70479
G1 X99.076 Y109.672 E6.83019
G1 X96.788 Y110.965 E6.95256
G1 X94.521 Y112.335 E7.0759
G1 X93.688 Y112.866 E7.1219
G1 X93.204 Y113.163 E7.14834
G1 X92.575 Y113.502 E7.18161
G1 X91.888 Y113.777 E7.21607
G1 X91.387 Y113.941 E7.24062
G1 X88.516 Y114.81 E7.38029
G1 X87.822 Y115.008 E7.4139
G1 X87.124 Y115.166 E7.44722
G1 X86.224 Y115.252 E7.48932
G1 X85.573 Y115.26 E7.51963
G1 X81.772 Y115.227 E7.69663
G1 X79.077 Y115.242 E7.82212
G1 X76.467 Y115.33 E7.94373
G1 X73.789 Y115.496 E8.06866
G1 X71.225 Y115.727 E8.18854
G1 X70.426 Y115.816 E8.22597
G1 X70.315 Y115.823 E8.23115
G1 X68.95 Y115.97 E8.29508
G1 X68.236 Y116.007 E8.32837
G1 X67.522 Y115.964 E8.36168
G1 X66.817 Y115.841 E8.395
G1 X66.131 Y115.641 E8.42827
G1 X65.471 Y115.365 E8.46159
G1 X64.846 Y115.017 E8.4949
G1 X64.324 Y114.652 E8.52455
G1 X63.775 Y114.194 E8.55785
G1 X63.281 Y113.677 E8.59114
G1 X62.847 Y113.109 E8.62443
G1 X62.479 Y112.495 E8.65776
G1 X62.182 Y111.844 E8.69108
G1 X61.96 Y111.165 E8.72434
G1 X61.808 Y110.453 E8.75824
G1 X61.732 Y109.986 E8.78028
G1 X61.535 Y108.652 E8.84307
G1 X61.439 Y107.933 E8.87684
G1 X61.384 Y107.22 E8.91014
G1 X61.409 Y106.505 E8.94346
G1 X61.514 Y105.797 E8.97678
G1 X61.697 Y105.106 E9.01007
G1 X61.956 Y104.439 E9.04339
G1 X62.288 Y103.806 E9.07667
G1 X62.835 Y103.027 E9.12099
G1 X63.246 Y102.526 E9.15117
G1 X63.772 Y101.959 E9.18718
G1 X63.84 Y101.894 E9.19156
G1 X64.384 Y101.429 E9.22488
G1 X64.976 Y101.028 E9.25818
M204 S3000
M205 X10 Y10
G0 F3000 X65.316 Y101.477
M204 S1800
M205 X8 Y8
G1 F2400 X65.925 Y101.168 E9.28998
G1 X66.566 Y100.932 E9.32178
G1 X67.241 Y100.77 E9.35411
G1 X67.76 Y100.683 E9.37861
G1 X69.236 Y100.485 E9.44796
G1 X69.382 Y100.459 E9.45486
G1 X71.117 Y100.224 E9.53639
G1 X73.737 Y99.792 E9.66003
G1 X76.336 Y99.288 E9.78331
G1 X78.961 Y98.701 E9.90856
G1 X80.799 Y98.245 E9.99674
G1 X141.045 Y82.635 E12.89468
G1 X141.426 Y82.542 E12.91294
G1 X142.098 Y82.419 E12.94475
G1 X142.78 Y82.375 E12.97658
G1 X143.462 Y82.411 E13.00838
G1 X144.136 Y82.527 E13.04022
G1 X144.791 Y82.721 E13.07203
G1 X145.419 Y82.99 E13.10384
G1 X146.011 Y83.33 E13.13563
G1 X146.56 Y83.737 E13.16746
G1 X147.057 Y84.206 E13.19928
G1 X147.497 Y84.729 E13.2311
G1 X147.872 Y85.3 E13.26291
G1 X148.177 Y85.911 E13.29471
G1 X148.41 Y86.554 E13.32655
G1 X148.565 Y87.219 E13.35835
G1 X148.642 Y87.898 E13.39017
G1 X148.64 Y88.581 E13.42197
G1 X148.557 Y89.259 E13.45378
G1 X148.396 Y89.923 E13.48559
G1 X148.158 Y90.564 E13.51743
G1 X147.847 Y91.172 E13.54923
G1 X147.467 Y91.74 E13.58105
G1 X147.024 Y92.26 E13.61286
G1 X146.522 Y92.724 E13.64469
G1 X145.97 Y93.127 E13.67652
G1 X145.375 Y93.462 E13.70831
G1 X144.476 Y93.813 E13.75325
G1 X143.92 Y93.977 E13.78024
G1 X118.538 Y101.125 E15.00811
G1 X115.978 Y101.885 E15.13246
G1 X113.435 Y102.719 E15.25707
G1 X110.913 Y103.626 E15.38187
G1 X108.438 Y104.596 E15.50565
G1 X105.973 Y105.642 E15.63034
G1 X103.583 Y106.74 E15.75281
G1 X101.183 Y107.923 E15.8774
G1 X98.816 Y109.176 E16.00211
G1 X96.516 Y110.476 E16.12513
G1 X94.213 Y111.867 E16.25041
G1 X93.395 Y112.389 E16.2956
G1 X92.911 Y112.686 E16.32204
G1 X92.309 Y113.008 E16.35383
G1 X91.71 Y113.246 E16.38384
G1 X91.218 Y113.408 E16.40796
G1 X88.362 Y114.272 E16.5469
G1 X87.668 Y114.47 E16.58051
G1 X87.001 Y114.619 E16.61233
G1 X86.211 Y114.692 E16.64927
G1 X85.571 Y114.7 E16.67908
G1 X81.774 Y114.667 E16.85589
G1 X79.09 Y114.682 E16.98087
G1 X76.412 Y114.772 E17.10564
G1 X73.742 Y114.938 E17.2302
G1 X71.172 Y115.17 E17.35036
G1 X70.36 Y115.26 E17.3884
G1 X70.248 Y115.267 E17.39363
G1 X68.89 Y115.413 E17.45723
G1 X68.208 Y115.447 E17.48902
G1 X67.526 Y115.4 E17.52085
G1 X66.855 Y115.274 E17.55264
G1 X66.203 Y115.071 E17.58444
G1 X65.579 Y114.792 E17.61627
G1 X64.78 Y114.293 E17.66013
G1 X64.659 Y114.203 E17.66716
G1 X64.135 Y113.764 E17.69899
G1 X63.667 Y113.267 E17.73077
G1 X63.259 Y112.718 E17.76263
G1 X62.919 Y112.126 E17.79441
G1 X62.65 Y111.497 E17.82627
G1 X62.404 Y110.595 E17.8698
G1 X62.295 Y109.965 E17.89957
G1 X62.09 Y108.578 E17.96486
G1 X61.994 Y107.859 E17.99864
G1 X61.944 Y107.178 E18.03043
G1 X61.973 Y106.495 E18.06227
G1 X62.082 Y105.82 E18.0941
G1 X62.269 Y105.163 E18.12591
G1 X62.531 Y104.532 E18.15773
G1 X62.865 Y103.936 E18.18954
G1 X63.268 Y103.382 E18.22144
G1 X63.679 Y102.881 E18.25161
G1 X64.159 Y102.363 E18.2845
G1 X64.227 Y102.298 E18.28888
G1 X64.747 Y101.856 E18.32066
G1 X65.316 Y101.477 E18.35249
M204 S3000
M205 X10 Y10
G0 F3000 X65.654 Y101.929
M204 S1800
M205 X8 Y8
G1 F2400 X66.237 Y101.644 E18.38271
G1 X66.852 Y101.432 E18.413
G1 X67.615 Y101.272 E18.4493
G1 X67.834 Y101.238 E18.45962
G1 X69.368 Y101.032 E18.53169
G1 X69.457 Y101.014 E18.53592
G1 X71.18 Y100.781 E18.61688
G1 X73.86 Y100.339 E18.74336
G1 X76.462 Y99.834 E18.86678
G1 X79.092 Y99.246 E18.99226
G1 X80.89 Y98.8 E19.07852
G1 X141.178 Y83.179 E21.97849
G1 X141.559 Y83.086 E21.99675
G1 X142.198 Y82.971 E22.02698
G1 X142.847 Y82.935 E22.05725
G1 X143.495 Y82.979 E22.08749
G1 X144.133 Y83.103 E22.11776
G1 X144.751 Y83.304 E22.14802
G1 X145.339 Y83.579 E22.17824
G1 X145.889 Y83.925 E22.2085
G1 X146.393 Y84.335 E22.23875
G1 X146.842 Y84.805 E22.26902
G1 X147.23 Y85.325 E22.29923
G1 X147.552 Y85.89 E22.32951
G1 X147.801 Y86.49 E22.35976
G1 X147.975 Y87.116 E22.39001
G1 X148.071 Y87.758 E22.42024
G1 X148.087 Y88.407 E22.45047
G1 X148.024 Y89.054 E22.48074
G1 X147.881 Y89.688 E22.511
G1 X147.662 Y90.299 E22.54123
G1 X147.37 Y90.879 E22.57146
G1 X147.008 Y91.419 E22.60173
G1 X146.583 Y91.91 E22.63197
G1 X146.1 Y92.345 E22.66224
G1 X145.568 Y92.718 E22.69249
G1 X144.995 Y93.022 E22.7227
G1 X144.316 Y93.276 E22.75646
G1 X143.768 Y93.438 E22.78306
G1 X118.428 Y100.574 E24.0089
G1 X115.789 Y101.357 E24.13707
G1 X113.237 Y102.195 E24.26215
G1 X110.708 Y103.104 E24.38728
G1 X108.223 Y104.078 E24.51157
G1 X105.757 Y105.125 E24.63632
G1 X103.352 Y106.229 E24.75954
G1 X100.924 Y107.427 E24.88561
G1 X98.544 Y108.686 E25.01098
G1 X96.213 Y110.004 E25.13567
G1 X93.932 Y111.382 E25.25976
G1 X93.103 Y111.911 E25.30555
G1 X92.619 Y112.208 E25.332
G1 X92.045 Y112.513 E25.36226
G1 X91.532 Y112.715 E25.38793
G1 X91.049 Y112.874 E25.41161
G1 X88.209 Y113.733 E25.54977
G1 X87.515 Y113.931 E25.58338
G1 X86.88 Y114.071 E25.61366
G1 X86.197 Y114.132 E25.64559
G1 X85.569 Y114.14 E25.67483
G1 X81.776 Y114.107 E25.85145
G1 X79.068 Y114.122 E25.97755
G1 X76.396 Y114.212 E26.10204
G1 X73.724 Y114.378 E26.2267
G1 X71.084 Y114.616 E26.35013
G1 X70.294 Y114.704 E26.38714
G1 X70.202 Y114.709 E26.39143
G1 X68.83 Y114.857 E26.45569
G1 X68.181 Y114.886 E26.48594
G1 X67.534 Y114.836 E26.51616
G1 X66.897 Y114.707 E26.54642
G1 X66.281 Y114.5 E26.57668
G1 X65.695 Y114.22 E26.60692
G1 X65.114 Y113.844 E26.63915
G1 X64.993 Y113.754 E26.64617
G1 X64.496 Y113.335 E26.67644
G1 X64.055 Y112.858 E26.70669
G1 X63.676 Y112.33 E26.73695
G1 X63.364 Y111.76 E26.76721
G1 X63.125 Y111.156 E26.79746
G1 X62.955 Y110.491 E26.82942
G1 X62.848 Y109.877 E26.85844
G1 X62.645 Y108.504 E26.92306
G1 X62.549 Y107.785 E26.95684
G1 X62.503 Y107.137 E26.98709
G1 X62.537 Y106.488 E27.01735
G1 X62.65 Y105.848 E27.04761
G1 X62.841 Y105.227 E27.07787
G1 X63.107 Y104.635 E27.10809
G1 X63.443 Y104.079 E27.13834
G1 X63.701 Y103.737 E27.15829
G1 X64.112 Y103.236 E27.18846
G1 X64.546 Y102.768 E27.21818
G1 X64.614 Y102.703 E27.22256
G1 X65.11 Y102.284 E27.2528
G1 X65.654 Y101.929 E27.28304
M204 S3000
M205 X10 Y10
G0 F3000 X68.35 Y106.7
M204 S1800
M205 X8 Y8
;TYPE:SUPPORT-INTERFACE
G1 F1500 X69.062 Y106.597 E27.31654
G1 X70.446 Y106.427 E27.38147
G1 X70.433 Y106.448 E27.38262
G1 X71.387 Y109.044 E27.51141
G1 X69.66 Y109.256 E27.59243
G1 X69.114 Y109.321 E27.61803
G1 X69.102 Y109.313 E27.6187
G1 X68.319 Y109.409 E27.65543
G1 X67.988 Y107.179 E27.76041
G1 X68.35 Y106.7 E27.78837
M204 S3000
M205 X10 Y10
G0 F3000 X69.957 Y108.171
M204 S1800
M205 X8 Y8
G1 F1500 X69.377 Y108.242 E27.81558
G1 X69.199 Y108.252 E27.82388
G1 X69.108 Y107.641 E27.85264
G1 X69.733 Y107.563 E27.88197
G1 X69.957 Y108.171 E27.91214
M204 S3000
M205 X10 Y10
G0 F3000 X70.727 Y108.641
M204 S1800
M205 X8 Y8
G1 F1500 X69.233 Y108.823 E27.98222
G1 X68.725 Y108.875 E28.006
G1 X68.492 Y107.308 E28.07977
G1 X68.615 Y107.147 E28.0892
G1 X69.12 Y107.074 E28.11296
G1 X70.106 Y106.953 E28.15922
G1 X70.727 Y108.641 E28.24297
M204 S3000
M205 X10 Y10
G1 F2400 E22.24297
;MESH:112233.stl
G0 F3000 X73.408 Y107.657
G0 X74.295 Y107.331
G1 F2400 E28.24297
G0 F3000 X74.885 Y107.552
M204 S1800
M205 X8 Y8
;TYPE:WALL-OUTER
G1 F1500 X74.945 Y107.553 E28.24576
G1 X86.43 Y107.895 E28.78079
G1 X88.142 Y107.945 E28.86054
G1 X86.503 Y108.442 E28.90093
G1 X86.034 Y108.584 E28.92375
G1 X75.298 Y108.49 E29.42368
G1 X74.745 Y108.558 E29.44962
G1 X74.457 Y107.774 E29.48852
G1 X74.437 Y107.717 E29.49116
G1 X74.002 Y106.537 E29.54972
G1 X73.881 Y106.206 E29.56613
G1 X74.231 Y106.163 E29.57611
G1 X75.003 Y106.068 E29.61233
G1 X91.729 Y101.733 E30.4169
G1 X91.76 Y101.725 E30.41839
G1 X117.62 Y95.025 E31.6623
G1 X91.906 Y102.265 E32.28427
G1 X91.876 Y102.274 E32.28573
G1 X74.884 Y107.059 E33.10772
G1 X74.827 Y107.075 E33.11048
G1 X74.885 Y107.552 E33.13285
M204 S3000
M205 X10 Y10
G0 F3000 X74.945 Y107.553
G0 X75.084 Y107.557
G0 X75.212 Y108.022
M204 S1800
M205 X8 Y8
;TYPE:SKIN
G1 F1500 X74.964 Y108.056 E33.13835
G1 X76.943 Y108.055 E33.18181
G1 X83.577 Y108.184 E33.32752
G1 X85.884 Y108.229 E33.37819
G1 X86.142 Y108.203 E33.38388
M204 S3000
M205 X10 Y10
G0 F3000 X86.187 Y108.248
G0 X74.859 Y107.581
G0 X84.979 Y103.929
G0 X84.914 Y103.864
M204 S1800
M205 X8 Y8
G1 F1500 X84.691 Y103.925 E33.38916
G1 X79.124 Y105.428 E33.52086
G1 X75.111 Y106.506 E33.61577
G1 X74.451 Y106.695 E33.63145
G1 X74.506 Y107.033 E33.63927
M204 S3000
M205 X10 Y10
G0 F3000 X74.551 Y107.078
G0 X85.074 Y103.741
G0 X85.137 Y103.804
M204 S1800
M205 X8 Y8
G1 F1500 X85.359 Y103.744 E33.64127
G1 X90.258 Y102.42 E33.68541
M204 S3000
M205 X10 Y10
G0 F3000 X90.331 Y102.675
G1 F2400 E27.68541
;MESH:NONMESH
G0 F600 X90.331 Y102.675 Z0.4
G0 F3000 X90.314 Y102.61
G0 X74.175 Y107.004
G0 X73.288 Y107.33
G0 X68.92 Y108.934
;TIME_ELAPSED:27.649515
;LAYER:1
M106 S127.5
M204 S1800
M205 X8 Y8
;TYPE:SUPPORT-INTERFACE
G1 F2400 E33.68541
G1 F1350 X68.659 Y108.966 E33.69416
G1 X68.409 Y107.286 E33.75065
G1 X68.585 Y107.07 E33.75992
G1 X68.92 Y108.934 E33.82291
M204 S3000
M205 X10 Y10
G0 F4500 X69.051 Y109.321
M204 S1800
M205 X8 Y8
G1 F1350 X68.32 Y109.41 E33.8474
G1 X67.988 Y107.179 E33.92242
G1 X68.35 Y106.7 E33.94239
G1 X68.911 Y106.619 E33.96124
G1 X69.39 Y109.288 E34.05143
G1 X69.051 Y109.321 E34.06276
M204 S3000
M205 X10 Y10
G1 F2400 E28.06276
;MESH:112233.stl
G0 F4500 X70.763 Y108.691
G0 X71.762 Y108.324
G0 X74.214 Y107.895
M204 S1800
M205 X8 Y8
;TYPE:WALL-INNER
G1 F2400 E34.06276
G1 F2250 X72.328 Y108.126 E34.12596
G1 X72.06 Y107.399 E34.15173
G1 X71.973 Y107.163 E34.1601
G1 X72.223 Y107.133 E34.16518
G1 X73.897 Y106.926 E34.22129
G1 X74.095 Y106.902 E34.22792
G1 X74.118 Y107.1 E34.2322
G1 X74.214 Y107.895 E34.25884
M204 S3000
M205 X10 Y10
G0 F4500 X74.613 Y107.86
M204 S1800
M205 X8 Y8
G1 F2250 X75.301 Y107.88 E34.28173
G1 X88.883 Y108.283 E34.73367
G1 X75.293 Y108.165 E34.89474
G1 X74.661 Y108.242 E34.91234
G1 X72.062 Y108.562 E34.99944
G1 X71.511 Y107.063 E35.05256
G1 X71.424 Y106.827 E35.06092
G1 X71.674 Y106.797 E35.06601
G1 X74.443 Y106.456 E35.1588
G1 X75.077 Y106.378 E35.18005
G1 X88.144 Y102.992 E35.62902
G1 X75.154 Y106.65 E35.78721
G1 X74.49 Y106.837 E35.80644
G1 X74.613 Y107.86 E35.84071
M204 S3000
M205 X10 Y10
G0 F4500 X74.969 Y107.47
M204 S1800
M205 X8 Y8
;TYPE:WALL-OUTER
G1 F2250 X75.153 Y107.475 E35.84683
G1 X127.067 Y109.014 E37.57426
G1 X75.316 Y108.565 E39.29557
G1 X71.796 Y108.998 E39.41352
G1 X70.961 Y106.728 E39.49397
G1 X70.875 Y106.492 E39.50232
G1 X71.125 Y106.462 E39.50741
G1 X75.002 Y105.984 E39.63734
G1 X124.995 Y93.031 E41.35502
G1 X75.106 Y107.079 E43.07886
G1 X74.928 Y107.129 E43.08458
G1 X74.969 Y107.47 E43.096
M204 S3000
M205 X10 Y10
G0 F4500 X75.153 Y107.475
G0 X75.168 Y107.475
G0 X75.16 Y107.775
G0 X73.779 Y107.554
M204 S1800
M205 X8 Y8
;TYPE:SKIN
G1 F1350 X72.587 Y107.701 E43.13595
G1 X72.509 Y107.491 E43.1434
G1 X73.754 Y107.337 E43.18512
G1 X73.779 Y107.554 E43.19239
M204 S3000
M205 X10 Y10
G0 F4500 X74.676 Y106.961
G0 X88.365 Y103.118
M204 S1800
M205 X8 Y8
;TYPE:SKIN
G1 F1350 X88.899 Y102.584 E43.20495
M204 S3000
M205 X10 Y10
G0 F4500 X88.411 Y102.789
M204 S1800
M205 X8 Y8
G1 F1350 X89.004 Y102.762 E43.21573
G1 X96.37 Y100.77 E43.35432
G1 X103.737 Y98.777 E43.49294
G1 X104.9 Y98.462 E43.51482
M204 S3000
M205 X10 Y10
G0 F4500 X104.933 Y98.429
G0 X74.676 Y106.961
G0 X104.717 Y108.545
G0 X104.678 Y108.584
M204 S1800
M205 X8 Y8
G1 F1350 X104.4 Y108.579 E43.52049
G1 X98.017 Y108.457 E43.65049
G1 X91.633 Y108.335 E43.78052
G1 X89.413 Y108.292 E43.82573
G1 X89.198 Y108.225 E43.83032
M204 S3000
M205 X10 Y10
G0 F4500 X89.061 Y108.362
G0 X104.92 Y108.625
G0 X104.955 Y108.589
M204 S1800
M205 X8 Y8
G1 F1350 X105.233 Y108.595 E43.83196
G1 X106.343 Y108.616 E43.83852
M204 S3000
M205 X10 Y10
G0 F4500 X106.362 Y108.436
G1 F2400 E37.83852
;MESH:NONMESH
G0 F600 X106.362 Y108.436 Z0.6
G0 F4500 X106.361 Y108.499
G0 X88.852 Y108.669
G0 X88.845 Y109.547
G0 X71.602 Y109.891
G0 X68.723 Y109.36
;TIME_ELAPSED:40.822318
;LAYER:2
M106 S255
M204 S1800
M205 X8 Y8
;TYPE:SUPPORT-INTERFACE
G1 F2400 E43.83852
G1 F1200 X68.32 Y109.411 E43.85203
G1 X67.989 Y107.179 E43.92708
G1 X68.308 Y106.756 E43.9447
G1 X68.723 Y109.36 E44.0324
M204 S3000
M205 X10 Y10
G1 F2400 E38.0324
;MESH:112233.stl
G0 F6000 X69.964 Y109.006
G0 X74.227 Y107.89
M204 S1800
M205 X8 Y8
;TYPE:WALL-INNER
G1 F2400 E44.0324
G1 F3000 X70.443 Y108.357 E44.15921
G1 X70.303 Y107.575 E44.18564
G1 X70.266 Y107.368 E44.19263
G1 X70.475 Y107.343 E44.19708
G1 X73.91 Y106.921 E44.31219
G1 X74.108 Y106.897 E44.31882
G1 X74.131 Y107.095 E44.3231
G1 X74.227 Y107.89 E44.34974
M204 S3000
M205 X10 Y10
