;FLAVOR:Marlin
;TIME:4010
;Filament used: 2.89157m
;Layer height: 0.2
;MINX:78.19
;MINY:83.505
;MINZ:0.2
;MAXX:124.235
;MAXY:144.514
;MAXZ:61.2
;Generated with Cura_SteamEngine 4.11.0
M140 S60
M105
M190 S60
M104 S200
M105
M109 S200
M82 ;absolute extrusion mode
G21 ;metric values
G90 ;absolute positioning
M82 ;set extruder to absolute mode
M107 ;start with the fan off
G28 X0 Y0 ;move X/Y to min endstops
G28 Z0 ;move Z to min endstops
G1 Z15.0 F100 ;move the platform down 15mm
G92 E0 ;zero the extruded length
G1 F200 E3 ;extrude 3mm of feed stock
G92 E0 ;zero the extruded length again
G1 F100
G0 Y20 F100
M117 Printing...
G5
G92 E0
G92 E0
G1 F2400 E-6
;LAYER_COUNT:306
;LAYER:0
M107
M204 S3000
M205 X10 Y10
G1 F600 Z0.275
G0 F3000 X86.652 Y88.985 Z0.275
M204 S1800
M205 X8 Y8
;TYPE:SKIRT
G1 F600 Z0.2
G1 F2400 E0
G1 X87.067 Y88.58 E0.027
G1 X87.312 Y88.387 E0.04152
G1 X89.075 Y87.103 E0.14308
G1 X89.566 Y86.795 E0.17007
G1 X90.094 Y86.558 E0.19702
G1 X90.425 Y86.461 E0.21308
G1 X93.409 Y84.302 E0.38458
G1 X93.901 Y83.996 E0.41156
G1 X94.43 Y83.76 E0.43853
G1 X94.986 Y83.599 E0.46549
G1 X95.56 Y83.517 E0.49249
G1 X95.871 Y83.505 E0.50698
G1 X98.955 Y83.505 E0.65058
G1 X99.533 Y83.545 E0.67756
G1 X100.1 Y83.664 E0.70454
G1 X100.645 Y83.86 E0.73151
G1 X101.158 Y84.129 E0.75848
G1 X101.427 Y84.309 E0.77355
G1 X103.923 Y86.126 E0.91731
G1 X104.367 Y86.499 E0.94431
G1 X104.755 Y86.929 E0.97128
G1 X105.08 Y87.408 E0.99823
G1 X105.337 Y87.928 E1.02524
G1 X105.445 Y88.223 E1.03987
G1 X106.398 Y91.153 E1.18334
G1 X106.539 Y91.715 E1.21032
G1 X106.601 Y92.291 E1.2373
G1 X106.583 Y92.87 E1.26427
G1 X106.486 Y93.441 E1.29124
G1 X106.399 Y93.748 E1.3061
G1 X106.171 Y94.452 E1.34055
G1 X119.871 Y94.452 E1.97848
G1 X120.449 Y94.492 E2.00546
G1 X121.016 Y94.611 E2.03244
G1 X121.561 Y94.807 E2.05941
G1 X122.074 Y95.076 E2.08638
G1 X122.545 Y95.413 E2.11335
G1 X123.005 Y95.846 E2.14276
G1 X123.385 Y96.283 E2.16973
G1 X123.702 Y96.768 E2.19671
G1 X123.949 Y97.292 E2.22368
G1 X124.121 Y97.845 E2.25065
G1 X124.216 Y98.417 E2.27765
G1 X124.235 Y98.816 E2.29625
G1 X124.235 Y128.488 E3.6779
G1 X124.195 Y129.066 E3.70488
G1 X124.076 Y129.633 E3.73186
G1 X123.88 Y130.178 E3.75883
G1 X123.611 Y130.691 E3.7858
G1 X123.274 Y131.162 E3.81277
G1 X122.841 Y131.622 E3.84218
G1 X122.404 Y132.002 E3.86915
G1 X121.919 Y132.319 E3.89613
G1 X121.395 Y132.566 E3.9231
G1 X120.842 Y132.738 E3.95007
G1 X120.27 Y132.833 E3.97707
G1 X119.871 Y132.852 E3.99567
G1 X107.329 Y132.852 E4.57968
G1 X107.687 Y133.956 E4.63372
G1 X107.827 Y134.518 E4.66069
G1 X107.889 Y135.094 E4.68766
G1 X107.871 Y135.673 E4.71464
G1 X107.773 Y136.244 E4.74161
G1 X107.686 Y136.551 E4.75647
G1 X106.67 Y139.675 E4.90944
G1 X106.453 Y140.212 E4.93641
G1 X106.165 Y140.715 E4.9634
G1 X105.81 Y141.172 E4.99034
G1 X105.395 Y141.577 E5.01734
G1 X105.148 Y141.771 E5.03197
G1 X102.486 Y143.709 E5.18529
G1 X101.995 Y144.017 E5.21228
G1 X101.467 Y144.255 E5.23925
G1 X100.911 Y144.417 E5.26622
G1 X100.338 Y144.502 E5.29319
G1 X100.014 Y144.514 E5.30829
G1 X96.726 Y144.514 E5.46139
G1 X96.148 Y144.474 E5.48837
G1 X95.581 Y144.355 E5.51535
G1 X95.036 Y144.159 E5.54231
G1 X94.523 Y143.89 E5.56929
G1 X94.254 Y143.709 E5.58438
G1 X91.592 Y141.771 E5.73771
G1 X91.148 Y141.399 E5.76468
G1 X90.76 Y140.969 E5.79165
G1 X90.435 Y140.49 E5.8186
G1 X90.178 Y139.97 E5.84561
G1 X90.07 Y139.675 E5.86024
G1 X89.078 Y136.623 E6.00967
G1 X89.07 Y136.615 E6.0102
G1 X88.744 Y136.136 E6.03718
G1 X88.488 Y135.616 E6.06417
G1 X88.381 Y135.328 E6.07847
G1 X88.09 Y134.439 E6.12203
G1 X87.949 Y133.877 E6.14901
G1 X87.885 Y133.301 E6.176
G1 X87.902 Y132.722 E6.20297
G1 X87.986 Y132.221 E6.22662
G1 X87.525 Y131.891 E6.25302
G1 X87.065 Y131.458 E6.28244
G1 X86.685 Y131.021 E6.3094
G1 X86.368 Y130.536 E6.33638
G1 X86.121 Y130.012 E6.36336
G1 X85.949 Y129.459 E6.39032
G1 X85.854 Y128.887 E6.41732
G1 X85.835 Y128.488 E6.43592
G1 X85.835 Y127.549 E6.47965
G1 X85.555 Y127.576 E6.49275
G1 X84.648 Y127.576 E6.53498
G1 X84.07 Y127.536 E6.56196
G1 X83.503 Y127.417 E6.58894
G1 X82.958 Y127.221 E6.6159
G1 X82.445 Y126.952 E6.64288
G1 X82.177 Y126.772 E6.65791
G1 X80.579 Y125.609 E6.74994
G1 X80.135 Y125.236 E6.77694
G1 X79.746 Y124.807 E6.80391
G1 X79.421 Y124.327 E6.8309
G1 X79.165 Y123.808 E6.85784
G1 X79.056 Y123.514 E6.87245
G1 X78.445 Y121.638 E6.96432
G1 X78.304 Y121.076 E6.9913
G1 X78.242 Y120.5 E7.01827
G1 X78.26 Y119.921 E7.04525
G1 X78.357 Y119.35 E7.07221
G1 X78.445 Y119.036 E7.0874
G1 X79.006 Y117.314 E7.17173
G1 X78.428 Y115.54 E7.25861
G1 X78.287 Y114.978 E7.28559
G1 X78.225 Y114.402 E7.31257
G1 X78.243 Y113.823 E7.33954
G1 X78.34 Y113.252 E7.36651
G1 X78.428 Y112.94 E7.3816
G1 X78.932 Y111.393 E7.45736
G1 X78.393 Y109.737 E7.53846
G1 X78.252 Y109.175 E7.56544
G1 X78.19 Y108.599 E7.59241
G1 X78.208 Y108.02 E7.61939
G1 X78.305 Y107.449 E7.64636
G1 X78.393 Y107.139 E7.66136
G1 X78.964 Y105.383 E7.74734
G1 X78.41 Y103.68 E7.83073
G1 X78.269 Y103.118 E7.85771
G1 X78.207 Y102.542 E7.88469
G1 X78.225 Y101.963 E7.91166
G1 X78.322 Y101.392 E7.93863
G1 X78.41 Y101.08 E7.95372
G1 X79.027 Y99.184 E8.04657
G1 X79.244 Y98.647 E8.07354
G1 X79.533 Y98.145 E8.10051
G1 X79.888 Y97.687 E8.12749
G1 X80.302 Y97.283 E8.15443
G1 X80.55 Y97.088 E8.16912
G1 X82.166 Y95.912 E8.26218
G1 X82.656 Y95.604 E8.28913
G1 X83.185 Y95.367 E8.31612
G1 X83.741 Y95.205 E8.34309
G1 X84.314 Y95.12 E8.37006
G1 X85.106 Y95.108 E8.40694
G1 X84.975 Y94.582 E8.43219
G1 X84.914 Y94.006 E8.45916
G1 X84.933 Y93.427 E8.48613
G1 X85.031 Y92.856 E8.51311
G1 X85.117 Y92.552 E8.52782
G1 X85.791 Y90.482 E8.62919
G1 X86.008 Y89.944 E8.6562
G1 X86.297 Y89.442 E8.68317
G1 X86.652 Y88.985 E8.71012
M204 S3000
M205 X10 Y10
G0 F3000 X87.146 Y89.275
M204 S1800
M205 X8 Y8
G1 F2400 X87.642 Y88.84 E8.74084
G1 X89.405 Y87.556 E8.8424
G1 X89.863 Y87.271 E8.86751
G1 X90.358 Y87.058 E8.89261
G1 X90.669 Y86.976 E8.90758
G1 X93.737 Y84.756 E9.08392
G1 X94.196 Y84.473 E9.10903
G1 X94.692 Y84.261 E9.13414
G1 X95.214 Y84.125 E9.15926
G1 X95.871 Y84.065 E9.18998
G1 X98.955 Y84.065 E9.33359
G1 X99.493 Y84.105 E9.35871
G1 X100.019 Y84.224 E9.38382
G1 X100.521 Y84.419 E9.4089
G1 X101.097 Y84.762 E9.44011
G1 X103.593 Y86.579 E9.58387
G1 X104.005 Y86.928 E9.60901
G1 X104.36 Y87.334 E9.63413
G1 X104.651 Y87.787 E9.6592
G1 X104.913 Y88.396 E9.69007
G1 X105.866 Y91.326 E9.83354
G1 X105.994 Y91.85 E9.85865
G1 X106.043 Y92.387 E9.88376
G1 X106.013 Y92.925 E9.90885
G1 X105.866 Y93.575 E9.93988
G1 X105.4 Y95.012 E10.01023
G1 X119.871 Y95.012 E10.68406
G1 X120.409 Y95.052 E10.70918
G1 X120.935 Y95.171 E10.73429
G1 X121.437 Y95.366 E10.75937
G1 X121.906 Y95.634 E10.78452
G1 X122.445 Y96.078 E10.81704
G1 X122.609 Y96.242 E10.82783
G1 X122.961 Y96.651 E10.85296
G1 X123.249 Y97.107 E10.87808
G1 X123.466 Y97.6 E10.90316
G1 X123.608 Y98.12 E10.92826
G1 X123.675 Y98.816 E10.96082
G1 X123.675 Y128.488 E12.34247
G1 X123.635 Y129.026 E12.36759
G1 X123.516 Y129.552 E12.3927
G1 X123.321 Y130.054 E12.41778
G1 X123.053 Y130.523 E12.44293
G1 X122.609 Y131.062 E12.47545
G1 X122.445 Y131.226 E12.48625
G1 X122.036 Y131.578 E12.51137
G1 X121.58 Y131.866 E12.53649
G1 X121.087 Y132.083 E12.56157
G1 X120.567 Y132.225 E12.58667
G1 X119.871 Y132.292 E12.61923
G1 X106.558 Y132.292 E13.23914
G1 X107.154 Y134.128 E13.32902
G1 X107.282 Y134.652 E13.35414
G1 X107.331 Y135.189 E13.37924
G1 X107.301 Y135.728 E13.40438
G1 X107.154 Y136.378 E13.43541
G1 X106.138 Y139.502 E13.58838
G1 X105.933 Y140.001 E13.6135
G1 X105.657 Y140.464 E13.6386
G1 X105.316 Y140.882 E13.66372
G1 X104.818 Y141.319 E13.69457
G1 X102.156 Y143.257 E13.84789
G1 X101.698 Y143.541 E13.87299
G1 X101.203 Y143.754 E13.89808
G1 X100.682 Y143.892 E13.92317
G1 X100.014 Y143.954 E13.95441
G1 X96.726 Y143.954 E14.10752
G1 X96.188 Y143.914 E14.13264
G1 X95.662 Y143.795 E14.15775
G1 X95.16 Y143.6 E14.18283
G1 X94.584 Y143.257 E14.21404
G1 X91.922 Y141.319 E14.36737
G1 X91.51 Y140.97 E14.39251
G1 X91.155 Y140.564 E14.41762
G1 X90.864 Y140.11 E14.44273
G1 X90.602 Y139.502 E14.47356
G1 X89.586 Y136.378 E14.62652
G1 X89.465 Y136.21 E14.63616
G1 X89.173 Y135.756 E14.6613
G1 X88.914 Y135.153 E14.69186
G1 X88.623 Y134.264 E14.73542
G1 X88.493 Y133.741 E14.76051
G1 X88.443 Y133.204 E14.78562
G1 X88.472 Y132.666 E14.81071
G1 X88.581 Y132.137 E14.83586
G1 X88.633 Y131.938 E14.84544
G1 X88.164 Y131.67 E14.87059
G1 X87.625 Y131.226 E14.90311
G1 X87.461 Y131.062 E14.91391
G1 X87.109 Y130.653 E14.93903
G1 X86.821 Y130.197 E14.96415
G1 X86.604 Y129.704 E14.98923
G1 X86.462 Y129.184 E15.01433
G1 X86.395 Y128.488 E15.04689
G1 X86.395 Y126.917 E15.12004
G1 X85.875 Y127.002 E15.14457
G1 X85.555 Y127.016 E15.15949
G1 X84.648 Y127.016 E15.20172
G1 X84.11 Y126.976 E15.22684
G1 X83.584 Y126.857 E15.25196
G1 X83.082 Y126.662 E15.27703
G1 X82.506 Y126.319 E15.30825
G1 X80.908 Y125.156 E15.40028
G1 X80.497 Y124.807 E15.42539
G1 X80.141 Y124.402 E15.45049
G1 X79.85 Y123.948 E15.4756
G1 X79.589 Y123.34 E15.50641
G1 X78.978 Y121.464 E15.59828
G1 X78.849 Y120.941 E15.62337
G1 X78.8 Y120.404 E15.64848
G1 X78.83 Y119.865 E15.67361
G1 X78.978 Y119.21 E15.70488
G1 X79.589 Y117.334 E15.79675
G1 X79.575 Y117.253 E15.80058
G1 X78.961 Y115.367 E15.89294
G1 X78.832 Y114.843 E15.91806
G1 X78.783 Y114.306 E15.94317
G1 X78.813 Y113.768 E15.96826
G1 X78.961 Y113.113 E15.99953
G1 X79.521 Y111.393 E16.08376
G1 X78.926 Y109.564 E16.17332
G1 X78.797 Y109.04 E16.19845
G1 X78.748 Y108.503 E16.22356
G1 X78.778 Y107.965 E16.24865
G1 X78.926 Y107.312 E16.27982
G1 X79.546 Y105.406 E16.37315
G1 X79.555 Y105.385 E16.37422
G1 X78.943 Y103.506 E16.46624
G1 X78.814 Y102.983 E16.49132
G1 X78.765 Y102.446 E16.51643
G1 X78.795 Y101.907 E16.54156
G1 X78.943 Y101.254 E16.57274
G1 X79.56 Y99.358 E16.66558
G1 X79.764 Y98.859 E16.69069
G1 X80.04 Y98.395 E16.71583
G1 X80.381 Y97.978 E16.74091
G1 X80.879 Y97.541 E16.77176
G1 X82.495 Y96.365 E16.86482
G1 X82.954 Y96.081 E16.88996
G1 X83.449 Y95.867 E16.91507
G1 X83.97 Y95.73 E16.94015
G1 X84.637 Y95.668 E16.97134
G1 X85.555 Y95.668 E17.01409
G1 X85.898 Y95.693 E17.0301
G1 X85.647 Y94.972 E17.06565
G1 X85.52 Y94.448 E17.09076
G1 X85.471 Y93.911 E17.11587
G1 X85.503 Y93.372 E17.14101
G1 X85.65 Y92.725 E17.17191
G1 X86.324 Y90.655 E17.27327
G1 X86.528 Y90.156 E17.29838
G1 X86.804 Y89.693 E17.32348
G1 X87.146 Y89.275 E17.34862
M204 S3000
M205 X10 Y10
G0 F3000 X87.636 Y89.576
M204 S1800
M205 X8 Y8
G1 F2400 X87.972 Y89.292 E17.36911
G1 X89.735 Y88.008 E17.47067
G1 X90.158 Y87.75 E17.49374
G1 X90.617 Y87.562 E17.51683
G1 X90.906 Y87.495 E17.53065
G1 X94.065 Y85.21 E17.71219
G1 X94.489 Y84.952 E17.7353
G1 X94.949 Y84.766 E17.75841
G1 X95.433 Y84.656 E17.78152
G1 X95.871 Y84.625 E17.80197
G1 X98.955 Y84.625 E17.94557
G1 X99.449 Y84.665 E17.96865
G1 X99.931 Y84.784 E17.99176
G1 X100.387 Y84.978 E18.01484
G1 X100.768 Y85.215 E18.03573
G1 X103.264 Y87.032 E18.17949
G1 X103.64 Y87.355 E18.20257
G1 X103.959 Y87.735 E18.22568
G1 X104.214 Y88.16 E18.24875
G1 X104.38 Y88.569 E18.26931
G1 X105.333 Y91.499 E18.41278
G1 X105.448 Y91.982 E18.4359
G1 X105.484 Y92.476 E18.45896
G1 X105.44 Y92.971 E18.4821
G1 X105.334 Y93.402 E18.50277
G1 X104.776 Y95.122 E18.58697
G1 X104.588 Y95.572 E18.60967
G1 X119.871 Y95.572 E19.32132
G1 X120.365 Y95.612 E19.34439
G1 X120.847 Y95.731 E19.36751
G1 X121.303 Y95.925 E19.39059
G1 X121.722 Y96.19 E19.41367
G1 X122.213 Y96.638 E19.44462
G1 X122.534 Y97.016 E19.46771
G1 X122.791 Y97.44 E19.4908
G1 X122.976 Y97.901 E19.51393
G1 X123.085 Y98.384 E19.53699
G1 X123.115 Y98.816 E19.55715
G1 X123.115 Y128.488 E20.9388
G1 X123.075 Y128.982 E20.96188
G1 X122.956 Y129.464 E20.985
G1 X122.762 Y129.92 E21.00807
G1 X122.497 Y130.339 E21.03116
G1 X122.049 Y130.83 E21.06211
G1 X121.671 Y131.151 E21.0852
G1 X121.247 Y131.408 E21.10829
G1 X120.786 Y131.593 E21.13142
G1 X120.303 Y131.702 E21.15447
G1 X119.871 Y131.732 E21.17464
G1 X105.741 Y131.732 E21.83259
G1 X105.934 Y132.181 E21.85535
G1 X106.622 Y134.301 E21.95913
G1 X106.736 Y134.784 E21.98224
G1 X106.772 Y135.279 E22.00535
G1 X106.728 Y135.773 E22.02844
G1 X106.621 Y136.205 E22.04917
G1 X105.605 Y139.329 E22.20213
G1 X105.414 Y139.786 E22.2252
G1 X105.152 Y140.208 E22.24833
G1 X104.826 Y140.581 E22.27139
G1 X104.489 Y140.866 E22.29194
G1 X101.827 Y142.804 E22.44527
G1 X101.404 Y143.063 E22.46836
G1 X100.944 Y143.25 E22.49148
G1 X100.461 Y143.361 E22.51456
G1 X100.014 Y143.394 E22.53543
G1 X96.726 Y143.394 E22.68854
G1 X96.232 Y143.354 E22.71161
G1 X95.75 Y143.235 E22.73473
G1 X95.294 Y143.041 E22.75781
G1 X94.913 Y142.804 E22.7787
G1 X92.251 Y140.866 E22.93202
G1 X91.875 Y140.543 E22.9551
G1 X91.556 Y140.163 E22.97821
G1 X91.301 Y139.738 E23.00129
G1 X91.135 Y139.329 E23.02184
G1 X90.119 Y136.205 E23.1748
G1 X90.087 Y136.072 E23.18117
G1 X89.865 Y135.809 E23.1972
G1 X89.611 Y135.383 E23.2203
G1 X89.446 Y134.979 E23.24062
G1 X89.155 Y134.09 E23.28417
G1 X89.039 Y133.608 E23.30726
G1 X89.002 Y133.113 E23.33037
G1 X89.045 Y132.619 E23.35346
G1 X89.167 Y132.138 E23.37657
G1 X89.406 Y131.618 E23.40322
G1 X88.767 Y131.379 E23.43498
G1 X88.348 Y131.114 E23.45807
G1 X87.857 Y130.666 E23.48902
G1 X87.536 Y130.288 E23.51211
G1 X87.279 Y129.864 E23.5352
G1 X87.094 Y129.403 E23.55833
G1 X86.985 Y128.92 E23.58138
G1 X86.955 Y128.488 E23.60155
G1 X86.955 Y126.113 E23.71214
G1 X86.41 Y126.335 E23.73954
G1 X85.923 Y126.434 E23.76268
G1 X85.555 Y126.456 E23.77985
G1 X84.648 Y126.456 E23.82208
G1 X84.154 Y126.416 E23.84516
G1 X83.672 Y126.297 E23.86828
G1 X83.216 Y126.103 E23.89135
G1 X82.836 Y125.866 E23.9122
G1 X81.238 Y124.703 E24.00423
G1 X80.861 Y124.38 E24.02735
G1 X80.542 Y124.001 E24.05042
G1 X80.287 Y123.575 E24.07354
G1 X80.121 Y123.167 E24.09405
G1 X79.51 Y121.291 E24.18592
G1 X79.395 Y120.808 E24.20904
G1 X79.359 Y120.314 E24.2321
G1 X79.403 Y119.82 E24.25519
G1 X79.51 Y119.383 E24.27614
G1 X80.121 Y117.507 E24.36801
G1 X80.202 Y117.313 E24.3778
G1 X80.107 Y117.079 E24.38956
G1 X79.493 Y115.193 E24.48192
G1 X79.378 Y114.711 E24.50499
G1 X79.342 Y114.216 E24.5281
G1 X79.386 Y113.722 E24.5512
G1 X79.493 Y113.287 E24.57206
G1 X80.107 Y111.401 E24.66441
G1 X80.078 Y111.297 E24.66944
G1 X79.458 Y109.391 E24.76277
G1 X79.343 Y108.908 E24.78589
G1 X79.307 Y108.414 E24.80895
G1 X79.351 Y107.92 E24.83205
G1 X79.458 Y107.485 E24.85291
G1 X80.078 Y105.579 E24.94623
G1 X80.157 Y105.389 E24.95582
G1 X80.092 Y105.229 E24.96386
G1 X79.475 Y103.333 E25.0567
G1 X79.36 Y102.851 E25.07977
G1 X79.324 Y102.356 E25.10288
G1 X79.368 Y101.862 E25.12598
G1 X79.475 Y101.427 E25.14684
G1 X80.092 Y99.531 E25.23968
G1 X80.283 Y99.073 E25.26279
G1 X80.545 Y98.652 E25.28588
G1 X80.871 Y98.278 E25.30898
G1 X81.209 Y97.994 E25.32954
G1 X82.825 Y96.818 E25.4226
G1 X83.248 Y96.559 E25.44569
G1 X83.707 Y96.372 E25.46877
G1 X84.191 Y96.261 E25.4919
G1 X84.637 Y96.228 E25.51272
G1 X85.555 Y96.228 E25.55547
G1 X86.049 Y96.268 E25.57854
G1 X86.531 Y96.387 E25.60166
G1 X86.987 Y96.581 E25.62474
G1 X87.561 Y96.984 E25.65739
G1 X87.635 Y96.893 E25.66286
G1 X87.074 Y96.462 E25.6958
G1 X86.753 Y96.085 E25.71885
G1 X86.496 Y95.661 E25.74194
G1 X86.18 Y94.799 E25.78469
G1 X86.066 Y94.317 E25.80775
G1 X86.031 Y93.822 E25.83086
G1 X86.076 Y93.328 E25.85396
G1 X86.182 Y92.898 E25.87458
G1 X86.856 Y90.828 E25.97595
G1 X87.047 Y90.371 E25.99901
G1 X87.309 Y89.95 E26.0221
G1 X87.636 Y89.576 E26.04524
M204 S3000
M205 X10 Y10
G0 F3000 X87.812 Y90.215
M204 S1800
M205 X8 Y8
G1 F2400 X88.301 Y89.745 E26.07682
G1 X90.064 Y88.461 E26.17837
G1 X90.449 Y88.23 E26.19928
G1 X90.869 Y88.071 E26.22019
G1 X91.134 Y88.022 E26.23274
G1 X94.394 Y85.663 E26.42012
G1 X94.779 Y85.434 E26.44097
G1 X95.199 Y85.276 E26.46187
G1 X95.871 Y85.185 E26.49345
G1 X98.955 Y85.185 E26.63705
G1 X99.402 Y85.225 E26.65795
G1 X99.834 Y85.343 E26.6788
G1 X100.438 Y85.668 E26.71074
G1 X102.934 Y87.485 E26.8545
G1 X103.272 Y87.78 E26.87539
G1 X103.552 Y88.13 E26.89626
G1 X103.847 Y88.743 E26.92793
G1 X104.8 Y91.673 E27.0714
G1 X104.901 Y92.11 E27.09229
G1 X104.922 Y92.558 E27.11317
G1 X104.801 Y93.23 E27.14497
G1 X104.243 Y94.95 E27.22917
G1 X104.067 Y95.362 E27.25003
G1 X103.821 Y95.737 E27.27091
G1 X103.418 Y96.132 E27.29719
