;FLAVOR:Marlin
;TIME:4716
;Filament used: 3.61265m
;Layer height: 0.2
;MINX:39.94
;MINY:111.289
;MINZ:0.2
;MAXX:132.74
;MAXY:163.724
;MAXZ:7.4
;Generated with Cura_SteamEngine 4.11.0
M140 S60
M105
M190 S60
M104 S200
M105
M109 S200
M82 ;absolute extrusion mode
G21 ;metric values
G90 ;absolute positioning
M82 ;set extruder to absolute mode
M107 ;start with the fan off
G28 X0 Y0 ;move X/Y to min endstops
G28 Z0 ;move Z to min endstops
G1 Z15.0 F100 ;move the platform down 15mm
G92 E0 ;zero the extruded length
G1 F200 E3 ;extrude 3mm of feed stock
G92 E0 ;zero the extruded length again
G1 F100
G0 Y20 F100
M117 Printing...
G5
G92 E0
G92 E0
G1 F2400 E-6
;LAYER_COUNT:37
;LAYER:0
M107
M204 S3000
M205 X10 Y10
G1 F600 Z0.275
G0 F3000 X44.301 Y111.635 Z0.275
M204 S1800
M205 X8 Y8
;TYPE:SKIRT
G1 F600 Z0.2
G1 F2400 E0
G1 X44.99 Y111.444 E0.03329
G1 X45.697 Y111.331 E0.06663
G1 X46.439 Y111.293 E0.10123
G1 X46.62 Y111.29 E0.10966
G1 X47.856 Y111.289 E0.16721
G1 X49.011 Y111.292 E0.22099
G1 X49.852 Y111.29 E0.26015
G1 X50.899 Y111.292 E0.30891
G1 X51.151 Y111.29 E0.32064
G1 X52.899 Y111.292 E0.40203
G1 X53.151 Y111.29 E0.41377
G1 X54.899 Y111.292 E0.49516
G1 X55.151 Y111.29 E0.5069
G1 X56.899 Y111.292 E0.58829
G1 X57.151 Y111.29 E0.60003
G1 X58.899 Y111.292 E0.68142
G1 X59.151 Y111.29 E0.69315
G1 X60.899 Y111.292 E0.77455
G1 X61.151 Y111.29 E0.78628
G1 X62.899 Y111.292 E0.86768
G1 X63.151 Y111.29 E0.87941
G1 X64.899 Y111.292 E0.96081
G1 X65.151 Y111.29 E0.97254
G1 X66.899 Y111.292 E1.05394
G1 X67.151 Y111.29 E1.06567
G1 X68.899 Y111.292 E1.14706
G1 X69.151 Y111.29 E1.1588
G1 X70.899 Y111.292 E1.24019
G1 X71.151 Y111.29 E1.25193
G1 X72.899 Y111.292 E1.33332
G1 X73.151 Y111.29 E1.34506
G1 X74.899 Y111.292 E1.42645
G1 X75.151 Y111.29 E1.43819
G1 X76.899 Y111.292 E1.51958
G1 X77.151 Y111.29 E1.53131
G1 X78.899 Y111.292 E1.61271
G1 X79.151 Y111.29 E1.62444
G1 X80.899 Y111.292 E1.70584
G1 X81.151 Y111.29 E1.71757
G1 X82.899 Y111.292 E1.79897
G1 X83.151 Y111.29 E1.8107
G1 X84.899 Y111.292 E1.89209
G1 X85.151 Y111.29 E1.90383
G1 X86.899 Y111.292 E1.98522
G1 X87.151 Y111.29 E1.99696
G1 X88.899 Y111.292 E2.07835
G1 X89.151 Y111.29 E2.09009
G1 X90.899 Y111.292 E2.17148
G1 X91.151 Y111.29 E2.18322
G1 X92.899 Y111.292 E2.26461
G1 X93.151 Y111.29 E2.27634
G1 X94.899 Y111.292 E2.35774
G1 X95.151 Y111.29 E2.36947
G1 X96.899 Y111.292 E2.45087
G1 X97.151 Y111.29 E2.4626
G1 X98.899 Y111.292 E2.544
G1 X99.151 Y111.29 E2.55573
G1 X100.899 Y111.292 E2.63713
G1 X101.151 Y111.29 E2.64886
G1 X102.899 Y111.292 E2.73025
G1 X103.151 Y111.29 E2.74199
G1 X104.899 Y111.292 E2.82338
G1 X105.151 Y111.29 E2.83512
G1 X106.899 Y111.292 E2.91651
G1 X107.151 Y111.29 E2.92825
G1 X108.899 Y111.292 E3.00964
G1 X109.151 Y111.29 E3.02137
G1 X110.899 Y111.292 E3.10277
G1 X111.151 Y111.29 E3.1145
G1 X112.899 Y111.292 E3.1959
G1 X113.151 Y111.29 E3.20763
G1 X114.899 Y111.292 E3.28903
G1 X115.151 Y111.29 E3.30076
G1 X116.899 Y111.292 E3.38216
G1 X117.151 Y111.29 E3.39389
G1 X118.899 Y111.292 E3.47528
G1 X119.151 Y111.29 E3.48702
G1 X120.899 Y111.292 E3.56841
G1 X121.151 Y111.29 E3.58015
G1 X122.899 Y111.292 E3.66154
G1 X123.151 Y111.29 E3.67328
G1 X124.971 Y111.292 E3.75802
G1 X125.726 Y111.29 E3.79318
G1 X126.422 Y111.3 E3.82559
G1 X127.135 Y111.35 E3.85887
G1 X127.839 Y111.479 E3.8922
G1 X128.523 Y111.687 E3.92549
G1 X129.181 Y111.969 E3.95882
G1 X129.802 Y112.323 E3.99211
G1 X130.38 Y112.744 E4.02541
G1 X130.908 Y113.227 E4.05873
G1 X131.379 Y113.766 E4.09206
G1 X131.786 Y114.353 E4.12532
G1 X132.125 Y114.983 E4.15863
G1 X132.392 Y115.647 E4.19196
G1 X132.583 Y116.336 E4.22525
G1 X132.696 Y117.042 E4.25854
G1 X132.736 Y117.792 E4.29351
G1 X132.739 Y117.99 E4.30273
G1 X132.74 Y145.119 E5.56597
G1 X132.735 Y146.62 E5.63587
G1 X132.74 Y147.255 E5.66544
G1 X132.739 Y156.563 E6.09886
G1 X132.729 Y157.29 E6.13271
G1 X132.68 Y158.004 E6.16604
G1 X132.551 Y158.707 E6.19932
G1 X132.344 Y159.392 E6.23264
G1 X132.062 Y160.049 E6.26593
G1 X131.708 Y160.671 E6.29926
G1 X131.288 Y161.249 E6.33252
G1 X130.855 Y161.727 E6.36256
G1 X130.743 Y161.839 E6.36993
G1 X130.21 Y162.316 E6.40324
G1 X129.627 Y162.73 E6.43653
G1 X129.001 Y163.077 E6.46986
G1 X128.341 Y163.352 E6.50316
G1 X127.654 Y163.551 E6.53646
G1 X126.949 Y163.672 E6.56977
G1 X126.436 Y163.71 E6.59372
G1 X125.738 Y163.724 E6.62623
G1 X47.073 Y163.724 E10.2892
G1 X46.372 Y163.714 E10.32185
G1 X45.658 Y163.664 E10.35517
G1 X44.955 Y163.535 E10.38845
G1 X44.27 Y163.328 E10.42178
G1 X43.613 Y163.045 E10.45509
G1 X42.991 Y162.692 E10.48839
G1 X42.413 Y162.271 E10.52168
G1 X41.958 Y161.861 E10.5502
G1 X41.845 Y161.749 E10.55761
G1 X41.366 Y161.217 E10.59095
G1 X40.949 Y160.636 E10.62425
G1 X40.599 Y160.012 E10.65756
G1 X40.322 Y159.353 E10.69085
G1 X40.12 Y158.667 E10.72415
G1 X39.995 Y157.962 E10.75749
G1 X39.954 Y157.419 E10.78284
G1 X39.94 Y156.675 E10.81749
G1 X39.94 Y147.202 E11.2586
G1 X39.945 Y145.701 E11.32849
G1 X39.94 Y145.066 E11.35806
G1 X39.941 Y118.272 E12.6057
G1 X39.951 Y117.602 E12.6369
G1 X40.001 Y116.889 E12.67018
G1 X40.131 Y116.186 E12.70347
G1 X40.339 Y115.501 E12.73681
G1 X40.622 Y114.844 E12.77012
G1 X40.976 Y114.223 E12.8034
G1 X41.397 Y113.645 E12.8367
G1 X41.88 Y113.117 E12.87002
G1 X42.419 Y112.647 E12.90332
G1 X43.007 Y112.24 E12.93662
G1 X43.637 Y111.901 E12.96993
G1 X44.301 Y111.635 E13.00324
M204 S3000
M205 X10 Y10
G0 F3000 X44.802 Y112.067
M204 S1800
M205 X8 Y8
G1 F2400 X45.47 Y111.925 E13.03504
G1 X46.18 Y111.86 E13.06824
G1 X46.62 Y111.85 E13.08873
G1 X47.855 Y111.849 E13.14624
G1 X49.011 Y111.852 E13.20006
G1 X49.851 Y111.85 E13.23918
G1 X50.902 Y111.852 E13.28812
G1 X51.155 Y111.85 E13.2999
G1 X52.902 Y111.852 E13.38125
G1 X53.155 Y111.85 E13.39303
G1 X54.902 Y111.852 E13.47438
G1 X55.155 Y111.85 E13.48616
G1 X56.902 Y111.852 E13.5675
G1 X57.155 Y111.85 E13.57929
G1 X58.902 Y111.852 E13.66063
G1 X59.155 Y111.85 E13.67241
G1 X60.902 Y111.852 E13.75376
G1 X61.155 Y111.85 E13.76554
G1 X62.902 Y111.852 E13.84689
G1 X63.155 Y111.85 E13.85867
G1 X64.902 Y111.852 E13.94002
G1 X65.155 Y111.85 E13.9518
G1 X66.902 Y111.852 E14.03315
G1 X67.155 Y111.85 E14.04493
G1 X68.902 Y111.852 E14.12628
G1 X69.155 Y111.85 E14.13806
G1 X70.902 Y111.852 E14.21941
G1 X71.155 Y111.85 E14.23119
G1 X72.902 Y111.852 E14.31253
G1 X73.155 Y111.85 E14.32432
G1 X74.902 Y111.852 E14.40566
G1 X75.155 Y111.85 E14.41744
G1 X76.902 Y111.852 E14.49879
G1 X77.155 Y111.85 E14.51057
G1 X78.902 Y111.852 E14.59192
G1 X79.155 Y111.85 E14.6037
G1 X80.902 Y111.852 E14.68505
G1 X81.155 Y111.85 E14.69683
G1 X82.902 Y111.852 E14.77818
G1 X83.155 Y111.85 E14.78996
G1 X84.902 Y111.852 E14.87131
G1 X85.155 Y111.85 E14.88309
G1 X86.902 Y111.852 E14.96444
G1 X87.155 Y111.85 E14.97622
G1 X88.902 Y111.852 E15.05757
G1 X89.155 Y111.85 E15.06935
G1 X90.902 Y111.852 E15.15069
G1 X91.155 Y111.85 E15.16248
G1 X92.902 Y111.852 E15.24382
G1 X93.155 Y111.85 E15.2556
G1 X94.902 Y111.852 E15.33695
G1 X95.155 Y111.85 E15.34873
G1 X96.902 Y111.852 E15.43008
G1 X97.155 Y111.85 E15.44186
G1 X98.902 Y111.852 E15.52321
G1 X99.155 Y111.85 E15.53499
G1 X100.902 Y111.852 E15.61634
G1 X101.155 Y111.85 E15.62812
G1 X102.902 Y111.852 E15.70947
G1 X103.155 Y111.85 E15.72125
G1 X104.902 Y111.852 E15.8026
G1 X105.155 Y111.85 E15.81438
G1 X106.902 Y111.852 E15.89572
G1 X107.155 Y111.85 E15.90751
G1 X108.902 Y111.852 E15.98885
G1 X109.155 Y111.85 E16.00063
G1 X110.902 Y111.852 E16.08198
G1 X111.155 Y111.85 E16.09376
G1 X112.902 Y111.852 E16.17511
G1 X113.155 Y111.85 E16.18689
G1 X114.902 Y111.852 E16.26824
G1 X115.155 Y111.85 E16.28002
G1 X116.902 Y111.852 E16.36137
G1 X117.155 Y111.85 E16.37315
G1 X118.902 Y111.852 E16.4545
G1 X119.155 Y111.85 E16.46628
G1 X120.902 Y111.852 E16.54763
G1 X121.155 Y111.85 E16.55941
G1 X122.902 Y111.852 E16.64075
G1 X123.155 Y111.85 E16.65254
G1 X124.973 Y111.852 E16.73719
G1 X125.718 Y111.85 E16.77188
G1 X126.414 Y111.86 E16.80429
G1 X127.095 Y111.909 E16.83608
G1 X127.766 Y112.038 E16.8679
G1 X128.418 Y112.245 E16.89975
G1 X129.04 Y112.526 E16.93154
G1 X129.626 Y112.878 E16.96337
G1 X130.166 Y113.296 E16.99516
G1 X130.654 Y113.774 E17.02697
G1 X131.083 Y114.306 E17.0588
G1 X131.447 Y114.884 E17.0906
G1 X131.741 Y115.501 E17.12243
G1 X131.96 Y116.148 E17.15423
G1 X132.103 Y116.816 E17.18604
G1 X132.167 Y117.518 E17.21887
G1 X132.179 Y117.99 E17.24085
G1 X132.18 Y145.117 E18.504
G1 X132.175 Y146.618 E18.57389
G1 X132.18 Y147.259 E18.60374
G1 X132.179 Y156.555 E19.0366
G1 X132.169 Y157.282 E19.07046
G1 X132.12 Y157.964 E19.10229
G1 X131.992 Y158.635 E19.1341
G1 X131.785 Y159.286 E19.16591
G1 X131.505 Y159.909 E19.19772
G1 X131.153 Y160.495 E19.22955
G1 X130.736 Y161.036 E19.26135
G1 X130.348 Y161.444 E19.28757
G1 X129.837 Y161.898 E19.3194
G1 X129.277 Y162.289 E19.3512
G1 X128.675 Y162.612 E19.38301
G1 X128.039 Y162.863 E19.41485
G1 X127.379 Y163.037 E19.44663
G1 X126.417 Y163.151 E19.49174
G1 X125.731 Y163.164 E19.52369
G1 X47.081 Y163.164 E23.18596
G1 X46.38 Y163.154 E23.21861
G1 X45.698 Y163.105 E23.25045
G1 X45.027 Y162.976 E23.28226
G1 X44.376 Y162.769 E23.31407
G1 X43.753 Y162.488 E23.3459
G1 X43.168 Y162.136 E23.37769
G1 X42.627 Y161.719 E23.40949
G1 X42.239 Y161.351 E23.4344
G1 X41.783 Y160.842 E23.46622
G1 X41.389 Y160.284 E23.49802
G1 X41.063 Y159.683 E23.52986
G1 X40.809 Y159.049 E23.56166
G1 X40.632 Y158.389 E23.59348
G1 X40.513 Y157.4 E23.63987
G1 X40.5 Y156.669 E23.67391
G1 X40.5 Y147.204 E24.11464
G1 X40.505 Y145.703 E24.18453
G1 X40.5 Y145.062 E24.21438
G1 X40.501 Y118.281 E25.46142
G1 X40.511 Y117.611 E25.49262
G1 X40.561 Y116.929 E25.52446
G1 X40.69 Y116.259 E25.55623
G1 X40.897 Y115.607 E25.58809
G1 X41.178 Y114.985 E25.61987
G1 X41.531 Y114.399 E25.65172
G1 X41.949 Y113.859 E25.68352
G1 X42.427 Y113.371 E25.71533
G1 X42.96 Y112.943 E25.74716
G1 X43.538 Y112.58 E25.77894
G1 X44.155 Y112.286 E25.81076
G1 X44.802 Y112.067 E25.84257
M204 S3000
M205 X10 Y10
G0 F3000 X44.665 Y112.694
M204 S1800
M205 X8 Y8
G1 F2400 X45.292 Y112.525 E25.87281
G1 X46.196 Y112.42 E25.91518
G1 X46.621 Y112.41 E25.93498
G1 X47.854 Y112.409 E25.99239
G1 X49.011 Y112.412 E26.04627
G1 X49.85 Y112.41 E26.08534
G1 X50.905 Y112.412 E26.13446
G1 X51.159 Y112.41 E26.14629
G1 X52.905 Y112.412 E26.22759
G1 X53.159 Y112.41 E26.23942
G1 X54.905 Y112.412 E26.32072
G1 X55.159 Y112.41 E26.33255
G1 X56.905 Y112.412 E26.41385
G1 X57.159 Y112.41 E26.42568
G1 X58.905 Y112.412 E26.50698
G1 X59.159 Y112.41 E26.5188
G1 X60.905 Y112.412 E26.60011
G1 X61.159 Y112.41 E26.61193
G1 X62.905 Y112.412 E26.69323
G1 X63.159 Y112.41 E26.70506
G1 X64.905 Y112.412 E26.78636
G1 X65.159 Y112.41 E26.79819
G1 X66.905 Y112.412 E26.87949
G1 X67.159 Y112.41 E26.89132
G1 X68.905 Y112.412 E26.97262
G1 X69.159 Y112.41 E26.98445
G1 X70.905 Y112.412 E27.06575
G1 X71.159 Y112.41 E27.07758
G1 X72.905 Y112.412 E27.15888
G1 X73.159 Y112.41 E27.17071
G1 X74.905 Y112.412 E27.25201
G1 X75.159 Y112.41 E27.26383
G1 X76.905 Y112.412 E27.34514
G1 X77.159 Y112.41 E27.35696
G1 X78.905 Y112.412 E27.43826
G1 X79.159 Y112.41 E27.45009
G1 X80.905 Y112.412 E27.53139
G1 X81.159 Y112.41 E27.54322
G1 X82.905 Y112.412 E27.62452
G1 X83.159 Y112.41 E27.63635
G1 X84.905 Y112.412 E27.71765
G1 X85.159 Y112.41 E27.72948
G1 X86.905 Y112.412 E27.81078
G1 X87.159 Y112.41 E27.82261
G1 X88.905 Y112.412 E27.90391
G1 X89.159 Y112.41 E27.91574
G1 X90.905 Y112.412 E27.99704
G1 X91.159 Y112.41 E28.00887
G1 X92.905 Y112.412 E28.09017
G1 X93.159 Y112.41 E28.10199
G1 X94.905 Y112.412 E28.18329
G1 X95.159 Y112.41 E28.19512
G1 X96.905 Y112.412 E28.27642
G1 X97.159 Y112.41 E28.28825
G1 X98.905 Y112.412 E28.36955
G1 X99.159 Y112.41 E28.38138
G1 X100.905 Y112.412 E28.46268
G1 X101.159 Y112.41 E28.47451
G1 X102.905 Y112.412 E28.55581
G1 X103.159 Y112.41 E28.56764
G1 X104.905 Y112.412 E28.64894
G1 X105.159 Y112.41 E28.66077
G1 X106.905 Y112.412 E28.74207
G1 X107.159 Y112.41 E28.7539
G1 X108.905 Y112.412 E28.8352
G1 X109.159 Y112.41 E28.84702
G1 X110.905 Y112.412 E28.92833
G1 X111.159 Y112.41 E28.94015
G1 X112.905 Y112.412 E29.02145
G1 X113.159 Y112.41 E29.03328
G1 X114.905 Y112.412 E29.11458
G1 X115.159 Y112.41 E29.12641
G1 X116.905 Y112.412 E29.20771
G1 X117.159 Y112.41 E29.21954
G1 X118.905 Y112.412 E29.30084
G1 X119.159 Y112.41 E29.31267
G1 X120.905 Y112.412 E29.39397
G1 X121.159 Y112.41 E29.4058
G1 X122.905 Y112.412 E29.4871
G1 X123.159 Y112.41 E29.49893
G1 X124.974 Y112.412 E29.58344
G1 X125.71 Y112.41 E29.61771
G1 X126.406 Y112.42 E29.65012
G1 X127.054 Y112.469 E29.68038
G1 X127.69 Y112.597 E29.71059
G1 X128.307 Y112.803 E29.74088
G1 X128.893 Y113.083 E29.77112
G1 X129.44 Y113.432 E29.80134
G1 X129.941 Y113.847 E29.83163
G1 X130.386 Y114.319 E29.86183
G1 X130.771 Y114.843 E29.89211
G1 X131.088 Y115.41 E29.92236
G1 X131.333 Y116.011 E29.95258
G1 X131.502 Y116.639 E29.98286
G1 X131.607 Y117.536 E30.02492
G1 X131.619 Y117.99 E30.04606
G1 X131.62 Y145.116 E31.30916
G1 X131.615 Y146.617 E31.37906
G1 X131.62 Y147.263 E31.40914
G1 X131.62 Y156.548 E31.84149
G1 X131.61 Y157.275 E31.87534
G1 X131.561 Y157.922 E31.90556
G1 X131.433 Y158.559 E31.93581
G1 X131.227 Y159.176 E31.9661
G1 X130.948 Y159.762 E31.99632
G1 X130.599 Y160.31 E32.02657
G1 X130.064 Y160.936 E32.06492
G1 X129.952 Y161.048 E32.07229
G1 X129.465 Y161.478 E32.10254
G1 X128.929 Y161.845 E32.13279
G1 X128.352 Y162.144 E32.16305
G1 X127.743 Y162.369 E32.19328
G1 X127.11 Y162.518 E32.22357
G1 X126.397 Y162.591 E32.25694
G1 X125.724 Y162.604 E32.28828
G1 X47.089 Y162.604 E35.94986
G1 X46.388 Y162.594 E35.9825
G1 X45.74 Y162.545 E36.01276
G1 X45.103 Y162.417 E36.04302
G1 X44.487 Y162.211 E36.07326
G1 X43.901 Y161.932 E36.10348
G1 X43.353 Y161.582 E36.13376
G1 X42.746 Y161.065 E36.17089
G1 X42.633 Y160.953 E36.1783
G1 X42.201 Y160.468 E36.20854
G1 X41.831 Y159.934 E36.23879
G1 X41.53 Y159.358 E36.26905
G1 X41.302 Y158.75 E36.29929
G1 X41.15 Y158.119 E36.32951
G1 X41.073 Y157.381 E36.36406
G1 X41.06 Y156.663 E36.3975
G1 X41.06 Y147.205 E36.8379
G1 X41.065 Y145.704 E36.9078
G1 X41.06 Y145.058 E36.93788
G1 X41.061 Y118.289 E38.18436
G1 X41.071 Y117.619 E38.21556
G1 X41.12 Y116.971 E38.24582
G1 X41.249 Y116.335 E38.27604
G1 X41.455 Y115.719 E38.30628
G1 X41.735 Y115.133 E38.33652
G1 X42.085 Y114.585 E38.3668
G1 X42.5 Y114.085 E38.39706
G1 X42.972 Y113.64 E38.42726
G1 X43.496 Y113.256 E38.45751
G1 X44.063 Y112.939 E38.48776
G1 X44.665 Y112.694 E38.51802
M204 S3000
M205 X10 Y10
G1 F2400 E32.51802
G0 F3000 X45.679 Y145.421
G0 X46.62 Y156.789
M204 S1800
M205 X8 Y8
;TYPE:SUPPORT
G1 F2400 E38.51802
G1 F1500 X47.219 Y156.788 E38.54592
G1 X47.632 Y156.791 E38.56515
G1 X48.813 Y156.789 E38.62014
G1 X101.764 Y156.791 E41.08576
G1 X104.19 Y156.788 E41.19873
G1 X126.06 Y156.789 E42.21708
G1 X126.06 Y157.044 E42.22896
G1 X46.62 Y157.045 E45.92802
G1 X46.62 Y156.789 E45.93994
M204 S3000
M205 X10 Y10
G0 F3000 X46.54 Y156.309
M204 S1800
M205 X8 Y8
;TYPE:SUPPORT-INTERFACE
G1 F1500 X46.54 Y147.31 E46.35897
G1 X48.502 Y147.312 E46.45033
G1 X48.504 Y147.312 E46.45042
G1 X48.848 Y147.309 E46.46644
G1 X63.528 Y147.309 E47.15
G1 X64.251 Y147.313 E47.18367
G1 X64.253 Y147.313 E47.18376
G1 X126.14 Y147.31 E50.06548
G1 X126.14 Y156.309 E50.48451
G1 X104.19 Y156.308 E51.50659
G1 X101.764 Y156.311 E51.61956
G1 X48.813 Y156.309 E54.08518
G1 X47.632 Y156.311 E54.14017
G1 X47.631 Y156.311 E54.14022
G1 X47.222 Y156.308 E54.15926
G1 X46.54 Y156.309 E54.19102
M204 S3000
M205 X10 Y10
G0 F3000 X50.029 Y153.286
M204 S1800
M205 X8 Y8
G1 F1500 X50.192 Y153.411 E54.20059
G1 X50.301 Y153.533 E54.2082
G1 X50.691 Y153.817 E54.23067
G1 X51.127 Y154.013 E54.25293
G1 X51.6 Y154.114 E54.27545
G1 X52.079 Y154.114 E54.29775
G1 X52.552 Y154.013 E54.32027
G1 X52.986 Y153.818 E54.34243
G1 X53.38 Y153.531 E54.36513
G1 X53.471 Y153.429 E54.37149
G1 X53.629 Y153.319 E54.38046
G1 X54.933 Y151.856 E54.47171
G1 X54.933 Y151.306 E54.49732
G1 X53.648 Y149.86 E54.5874
G1 X53.204 Y149.536 E54.61299
G1 X52.679 Y149.293 E54.63993
G1 X52.111 Y149.177 E54.66693
G1 X51.554 Y149.177 E54.69286
G1 X51.007 Y149.295 E54.71892
G1 X50.49 Y149.526 E54.74529
G1 X50.042 Y149.854 E54.77114
G1 X49.617 Y150.321 E54.80054
G1 X48.934 Y151.686 E54.87162
