;FLAVOR:Marlin
;TIME:1378
;Filament used: 1.26272m
;Layer height: 0.2
;MINX:75.804
;MINY:45.801
;MINZ:0.2
;MAXX:134.198
;MAXY:164.199
;MAXZ:1.4
;Generated with Cura_SteamEngine 4.11.0
M140 S60
M105
M190 S60
M104 S200
M105
M109 S200
M82 ;absolute extrusion mode
G21 ;metric values
G90 ;absolute positioning
M82 ;set extruder to absolute mode
M107 ;start with the fan off
G28 X0 Y0 ;move X/Y to min endstops
G28 Z0 ;move Z to min endstops
G1 Z15.0 F100 ;move the platform down 15mm
G92 E0 ;zero the extruded length
G1 F200 E3 ;extrude 3mm of feed stock
G92 E0 ;zero the extruded length again
G1 F100
G0 Y20 F100
M117 Printing...
G5
G92 E0
G92 E0
G1 F2400 E-6
;LAYER_COUNT:8
;LAYER:0
M107
M204 S3000
M205 X10 Y10
G1 F600 Z0.275
G0 F3000 X107.348 Y53.56 Z0.275
M204 S1800
M205 X8 Y8
;TYPE:SKIRT
G1 F600 Z0.2
G1 F2400 E0
G1 X107.469 Y53.326 E0.01227
G1 X107.753 Y52.82 E0.03929
G1 X107.875 Y52.618 E0.05027
G1 X108.206 Y52.099 E0.07894
G1 X108.351 Y51.886 E0.09094
G1 X108.698 Y51.409 E0.1184
G1 X108.854 Y51.208 E0.13025
G1 X109.23 Y50.752 E0.15777
G1 X109.385 Y50.574 E0.16876
G1 X109.798 Y50.127 E0.1971
G1 X109.995 Y49.928 E0.21014
G1 X110.449 Y49.498 E0.23925
G1 X110.621 Y49.343 E0.25004
G1 X111.061 Y48.97 E0.2769
G1 X111.259 Y48.812 E0.28869
G1 X111.729 Y48.46 E0.31603
G1 X111.934 Y48.317 E0.32767
G1 X112.428 Y47.991 E0.35523
G1 X112.645 Y47.857 E0.36711
G1 X113.178 Y47.55 E0.39575
G1 X113.393 Y47.434 E0.40712
G1 X113.922 Y47.169 E0.43467
G1 X114.159 Y47.059 E0.44684
G1 X114.702 Y46.828 E0.47432
G1 X114.928 Y46.74 E0.48561
G1 X115.508 Y46.532 E0.5143
G1 X115.762 Y46.45 E0.52673
G1 X116.327 Y46.287 E0.55411
G1 X116.548 Y46.229 E0.56475
G1 X117.134 Y46.094 E0.59275
G1 X117.398 Y46.042 E0.60528
G1 X117.99 Y45.945 E0.63322
G1 X118.224 Y45.914 E0.64421
G1 X118.806 Y45.852 E0.67146
G1 X119.066 Y45.832 E0.6836
G1 X119.677 Y45.805 E0.71208
G1 X119.925 Y45.801 E0.72363
G1 X120.521 Y45.81 E0.75139
G1 X120.777 Y45.822 E0.76332
G1 X121.368 Y45.867 E0.79092
G1 X121.611 Y45.893 E0.8023
G1 X122.189 Y45.971 E0.82946
G1 X122.445 Y46.014 E0.84154
G1 X123.054 Y46.135 E0.87046
G1 X123.284 Y46.187 E0.88144
G1 X123.862 Y46.336 E0.90923
G1 X124.116 Y46.41 E0.92155
G1 X124.674 Y46.592 E0.94888
G1 X124.915 Y46.679 E0.96081
G1 X125.487 Y46.905 E0.98945
G1 X125.704 Y46.998 E1.00044
G1 X126.239 Y47.245 E1.02788
G1 X126.477 Y47.364 E1.04027
G1 X127.002 Y47.648 E1.06807
G1 X127.207 Y47.766 E1.07908
G1 X127.715 Y48.079 E1.10686
G1 X127.931 Y48.222 E1.11893
G1 X128.415 Y48.563 E1.14649
G1 X128.616 Y48.714 E1.1582
G1 X129.097 Y49.098 E1.18686
G1 X129.284 Y49.256 E1.19826
G1 X129.717 Y49.645 E1.22536
G1 X129.897 Y49.817 E1.23696
G1 X130.316 Y50.241 E1.26471
G1 X130.498 Y50.437 E1.27717
G1 X130.898 Y50.897 E1.30555
G1 X131.062 Y51.094 E1.31749
G1 X131.417 Y51.555 E1.34458
G1 X131.554 Y51.745 E1.35549
G1 X131.891 Y52.237 E1.38326
G1 X132.033 Y52.459 E1.39553
G1 X132.349 Y52.989 E1.42426
G1 X132.471 Y53.207 E1.43589
G1 X132.74 Y53.726 E1.46311
G1 X132.848 Y53.95 E1.47469
G1 X133.097 Y54.509 E1.50319
G1 X133.193 Y54.746 E1.51509
G1 X133.397 Y55.291 E1.54219
G1 X133.479 Y55.529 E1.55391
G1 X133.66 Y56.118 E1.58261
G1 X133.725 Y56.355 E1.59405
G1 X133.867 Y56.936 E1.6219
G1 X133.919 Y57.182 E1.63361
G1 X134.023 Y57.754 E1.66068
G1 X134.062 Y58.014 E1.67292
G1 X134.134 Y58.626 E1.70161
G1 X134.155 Y58.86 E1.71255
G1 X134.19 Y59.43 E1.73915
G1 X134.198 Y59.687 E1.75112
G1 X134.198 Y60.312 E1.78022
G1 X134.19 Y60.565 E1.79201
G1 X134.155 Y61.144 E1.81902
G1 X134.133 Y61.396 E1.8308
G1 X134.059 Y62.007 E1.85945
G1 X134.021 Y62.252 E1.871
G1 X133.917 Y62.825 E1.89812
G1 X133.865 Y63.074 E1.90996
G1 X133.723 Y63.654 E1.93777
G1 X133.658 Y63.888 E1.94907
G1 X133.479 Y64.471 E1.97747
G1 X133.396 Y64.715 E1.98947
G1 X133.189 Y65.266 E2.01688
G1 X133.091 Y65.504 E2.02887
G1 X132.84 Y66.065 E2.05748
G1 X132.736 Y66.28 E2.06861
G1 X132.469 Y66.796 E2.09566
G1 X132.345 Y67.02 E2.10758
G1 X132.032 Y67.544 E2.136
G1 X131.889 Y67.766 E2.1483
G1 X131.548 Y68.263 E2.17636
G1 X131.409 Y68.454 E2.18736
G1 X131.053 Y68.915 E2.21448
G1 X130.896 Y69.106 E2.226
G1 X130.505 Y69.555 E2.25372
G1 X130.331 Y69.741 E2.26558
G1 X129.915 Y70.166 E2.29327
G1 X129.717 Y70.353 E2.30595
G1 X129.283 Y70.744 E2.33316
G1 X129.089 Y70.909 E2.34501
G1 X128.607 Y71.293 E2.37371
G1 X128.412 Y71.439 E2.38505
G1 X127.926 Y71.782 E2.41275
G1 X127.701 Y71.93 E2.42529
G1 X127.196 Y72.24 E2.45288
G1 X126.994 Y72.357 E2.46375
G1 X126.466 Y72.642 E2.49169
G1 X126.229 Y72.76 E2.50402
G1 X125.693 Y73.007 E2.5315
G1 X125.475 Y73.101 E2.54256
G1 X124.904 Y73.326 E2.57113
G1 X124.662 Y73.412 E2.58309
G1 X124.099 Y73.595 E2.61066
G1 X123.846 Y73.669 E2.62293
G1 X123.274 Y73.816 E2.65043
G1 X123.046 Y73.868 E2.66132
G1 X122.446 Y73.987 E2.68981
G1 X122.188 Y74.03 E2.70198
G1 X121.607 Y74.108 E2.72928
G1 X121.364 Y74.133 E2.74066
G1 X120.767 Y74.178 E2.76853
G1 X120.514 Y74.19 E2.78033
G1 X119.917 Y74.199 E2.80813
G1 X119.662 Y74.195 E2.82
G1 X119.051 Y74.167 E2.84849
G1 X118.797 Y74.147 E2.86035
G1 X118.216 Y74.085 E2.88756
G1 X117.978 Y74.053 E2.89874
G1 X117.384 Y73.955 E2.92677
G1 X117.127 Y73.904 E2.93897
G1 X116.544 Y73.77 E2.96683
G1 X116.315 Y73.711 E2.97784
G1 X115.746 Y73.546 E3.00542
G1 X115.5 Y73.466 E3.01747
G1 X114.922 Y73.259 E3.04606
G1 X114.684 Y73.166 E3.05796
G1 X114.14 Y72.933 E3.08551
G1 X113.913 Y72.827 E3.09718
G1 X113.386 Y72.563 E3.12462
G1 X113.166 Y72.445 E3.13625
G1 X112.631 Y72.136 E3.16502
G1 X112.415 Y72.002 E3.17685
G1 X111.925 Y71.678 E3.20421
G1 X111.72 Y71.533 E3.2159
G1 X111.242 Y71.174 E3.24374
G1 X111.034 Y71.008 E3.25613
G1 X110.543 Y70.588 E3.28621
G1 X110.366 Y70.427 E3.29736
G1 X109.975 Y70.052 E3.32258
G1 X109.798 Y69.873 E3.3343
G1 X109.38 Y69.421 E3.36297
G1 X109.22 Y69.237 E3.37432
G1 X108.845 Y68.781 E3.40182
G1 X108.692 Y68.583 E3.41347
G1 X108.343 Y68.103 E3.4411
G1 X108.196 Y67.887 E3.45327
G1 X107.869 Y67.373 E3.48163
G1 X107.75 Y67.174 E3.49243
G1 X107.46 Y66.657 E3.52003
G1 X107.333 Y66.412 E3.53288
G1 X107.077 Y65.876 E3.56054
G1 X106.985 Y65.669 E3.57109
G1 X106.755 Y65.112 E3.59915
G1 X106.658 Y64.854 E3.61199
G1 X106.469 Y64.295 E3.63946
G1 X106.4 Y64.071 E3.65038
G1 X106.236 Y63.479 E3.67898
G1 X106.174 Y63.224 E3.6912
G1 X106.053 Y62.65 E3.71852
G1 X106.01 Y62.411 E3.72982
G1 X105.919 Y61.808 E3.75822
G1 X105.889 Y61.554 E3.77013
G1 X105.836 Y60.959 E3.79794
G1 X105.821 Y60.709 E3.80961
G1 X105.804 Y60.128 E3.83667
G1 X105.804 Y59.879 E3.84827
G1 X105.822 Y59.28 E3.87617
G1 X105.837 Y59.033 E3.88769
G1 X105.89 Y58.439 E3.91546
G1 X105.92 Y58.185 E3.92737
G1 X106.012 Y57.576 E3.95605
G1 X106.057 Y57.329 E3.96774
G1 X106.178 Y56.76 E3.99483
G1 X106.237 Y56.518 E4.00643
G1 X106.398 Y55.934 E4.03464
G1 X106.472 Y55.7 E4.04606
G1 X106.66 Y55.142 E4.07348
G1 X106.759 Y54.878 E4.08661
G1 X106.991 Y54.317 E4.11488
G1 X107.088 Y54.1 E4.12595
G1 X107.348 Y53.56 E4.15385
M204 S3000
M205 X10 Y10
G0 F3000 X107.852 Y53.803
M204 S1800
M205 X8 Y8
G1 F2400 X107.958 Y53.6 E4.16452
G1 X108.242 Y53.094 E4.19154
G1 X108.347 Y52.919 E4.20104
G1 X108.678 Y52.4 E4.2297
G1 X108.803 Y52.216 E4.24006
G1 X109.15 Y51.739 E4.26753
G1 X109.286 Y51.564 E4.27785
G1 X109.662 Y51.108 E4.30537
G1 X109.796 Y50.954 E4.31487
G1 X110.209 Y50.507 E4.34321
G1 X110.38 Y50.334 E4.35454
G1 X110.834 Y49.904 E4.38366
G1 X110.983 Y49.77 E4.39299
G1 X111.423 Y49.397 E4.41985
G1 X111.595 Y49.261 E4.43006
G1 X112.065 Y48.909 E4.4574
G1 X112.242 Y48.784 E4.46749
G1 X112.736 Y48.458 E4.49505
G1 X112.924 Y48.342 E4.50534
G1 X113.457 Y48.035 E4.53398
G1 X113.644 Y47.935 E4.54385
G1 X114.173 Y47.67 E4.5714
G1 X114.378 Y47.574 E4.58194
G1 X114.921 Y47.343 E4.60942
G1 X115.117 Y47.267 E4.61921
G1 X115.697 Y47.059 E4.6479
G1 X115.917 Y46.988 E4.65866
G1 X116.482 Y46.825 E4.68605
G1 X116.674 Y46.775 E4.69528
G1 X117.26 Y46.64 E4.72329
G1 X117.488 Y46.595 E4.73411
G1 X118.08 Y46.498 E4.76204
G1 X118.283 Y46.47 E4.77158
G1 X118.865 Y46.408 E4.79884
G1 X119.09 Y46.392 E4.80934
G1 X119.701 Y46.365 E4.83782
G1 X119.917 Y46.361 E4.84788
G1 X120.513 Y46.37 E4.87563
G1 X120.734 Y46.381 E4.88594
G1 X121.325 Y46.426 E4.91354
G1 X121.536 Y46.448 E4.92341
G1 X122.114 Y46.526 E4.95057
G1 X122.336 Y46.563 E4.96105
G1 X122.945 Y46.684 E4.98996
G1 X123.145 Y46.729 E4.99951
G1 X123.723 Y46.878 E5.0273
G1 X123.943 Y46.942 E5.03797
G1 X124.501 Y47.124 E5.0653
G1 X124.71 Y47.2 E5.07566
G1 X125.282 Y47.426 E5.1043
G1 X125.47 Y47.506 E5.11381
G1 X126.005 Y47.753 E5.14125
G1 X126.211 Y47.856 E5.15197
G1 X126.736 Y48.14 E5.17977
G1 X126.913 Y48.243 E5.1893
G1 X127.421 Y48.556 E5.21709
G1 X127.608 Y48.679 E5.22751
G1 X128.092 Y49.02 E5.25508
G1 X128.267 Y49.151 E5.26526
G1 X128.748 Y49.535 E5.29392
G1 X128.91 Y49.672 E5.30379
G1 X129.343 Y50.061 E5.3309
G1 X129.499 Y50.21 E5.34094
G1 X129.918 Y50.634 E5.3687
G1 X130.076 Y50.805 E5.37954
G1 X130.476 Y51.265 E5.40793
G1 X130.618 Y51.436 E5.41828
G1 X130.973 Y51.897 E5.44537
G1 X131.092 Y52.061 E5.4548
G1 X131.429 Y52.553 E5.48257
G1 X131.552 Y52.746 E5.49323
G1 X131.868 Y53.276 E5.52196
G1 X131.974 Y53.465 E5.53205
G1 X132.243 Y53.984 E5.55927
G1 X132.336 Y54.178 E5.56929
G1 X132.585 Y54.737 E5.59779
G1 X132.669 Y54.942 E5.6081
G1 X132.873 Y55.487 E5.6352
G1 X132.943 Y55.694 E5.64537
G1 X133.124 Y56.283 E5.67407
G1 X133.181 Y56.488 E5.68397
G1 X133.323 Y57.069 E5.71182
G1 X133.368 Y57.282 E5.72196
G1 X133.472 Y57.854 E5.74903
G1 X133.506 Y58.08 E5.75967
G1 X133.578 Y58.692 E5.78837
G1 X133.596 Y58.894 E5.79781
G1 X133.631 Y59.464 E5.8244
G1 X133.638 Y59.687 E5.83479
G1 X133.638 Y60.312 E5.86389
G1 X133.631 Y60.532 E5.87414
G1 X133.596 Y61.111 E5.90115
G1 X133.577 Y61.329 E5.91134
G1 X133.503 Y61.94 E5.94
G1 X133.47 Y62.152 E5.94999
G1 X133.366 Y62.725 E5.97711
G1 X133.321 Y62.941 E5.98738
G1 X133.179 Y63.521 E6.01519
G1 X133.123 Y63.723 E6.02495
G1 X132.944 Y64.306 E6.05335
G1 X132.871 Y64.518 E6.06379
G1 X132.664 Y65.069 E6.09119
G1 X132.58 Y65.276 E6.1016
G1 X132.329 Y65.837 E6.13021
G1 X132.239 Y66.023 E6.13984
G1 X131.972 Y66.539 E6.16689
G1 X131.864 Y66.733 E6.17723
G1 X131.551 Y67.257 E6.20565
G1 X131.427 Y67.449 E6.21629
G1 X131.086 Y67.946 E6.24436
G1 X130.966 Y68.112 E6.2539
G1 X130.61 Y68.573 E6.28102
G1 X130.474 Y68.738 E6.29097
G1 X130.083 Y69.187 E6.3187
G1 X129.931 Y69.349 E6.32904
G1 X129.515 Y69.774 E6.35673
G1 X129.342 Y69.937 E6.3678
G1 X128.908 Y70.328 E6.395
G1 X128.74 Y70.471 E6.40528
G1 X128.258 Y70.855 E6.43397
G1 X128.089 Y70.982 E6.44381
G1 X127.603 Y71.325 E6.47151
G1 X127.408 Y71.453 E6.48237
G1 X126.903 Y71.763 E6.50997
G1 X126.728 Y71.864 E6.51938
G1 X126.2 Y72.149 E6.54731
G1 X125.994 Y72.252 E6.55804
G1 X125.458 Y72.499 E6.58552
G1 X125.269 Y72.58 E6.59509
G1 X124.698 Y72.805 E6.62367
G1 X124.489 Y72.88 E6.63401
G1 X123.926 Y73.063 E6.66158
G1 X123.707 Y73.126 E6.67219
G1 X123.135 Y73.273 E6.69969
G1 X122.937 Y73.318 E6.70914
G1 X122.337 Y73.437 E6.73763
G1 X122.113 Y73.475 E6.74821
G1 X121.532 Y73.553 E6.7755
G1 X121.322 Y73.575 E6.78533
G1 X120.725 Y73.62 E6.81321
G1 X120.506 Y73.63 E6.82342
G1 X119.909 Y73.639 E6.85122
G1 X119.687 Y73.635 E6.86156
G1 X119.076 Y73.607 E6.89004
G1 X118.857 Y73.59 E6.90027
G1 X118.276 Y73.528 E6.92748
G1 X118.069 Y73.5 E6.9372
G1 X117.475 Y73.402 E6.96524
G1 X117.253 Y73.359 E6.97577
G1 X116.67 Y73.225 E7.00362
G1 X116.471 Y73.173 E7.0132
G1 X115.902 Y73.008 E7.04079
G1 X115.689 Y72.939 E7.05121
G1 X115.111 Y72.732 E7.0798
G1 X114.905 Y72.651 E7.09011
G1 X114.361 Y72.418 E7.11766
G1 X114.164 Y72.326 E7.12779
G1 X113.637 Y72.062 E7.15523
G1 X113.446 Y71.96 E7.16532
G1 X112.911 Y71.651 E7.19408
G1 X112.724 Y71.535 E7.20433
G1 X112.234 Y71.211 E7.23168
G1 X112.056 Y71.086 E7.24181
G1 X111.578 Y70.727 E7.26965
G1 X111.398 Y70.582 E7.28041
G1 X110.907 Y70.162 E7.3105
G1 X110.753 Y70.023 E7.32016
G1 X110.362 Y69.648 E7.34538
G1 X110.21 Y69.492 E7.35553
G1 X109.792 Y69.04 E7.38419
G1 X109.653 Y68.881 E7.39403
G1 X109.278 Y68.425 E7.42152
G1 X109.145 Y68.254 E7.43161
G1 X108.796 Y67.774 E7.45924
G1 X108.669 Y67.587 E7.46977
G1 X108.342 Y67.073 E7.49813
G1 X108.238 Y66.9 E7.50753
G1 X107.948 Y66.383 E7.53513
G1 X107.838 Y66.171 E7.54626
G1 X107.582 Y65.635 E7.57391
G1 X107.503 Y65.455 E7.58307
G1 X107.273 Y64.898 E7.61113
G1 X107.189 Y64.675 E7.62222
G1 X107 Y64.116 E7.6497
G1 X106.94 Y63.922 E7.65916
G1 X106.776 Y63.33 E7.68776
G1 X106.722 Y63.109 E7.69835
G1 X106.601 Y62.535 E7.72567
G1 X106.564 Y62.327 E7.73551
G1 X106.473 Y61.724 E7.7639
G1 X106.446 Y61.504 E7.77422
G1 X106.393 Y60.909 E7.80204
G1 X106.381 Y60.692 E7.81216
G1 X106.364 Y60.111 E7.83922
G1 X106.364 Y59.896 E7.84924
G1 X106.382 Y59.297 E7.87714
G1 X106.394 Y59.083 E7.88712
G1 X106.447 Y58.489 E7.91489
G1 X106.474 Y58.268 E7.92526
G1 X106.566 Y57.659 E7.95394
G1 X106.605 Y57.446 E7.96402
G1 X106.726 Y56.877 E7.99111
G1 X106.777 Y56.667 E8.00117
G1 X106.938 Y56.083 E8.02938
G1 X107.003 Y55.879 E8.03935
G1 X107.191 Y55.321 E8.06677
G1 X107.276 Y55.092 E8.07814
G1 X107.508 Y54.531 E8.10641
G1 X107.592 Y54.343 E8.116
G1 X107.852 Y53.803 E8.1439
M204 S3000
M205 X10 Y10
G0 F3000 X108.357 Y54.046
M204 S1800
M205 X8 Y8
G1 F2400 X108.446 Y53.875 E8.15288
G1 X108.73 Y53.369 E8.1799
G1 X108.819 Y53.22 E8.18798
G1 X109.15 Y52.701 E8.21664
G1 X109.256 Y52.545 E8.22543
G1 X109.603 Y52.068 E8.25289
G1 X109.718 Y51.921 E8.26158
G1 X110.094 Y51.465 E8.2891
G1 X110.208 Y51.334 E8.29719
G1 X110.621 Y50.887 E8.32553
G1 X110.765 Y50.741 E8.33508
G1 X111.219 Y50.311 E8.36419
G1 X111.345 Y50.198 E8.37207
G1 X111.785 Y49.825 E8.39893
G1 X111.931 Y49.709 E8.40762
G1 X112.401 Y49.357 E8.43496
G1 X112.551 Y49.251 E8.44351
G1 X113.045 Y48.925 E8.47107
G1 X113.204 Y48.827 E8.47977
G1 X113.737 Y48.52 E8.50841
G1 X113.895 Y48.435 E8.51676
G1 X114.424 Y48.17 E8.54431
G1 X114.597 Y48.09 E8.55319
G1 X115.14 Y47.859 E8.58067
G1 X115.306 Y47.794 E8.58897
G1 X115.886 Y47.586 E8.61766
G1 X116.072 Y47.526 E8.62676
G1 X116.637 Y47.363 E8.65414
G1 X116.8 Y47.321 E8.66198
G1 X117.386 Y47.186 E8.68998
G1 X117.579 Y47.148 E8.69914
G1 X118.171 Y47.051 E8.72707
G1 X118.343 Y47.027 E8.73516
G1 X118.925 Y46.965 E8.76241
G1 X119.115 Y46.951 E8.77129
G1 X119.726 Y46.924 E8.79976
G1 X119.909 Y46.921 E8.80829
G1 X120.505 Y46.93 E8.83604
G1 X120.692 Y46.939 E8.84476
G1 X121.283 Y46.984 E8.87236
G1 X121.461 Y47.003 E8.88069
G1 X122.039 Y47.081 E8.90785
G1 X122.227 Y47.112 E8.91672
G1 X122.836 Y47.233 E8.94564
G1 X123.005 Y47.272 E8.95371
G1 X123.583 Y47.421 E8.98151
G1 X123.769 Y47.475 E8.99053
G1 X124.327 Y47.657 E9.01786
G1 X124.504 Y47.72 E9.0266
G1 X125.076 Y47.946 E9.05524
G1 X125.235 Y48.015 E9.06331
G1 X125.77 Y48.262 E9.09075
G1 X125.944 Y48.349 E9.09981
G1 X126.469 Y48.633 E9.1276
G1 X126.62 Y48.72 E9.13572
G1 X127.128 Y49.033 E9.1635
G1 X127.286 Y49.137 E9.17231
G1 X127.77 Y49.478 E9.19988
G1 X127.918 Y49.589 E9.20849
G1 X128.399 Y49.973 E9.23715
G1 X128.535 Y50.089 E9.24548
G1 X128.968 Y50.478 E9.27258
G1 X129.101 Y50.604 E9.28111
G1 X129.52 Y51.028 E9.30887
G1 X129.653 Y51.172 E9.318
G1 X130.053 Y51.632 E9.34638
G1 X130.174 Y51.778 E9.35521
G1 X130.529 Y52.239 E9.3823
G1 X130.63 Y52.377 E9.39027
G1 X130.967 Y52.869 E9.41804
G1 X131.071 Y53.033 E9.42708
G1 X131.387 Y53.563 E9.45581
G1 X131.477 Y53.723 E9.46436
G1 X131.746 Y54.242 E9.49158
G1 X131.825 Y54.406 E9.50005
G1 X132.074 Y54.965 E9.52855
G1 X132.145 Y55.138 E9.53726
G1 X132.349 Y55.683 E9.56435
G1 X132.408 Y55.858 E9.57295
G1 X132.589 Y56.447 E9.60165
G1 X132.637 Y56.621 E9.61005
G1 X132.779 Y57.202 E9.6379
G1 X132.817 Y57.382 E9.64647
G1 X132.921 Y57.954 E9.67354
G1 X132.95 Y58.145 E9.68253
G1 X133.022 Y58.757 E9.71123
G1 X133.037 Y58.928 E9.71922
G1 X133.072 Y59.498 E9.74581
G1 X133.078 Y59.687 E9.75462
G1 X133.078 Y60.312 E9.78372
G1 X133.072 Y60.498 E9.79239
G1 X133.037 Y61.077 E9.8194
G1 X133.021 Y61.261 E9.828
G1 X132.947 Y61.872 E9.85665
G1 X132.919 Y62.052 E9.86514
G1 X132.815 Y62.625 E9.89225
G1 X132.777 Y62.807 E9.90091
G1 X132.635 Y63.387 E9.92872
G1 X132.587 Y63.559 E9.93703
G1 X132.408 Y64.142 E9.96543
G1 X132.347 Y64.321 E9.97423
G1 X132.14 Y64.872 E10.00164
G1 X132.068 Y65.047 E10.01045
G1 X131.817 Y65.608 E10.03907
