;FLAVOR:Marlin
;TIME:2237
;Filament used: 1.39155m
;Layer height: 0.2
;MINX:64.745
;MINY:16.841
;MINZ:0.2
;MAXX:150.045
;MAXY:170.367
;MAXZ:6.4
;Generated with Cura_SteamEngine 4.11.0
M140 S60
M105
M190 S60
M104 S200
M105
M109 S200
M82 ;absolute extrusion mode
G21 ;metric values
G90 ;absolute positioning
M82 ;set extruder to absolute mode
M107 ;start with the fan off
G28 X0 Y0 ;move X/Y to min endstops
G28 Z0 ;move Z to min endstops
G1 Z15.0 F100 ;move the platform down 15mm
G92 E0 ;zero the extruded length
G1 F200 E3 ;extrude 3mm of feed stock
G92 E0 ;zero the extruded length again
G1 F100
G0 Y20 F100
M117 Printing...
G5
G92 E0
G92 E0
G1 F2400 E-6
;LAYER_COUNT:34
;LAYER:0
M107
M204 S3000
M205 X10 Y10
G1 F600 Z0.275
G0 F3000 X68.369 Y158.35 Z0.275
M204 S1800
M205 X8 Y8
;TYPE:SKIRT
G1 F600 Z0.2
G1 F2400 E0
G1 X68.919 Y158.167 E0.02699
G1 X69.489 Y158.062 E0.05398
G1 X70.067 Y158.035 E0.08092
G1 X70.644 Y158.089 E0.10791
G1 X71.272 Y158.241 E0.13799
G1 X72.409 Y158.612 E0.19368
G1 X72.946 Y158.829 E0.22065
G1 X73.448 Y159.119 E0.24765
G1 X73.564 Y159.209 E0.25449
G1 X73.669 Y159.215 E0.25938
G1 X73.947 Y159.133 E0.27288
G1 X74.52 Y159.048 E0.29985
G1 X75.099 Y159.042 E0.32681
G1 X75.313 Y159.076 E0.3369
G1 X75.577 Y158.994 E0.34978
G1 X76.148 Y158.9 E0.37672
G1 X76.728 Y158.885 E0.40374
G1 X76.953 Y158.91 E0.41428
G1 X77.125 Y158.848 E0.42279
G1 X77.692 Y158.727 E0.44979
G1 X78.27 Y158.685 E0.47678
G1 X78.848 Y158.723 E0.50375
G1 X79.37 Y158.827 E0.52853
G1 X79.433 Y158.811 E0.53156
G1 X80.003 Y158.707 E0.55854
G1 X80.493 Y158.688 E0.58137
G1 X80.628 Y158.648 E0.58793
G1 X81.201 Y158.564 E0.61489
G1 X81.526 Y158.551 E0.63004
G1 X82.24 Y158.551 E0.66329
G1 X82.818 Y158.591 E0.69027
G1 X83.325 Y158.697 E0.71438
G1 X83.403 Y158.681 E0.71809
G1 X83.981 Y158.642 E0.74507
G1 X84.559 Y158.683 E0.77205
G1 X84.767 Y158.662 E0.78178
G1 X85.336 Y158.623 E0.80834
G1 X86.05 Y158.623 E0.84159
G1 X86.222 Y158.613 E0.84961
G1 X86.795 Y158.529 E0.87658
G1 X87.12 Y158.516 E0.89172
G1 X87.834 Y158.516 E0.92497
G1 X88.412 Y158.556 E0.95195
G1 X88.719 Y158.599 E0.96638
G1 X89.299 Y158.594 E0.99339
G1 X89.415 Y158.613 E0.99886
G1 X89.589 Y158.548 E1.00751
G1 X90.154 Y158.422 E1.03447
G1 X90.785 Y158.374 E1.06393
G1 X91.499 Y158.374 E1.09718
G1 X92.077 Y158.414 E1.12416
G1 X92.588 Y158.521 E1.14847
G1 X93.189 Y158.556 E1.1765
G1 X93.293 Y158.519 E1.18164
G1 X93.86 Y158.4 E1.20862
G1 X94.438 Y158.36 E1.2356
G1 X95.151 Y158.36 E1.2688
G1 X95.729 Y158.4 E1.29578
G1 X96.151 Y158.489 E1.31586
G1 X96.84 Y158.529 E1.348
G1 X96.971 Y158.485 E1.35443
G1 X97.54 Y158.378 E1.38139
G1 X98.123 Y158.35 E1.40857
G1 X98.135 Y157.963 E1.4266
G1 X98.232 Y157.392 E1.45357
G1 X98.32 Y157.08 E1.46866
G1 X98.571 Y156.309 E1.50642
G1 X98.788 Y155.772 E1.53339
G1 X99.077 Y155.269 E1.5604
G1 X99.432 Y154.812 E1.58734
G1 X99.847 Y154.407 E1.61435
G1 X100.094 Y154.213 E1.62897
G1 X100.751 Y153.735 E1.6668
G1 X101.242 Y153.427 E1.69379
G1 X101.77 Y153.19 E1.72074
G1 X102.327 Y153.028 E1.74775
G1 X102.9 Y152.943 E1.77473
G1 X103.222 Y152.931 E1.78973
G1 X104.032 Y152.931 E1.82745
G1 X104.61 Y152.971 E1.85442
G1 X105.177 Y153.09 E1.8814
G1 X105.722 Y153.286 E1.90837
G1 X106.235 Y153.555 E1.93534
G1 X106.503 Y153.735 E1.95038
G1 X107.16 Y154.213 E1.98821
G1 X107.604 Y154.585 E2.01518
G1 X107.992 Y155.015 E2.04215
G1 X108.318 Y155.494 E2.06913
G1 X108.574 Y156.014 E2.09612
G1 X108.683 Y156.309 E2.11076
G1 X108.934 Y157.08 E2.14852
G1 X109.075 Y157.642 E2.1755
G1 X109.083 Y157.719 E2.1791
G1 X109.238 Y157.775 E2.18678
G1 X109.751 Y158.044 E2.21375
G1 X109.863 Y158.119 E2.22002
G1 X110.325 Y158.119 E2.24154
G1 X110.903 Y158.159 E2.26852
G1 X111.47 Y158.278 E2.29549
G1 X112.015 Y158.474 E2.32246
G1 X112.204 Y158.573 E2.3324
G1 X112.851 Y158.513 E2.36265
G1 X113.565 Y158.513 E2.3959
G1 X114.143 Y158.553 E2.42288
G1 X114.71 Y158.672 E2.44986
G1 X115.255 Y158.868 E2.47682
G1 X115.5 Y158.996 E2.4897
G1 X115.661 Y158.949 E2.49751
G1 X116.234 Y158.865 E2.52447
G1 X116.559 Y158.852 E2.53962
G1 X117.273 Y158.852 E2.57286
G1 X117.851 Y158.892 E2.59984
G1 X118.418 Y159.011 E2.62682
G1 X118.908 Y159.187 E2.65106
G1 X118.939 Y159.173 E2.65265
G1 X119.495 Y159.01 E2.67963
G1 X120.068 Y158.926 E2.70659
G1 X120.393 Y158.913 E2.72174
G1 X121.107 Y158.913 E2.75499
G1 X121.685 Y158.953 E2.78196
G1 X122.252 Y159.072 E2.80894
G1 X122.797 Y159.268 E2.83591
G1 X123.104 Y159.429 E2.85205
G1 X123.424 Y159.335 E2.86758
G1 X123.997 Y159.251 E2.89455
G1 X124.322 Y159.238 E2.90969
G1 X125.036 Y159.238 E2.94294
G1 X125.614 Y159.278 E2.96992
G1 X126.181 Y159.397 E2.9969
G1 X126.556 Y159.532 E3.01545
G1 X126.747 Y159.446 E3.02521
G1 X127.303 Y159.283 E3.05219
G1 X127.876 Y159.199 E3.07915
G1 X128.201 Y159.186 E3.0943
G1 X128.915 Y159.186 E3.12755
G1 X129.493 Y159.226 E3.15452
G1 X130.06 Y159.345 E3.1815
G1 X130.605 Y159.541 E3.20847
G1 X131.01 Y159.438 E3.22793
G1 X131.583 Y159.353 E3.2549
G1 X132.162 Y159.349 E3.28186
G1 X132.779 Y159.43 E3.31084
G1 X132.975 Y159.388 E3.32017
G1 X133.548 Y159.306 E3.34713
G1 X134.132 Y159.303 E3.37432
G1 X134.667 Y159.338 E3.39929
G1 X135.096 Y159.281 E3.41944
G1 X135.675 Y159.245 E3.44645
G1 X136.382 Y159.31 E3.47951
G1 X137.564 Y159.52 E3.53541
G1 X138.234 Y159.647 E3.56716
G1 X138.583 Y159.582 E3.58369
G1 X139.159 Y159.515 E3.6107
G1 X139.738 Y159.527 E3.63766
G1 X140.31 Y159.62 E3.66465
G1 X140.863 Y159.79 E3.69159
G1 X141.388 Y160.035 E3.71856
G1 X141.826 Y160.314 E3.74275
G1 X142.421 Y160.747 E3.77701
G1 X142.865 Y161.119 E3.80398
G1 X143.253 Y161.549 E3.83095
G1 X143.579 Y162.029 E3.85797
G1 X143.835 Y162.548 E3.88492
G1 X143.945 Y162.846 E3.89971
G1 X144.172 Y163.545 E3.93393
G1 X144.312 Y164.107 E3.9609
G1 X144.374 Y164.683 E3.98787
G1 X144.356 Y165.262 E4.01485
G1 X144.258 Y165.833 E4.04182
G1 X144.083 Y166.385 E4.06879
G1 X143.907 Y166.772 E4.08859
G1 X143.464 Y167.628 E4.13347
G1 X143.163 Y168.123 E4.16044
G1 X142.797 Y168.572 E4.18742
G1 X142.31 Y169.015 E4.21807
G1 X141.719 Y169.474 E4.25291
G1 X141.238 Y169.797 E4.27989
G1 X140.717 Y170.051 E4.30688
G1 X140.167 Y170.23 E4.33382
G1 X139.596 Y170.332 E4.36082
G1 X139.17 Y170.357 E4.3807
G1 X137.602 Y170.367 E4.45371
G1 X137.024 Y170.331 E4.48068
G1 X136.701 Y170.275 E4.49594
G1 X135.61 Y170.043 E4.54788
G1 X135.486 Y170.015 E4.5538
G1 X134.66 Y169.813 E4.59339
G1 X134.145 Y169.856 E4.61746
G1 X133.289 Y169.86 E4.65732
G1 X132.176 Y169.931 E4.70925
G1 X131.597 Y169.929 E4.73621
G1 X131.023 Y169.846 E4.76321
G1 X130.467 Y169.685 E4.79017
G1 X130.212 Y169.572 E4.80315
G1 X129.813 Y169.689 E4.82252
G1 X129.24 Y169.773 E4.84948
G1 X128.915 Y169.786 E4.86463
G1 X128.201 Y169.786 E4.89787
G1 X127.623 Y169.746 E4.92485
G1 X127.056 Y169.627 E4.95183
G1 X126.681 Y169.492 E4.97039
G1 X126.49 Y169.578 E4.98014
G1 X125.934 Y169.741 E5.00712
G1 X125.361 Y169.825 E5.03409
G1 X125.036 Y169.838 E5.04923
G1 X124.322 Y169.838 E5.08248
G1 X123.744 Y169.798 E5.10946
G1 X123.177 Y169.679 E5.13644
G1 X122.632 Y169.483 E5.1634
G1 X122.325 Y169.322 E5.17955
G1 X122.005 Y169.416 E5.19508
G1 X121.432 Y169.5 E5.22204
G1 X121.107 Y169.513 E5.23719
G1 X120.393 Y169.513 E5.27044
G1 X119.815 Y169.473 E5.29741
G1 X119.248 Y169.354 E5.32439
G1 X118.758 Y169.178 E5.34863
G1 X118.727 Y169.192 E5.35022
G1 X118.171 Y169.355 E5.3772
G1 X117.598 Y169.439 E5.40416
G1 X117.273 Y169.452 E5.41931
G1 X116.559 Y169.452 E5.45256
G1 X115.981 Y169.412 E5.47953
G1 X115.414 Y169.293 E5.50651
G1 X114.869 Y169.097 E5.53348
G1 X114.624 Y168.969 E5.54635
G1 X114.463 Y169.016 E5.55416
G1 X113.89 Y169.1 E5.58113
G1 X113.565 Y169.113 E5.59627
G1 X112.851 Y169.113 E5.62952
G1 X112.273 Y169.073 E5.6565
G1 X111.706 Y168.954 E5.68348
G1 X111.161 Y168.758 E5.71044
G1 X110.972 Y168.659 E5.72038
G1 X110.325 Y168.719 E5.75064
G1 X109.611 Y168.719 E5.78388
G1 X109.033 Y168.679 E5.81086
G1 X108.466 Y168.56 E5.83784
G1 X107.921 Y168.364 E5.86481
G1 X107.408 Y168.095 E5.89178
G1 X107.296 Y168.02 E5.89806
G1 X106.834 Y168.02 E5.91957
G1 X106.256 Y167.98 E5.94655
G1 X105.689 Y167.861 E5.97352
G1 X105.334 Y167.733 E5.9911
G1 X105.287 Y167.753 E5.99347
G1 X104.131 Y168.13 E6.05009
G1 X103.973 Y168.201 E6.05816
G1 X103.444 Y168.438 E6.08515
G1 X102.888 Y168.601 E6.11213
G1 X102.315 Y168.685 E6.1391
G1 X102.071 Y168.687 E6.15046
G1 X101.802 Y168.807 E6.16417
G1 X101.245 Y168.969 E6.19118
G1 X100.672 Y169.052 E6.21814
G1 X100.356 Y169.064 E6.23287
G1 X99.642 Y169.064 E6.26612
G1 X99.064 Y169.024 E6.29309
G1 X98.541 Y168.914 E6.31798
G1 X97.988 Y168.945 E6.34377
G1 X97.864 Y168.981 E6.34978
G1 X97.291 Y169.065 E6.37675
G1 X96.966 Y169.078 E6.3919
G1 X96.253 Y169.078 E6.4251
G1 X95.675 Y169.038 E6.45207
G1 X95.253 Y168.949 E6.47216
G1 X94.608 Y168.915 E6.50223
G1 X94.505 Y168.952 E6.50733
G1 X93.938 Y169.071 E6.53431
G1 X93.36 Y169.111 E6.56128
G1 X92.646 Y169.111 E6.59453
G1 X92.068 Y169.071 E6.62151
G1 X91.557 Y168.964 E6.64582
G1 X91.127 Y168.947 E6.66586
G1 X90.954 Y169.012 E6.67446
G1 X90.389 Y169.138 E6.70142
G1 X89.758 Y169.186 E6.73088
G1 X89.044 Y169.186 E6.76413
G1 X88.466 Y169.146 E6.79111
G1 X88.159 Y169.103 E6.80555
G1 X87.834 Y169.116 E6.82069
G1 X87.12 Y169.116 E6.85394
G1 X86.948 Y169.126 E6.86196
G1 X86.375 Y169.21 E6.88893
G1 X86.05 Y169.223 E6.90407
G1 X85.336 Y169.223 E6.93732
G1 X84.758 Y169.183 E6.9643
G1 X84.547 Y169.204 E6.97417
G1 X83.978 Y169.243 E7.00073
G1 X83.264 Y169.243 E7.03397
G1 X82.686 Y169.203 E7.06095
G1 X82.178 Y169.096 E7.08513
G1 X82.099 Y169.113 E7.08889
G1 X81.521 Y169.152 E7.11586
G1 X81.363 Y169.186 E7.12339
G1 X80.79 Y169.27 E7.15036
G1 X80.211 Y169.275 E7.17732
G1 X79.434 Y169.155 E7.21393
G1 X79.318 Y169.156 E7.21933
G1 X78.748 Y169.259 E7.2463
G1 X78.559 Y169.267 E7.25511
G1 X78.159 Y169.384 E7.27452
G1 X77.586 Y169.469 E7.30149
G1 X77.007 Y169.475 E7.32845
G1 X76.794 Y169.441 E7.33849
G1 X76.534 Y169.522 E7.35118
G1 X75.962 Y169.617 E7.37817
G1 X75.563 Y169.636 E7.39678
G1 X74.849 Y169.636 E7.43002
G1 X74.271 Y169.596 E7.457
G1 X73.925 Y169.523 E7.47347
G1 X73.786 Y169.546 E7.48003
G1 X73.207 Y169.56 E7.507
G1 X72.632 Y169.493 E7.53395
G1 X72.143 Y169.369 E7.55744
G1 X71.719 Y169.457 E7.57761
G1 X71.141 Y169.497 E7.60458
G1 X70.563 Y169.457 E7.63156
G1 X70.267 Y169.404 E7.64556
G1 X69.349 Y169.208 E7.68927
G1 X68.792 Y169.049 E7.71625
G1 X68.263 Y168.814 E7.7432
G1 X67.77 Y168.508 E7.77022
G1 X67.269 Y168.083 E7.80081
G1 X66.557 Y167.377 E7.8475
G1 X66.174 Y166.942 E7.87449
G1 X65.856 Y166.458 E7.90145
G1 X65.607 Y165.935 E7.92843
G1 X65.401 Y165.246 E7.96191
G1 X65.154 Y164.052 E8.01869
G1 X65.076 Y163.478 E8.04566
G1 X65.078 Y162.898 E8.07267
G1 X65.159 Y162.325 E8.09961
G1 X65.319 Y161.768 E8.1266
G1 X65.554 Y161.238 E8.1536
G1 X65.868 Y160.734 E8.18125
G1 X66.57 Y159.767 E8.23689
G1 X66.942 Y159.322 E8.26389
G1 X67.371 Y158.934 E8.29083
G1 X67.85 Y158.608 E8.31781
G1 X68.369 Y158.35 E8.3448
M204 S3000
M205 X10 Y10
G0 F3000 X68.722 Y158.814
M204 S1800
M205 X8 Y8
G1 F2400 X69.241 Y158.668 E8.3699
G1 X69.776 Y158.599 E8.39502
G1 X70.315 Y158.61 E8.42012
G1 X71.098 Y158.774 E8.45737
G1 X72.235 Y159.145 E8.51306
G1 X72.734 Y159.349 E8.53817
G1 X73.197 Y159.626 E8.56329
G1 X73.361 Y159.76 E8.57315
G1 X73.717 Y159.78 E8.58975
G1 X74.177 Y159.658 E8.61191
G1 X74.712 Y159.598 E8.63698
G1 X75.251 Y159.617 E8.6621
G1 X75.374 Y159.64 E8.66792
G1 X75.815 Y159.515 E8.68927
G1 X76.35 Y159.446 E8.71439
G1 X76.889 Y159.457 E8.73949
G1 X77.018 Y159.48 E8.74559
G1 X77.388 Y159.357 E8.76375
G1 X77.919 Y159.263 E8.78886
G1 X78.458 Y159.249 E8.81396
G1 X79.173 Y159.355 E8.84762
G1 X79.371 Y159.405 E8.85713
G1 X79.571 Y159.354 E8.86674
G1 X80.102 Y159.26 E8.89185
G1 X80.575 Y159.248 E8.91388
G1 X80.858 Y159.173 E8.92751
G1 X81.526 Y159.111 E8.95875
G1 X82.24 Y159.111 E8.992
G1 X82.778 Y159.151 E9.01712
G1 X83.312 Y159.273 E9.04263
G1 X83.517 Y159.231 E9.05237
G1 X84.055 Y159.203 E9.07746
G1 X84.592 Y159.254 E9.10257
G1 X85.336 Y159.183 E9.13737
G1 X86.05 Y159.183 E9.17062
G1 X86.231 Y159.196 E9.17907
G1 X86.452 Y159.138 E9.18971
G1 X87.12 Y159.076 E9.22095
G1 X87.834 Y159.076 E9.2542
G1 X88.372 Y159.116 E9.27932
G1 X88.645 Y159.178 E9.29235
G1 X88.912 Y159.148 E9.30486
G1 X89.45 Y159.169 E9.32993
G1 X89.856 Y159.055 E9.34957
G1 X90.386 Y158.956 E9.37468
G1 X90.785 Y158.934 E9.39328
G1 X91.499 Y158.934 E9.42653
G1 X92.037 Y158.974 E9.45165
G1 X92.517 Y159.073 E9.47447
G1 X93.055 Y159.094 E9.49954
G1 X93.243 Y159.132 E9.50847
G1 X93.554 Y159.029 E9.52373
G1 X94.085 Y158.937 E9.54882
G1 X94.438 Y158.92 E9.56528
G1 X95.151 Y158.92 E9.59848
G1 X95.689 Y158.96 E9.6236
G1 X96.127 Y159.04 E9.64433
G1 X96.666 Y159.062 E9.66945
G1 X96.879 Y159.104 E9.67956
G1 X97.22 Y159 E9.69616
G1 X97.753 Y158.92 E9.72126
G1 X98.026 Y158.91 E9.73398
G1 X98.717 Y158.91 E9.76615
G1 X98.675 Y158.446 E9.78785
G1 X98.705 Y157.908 E9.81294
G1 X98.853 Y157.253 E9.84421
G1 X99.104 Y156.482 E9.88196
G1 X99.308 Y155.983 E9.90706
G1 X99.584 Y155.52 E9.93216
G1 X99.926 Y155.102 E9.95731
G1 X100.424 Y154.666 E9.98813
G1 X101.081 Y154.188 E10.02597
G1 X101.539 Y153.904 E10.05106
G1 X102.034 Y153.69 E10.07617
G1 X102.556 Y153.553 E10.1013
G1 X103.222 Y153.491 E10.13245
G1 X104.032 Y153.491 E10.17016
G1 X104.57 Y153.531 E10.19528
G1 X105.096 Y153.65 E10.22039
G1 X105.598 Y153.845 E10.24547
G1 X106.173 Y154.188 E10.27665
G1 X106.83 Y154.666 E10.31448
G1 X107.242 Y155.014 E10.33959
G1 X107.597 Y155.42 E10.36471
G1 X107.889 Y155.874 E10.38984
G1 X108.15 Y156.482 E10.42065
G1 X108.401 Y157.253 E10.45841
G1 X108.53 Y157.777 E10.48353
G1 X108.562 Y158.128 E10.49995
G1 X108.612 Y158.139 E10.50233
G1 X109.114 Y158.334 E10.52741
G1 X109.692 Y158.679 E10.55875
G1 X110.325 Y158.679 E10.58823
G1 X110.863 Y158.719 E10.61335
G1 X111.389 Y158.838 E10.63846
G1 X111.891 Y159.033 E10.66353
G1 X112.099 Y159.157 E10.67481
G1 X112.183 Y159.135 E10.67885
G1 X112.851 Y159.073 E10.71009
G1 X113.565 Y159.073 E10.74334
G1 X114.103 Y159.113 E10.76846
G1 X114.629 Y159.232 E10.79357
G1 X115.131 Y159.427 E10.81865
G1 X115.419 Y159.599 E10.83427
G1 X115.891 Y159.474 E10.857
G1 X116.559 Y159.412 E10.88824
G1 X117.273 Y159.412 E10.92149
G1 X117.811 Y159.452 E10.94661
G1 X118.337 Y159.571 E10.97172
G1 X118.839 Y159.766 E10.9968
G1 X118.901 Y159.803 E11.00016
G1 X119.203 Y159.673 E11.01547
G1 X119.725 Y159.535 E11.04061
G1 X120.393 Y159.473 E11.07185
G1 X121.107 Y159.473 E11.1051
G1 X121.645 Y159.513 E11.13022
G1 X122.171 Y159.632 E11.15533
G1 X122.673 Y159.827 E11.18041
G1 X123.032 Y160.041 E11.19987
G1 X123.132 Y159.998 E11.20494
G1 X123.654 Y159.86 E11.23008
G1 X124.322 Y159.798 E11.26132
G1 X125.036 Y159.798 E11.29456
G1 X125.574 Y159.838 E11.31968
G1 X126.1 Y159.957 E11.3448
G1 X126.565 Y160.138 E11.36803
G1 X127.011 Y159.946 E11.39064
G1 X127.533 Y159.808 E11.41578
G1 X128.201 Y159.746 E11.44702
G1 X128.915 Y159.746 E11.48027
G1 X129.453 Y159.786 E11.50539
G1 X129.979 Y159.905 E11.5305
G1 X130.481 Y160.1 E11.55558
G1 X130.581 Y160.16 E11.56101
G1 X130.717 Y160.101 E11.56791
G1 X131.239 Y159.963 E11.59305
G1 X131.775 Y159.903 E11.61817
G1 X132.544 Y159.957 E11.65406
G1 X132.791 Y160.001 E11.66575
G1 X133.093 Y159.936 E11.68013
G1 X133.627 Y159.861 E11.70524
G1 X134.096 Y159.862 E11.72708
G1 X134.689 Y159.901 E11.75475
G1 X135.17 Y159.837 E11.77734
G1 X135.708 Y159.806 E11.80244
G1 X136.284 Y159.861 E11.82938
G1 X137.46 Y160.07 E11.885
G1 X138.233 Y160.217 E11.92164
G1 X138.686 Y160.132 E11.9431
G1 X139.222 Y160.072 E11.96821
G1 X139.761 Y160.093 E11.99333
G1 X140.291 Y160.192 E12.01844
G1 X140.8 Y160.369 E12.04353
G1 X141.497 Y160.767 E12.0809
G1 X142.092 Y161.2 E12.11517
G1 X142.503 Y161.549 E12.14028
G1 X142.858 Y161.954 E12.16535
G1 X143.15 Y162.408 E12.19049
G1 X143.412 Y163.019 E12.22144
G1 X143.639 Y163.718 E12.25567
G1 X143.767 Y164.242 E12.28078
G1 X143.816 Y164.779 E12.30589
G1 X143.786 Y165.317 E12.33098
G1 X143.676 Y165.845 E12.3561
G1 X143.41 Y166.515 E12.38966
G1 X142.967 Y167.371 E12.43454
G1 X142.684 Y167.83 E12.45965
G1 X142.337 Y168.243 E12.48477
G1 X141.967 Y168.573 E12.50786
G1 X141.376 Y169.032 E12.5427
G1 X140.926 Y169.33 E12.56783
G1 X140.438 Y169.559 E12.59293
